QuanPM-doosan/DoosanRobot_Reinforcement_Learning/ros2_ws/rl_logs_back_up/20251107_091044_ddpg_train.csv
ts,run_tag,mode,phase,ep,step,reward,done,mem_len,learn_flag,ee_x,ee_y,ee_z,j1,j2,j3,j4,j5,j6,sphere_x,sphere_y,sphere_z,dist_out,signed,closest_link
1762481449.019961,ddpg_train,FAR,train,1,0,-8.698608367630897,0,1,0,-0.016,0.039,1.395,0.05558265,0.0026951358,-0.03125581,0.0005755218,-0.017353278,0.072203964,0.84736896,0.36864895,0.2945103,0.4183485209941864,0.4183485209941864,link6
1762481450.4002116,ddpg_train,FAR,train,1,1,-9.179883024383999,0,2,0,-0.163,0.001,1.372,0.23611045,0.019063223,-0.29287305,-0.023317566,0.03142035,0.3627203,0.84736896,0.36864895,0.2945103,0.4669700264930725,0.4669700264930725,link6
1762481451.788357,ddpg_train,FAR,train,1,2,-9.409082254082485,0,3,0,-0.242,-0.019,1.35,0.24334876,-0.011341196,-0.3486264,-0.04203498,-0.07983738,0.3370474,0.84736896,0.36864895,0.2945103,0.5771523714065552,0.5771523714065552,link6
1762481453.1718366,ddpg_train,FAR,train,1,3,-9.68096667296035,0,4,0,-0.333,-0.04,1.315,0.2408724,-0.052047152,-0.40486434,-0.07745473,-0.2285746,0.29888833,0.84736896,0.36864895,0.2945103,0.7366040349006653,0.7366040349006653,link6
1762481454.5538733,ddpg_train,FAR,train,1,4,-9.852364149665023,0,5,0,-0.427,0.001,1.261,0.1254741,-0.07868419,-0.48097792,-0.30618852,-0.36355683,-0.1009841,0.84736896,0.36864895,0.2945103,0.6789647936820984,0.6789647936820984,link6
1762481455.930702,ddpg_train,FAR,train,1,5,-9.907701560197486,0,6,0,-0.43,-0.008,1.267,0.13365033,-0.10371803,-0.43197897,-0.22411504,-0.38625202,-0.12566675,0.84736896,0.36864895,0.2945103,0.5909169316291809,0.5909169316291809,link6
1762481457.3102233,ddpg_train,FAR,train,1,6,-9.568453101674672,0,7,0,-0.334,0.07,1.321,-0.08573093,-0.07880787,-0.3911034,-0.32888776,-0.04477663,0.013646745,0.84736896,0.36864895,0.2945103,0.6337753534317017,0.6337753534317017,link6
1762481458.6890724,ddpg_train,FAR,train,1,7,-9.856945699483138,0,8,0,-0.39,0.01,1.312,0.08333913,-0.15296601,-0.32863316,-0.12660252,-0.021073118,-0.19802694,0.84736896,0.36864895,0.2945103,0.6560007929801941,0.6560007929801941,link6
1762481460.0642781,ddpg_train,FAR,train,1,8,-10.142100052526738,0,9,0,-0.47,-0.019,1.279,0.12401081,-0.21631673,-0.35595995,-0.038189165,-0.018288702,-0.22573848,0.84736896,0.36864895,0.2945103,0.7097228765487671,0.7097228765487671,link6
1762481461.448779,ddpg_train,FAR,train,1,9,-9.95880108962734,0,10,0,-0.434,0.025,1.291,0.041203346,-0.18075536,-0.32416406,-0.16996248,-0.18835218,-0.30012527,0.84736896,0.36864895,0.2945103,0.7260398268699646,0.7260398268699646,link6
1762481462.8363044,ddpg_train,FAR,train,1,10,-9.901966122945375,0,11,0,-0.374,-0.01,1.33,0.13170534,-0.21149619,-0.19595993,-0.15796582,0.09284246,-0.17856646,0.84736896,0.36864895,0.2945103,0.5131484270095825,0.5131484270095825,link6
1762481464.2321281,ddpg_train,FAR,train,1,11,-9.652218887376469,0,12,0,-0.293,-0.024,1.355,0.208506,-0.20093732,-0.13317762,-0.13923247,0.21381134,-0.2373099,0.84736896,0.36864895,0.2945103,0.5732972025871277,0.5732972025871277,link6
1762481465.6126184,ddpg_train,FAR,train,1,12,-8.973201209342358,0,13,0,-0.052,0.025,1.388,0.19101734,-0.11216646,0.115888186,-0.1637849,0.22905852,-0.5727349,0.84736896,0.36864895,0.2945103,0.3072390556335449,0.3072390556335449,link6
1762481466.9900954,ddpg_train,FAR,train,1,13,-8.810944435893207,0,14,0,0.005,0.036,1.381,0.36590576,-0.08933374,0.12026629,-0.1512556,0.410641,-0.596532,0.84736896,0.36864895,0.2945103,0.2735903859138489,0.2735903859138489,link6
1762481468.3704667,ddpg_train,FAR,train,1,14,-8.50379767809615,0,15,0,0.01,0.042,1.377,0.5020685,-0.063921005,0.06494492,-0.1211138,0.5169479,-0.6379485,0.84736896,0.36864895,0.2945103,0.4394060969352722,0.4394060969352722,link6
1762481469.754971,ddpg_train,FAR,train,1,15,-8.919078211314044,0,16,0,0.049,0.06,1.382,0.37780434,-0.056885216,0.15775467,-0.03671795,0.29048198,-0.8459267,0.84736896,0.36864895,0.2945103,0.2094862461090088,0.2094862461090088,link6
1762481471.1605651,ddpg_train,FAR,train,1,16,-8.840548836816264,0,17,0,0.112,0.087,1.371,0.42009935,-0.016009541,0.18429552,-0.10646821,0.34984183,-0.71858084,0.84736896,0.36864895,0.2945103,0.17862097918987274,0.17862097918987274,link6
1762481472.5411983,ddpg_train,FAR,train,1,17,-8.716518692432738,0,18,0,0.059,0.078,1.391,0.50914204,0.060820136,0.004296429,0.035055164,0.10396951,-0.29115158,0.84736896,0.36864895,0.2945103,0.24579252302646637,0.24579252302646637,link6
1762481473.9230816,ddpg_train,FAR,train,1,18,-8.695205399447246,0,19,0,0.101,0.122,1.382,0.5906578,0.08241309,0.044227317,0.23096687,0.22659016,-0.08598127,0.84736896,0.36864895,0.2945103,0.2049243152141571,0.2049243152141571,link6
1762481475.2987134,ddpg_train,FAR,train,1,19,-10.106192269261495,0,20,0,0.175,0.162,1.364,0.53390545,0.10802536,0.11772681,0.29839328,0.279127,-0.07722607,0.84736896,0.36864895,0.2945103,0.0723300352692604,0.0723300352692604,link6
1762481476.740719,ddpg_train,MID,train,1,20,-8.799631941572459,0,21,0,0.123,0.064,1.384,0.17622864,0.044271585,0.09646266,0.11336152,0.14561695,-0.18596962,0.84736896,0.36864895,0.2945103,0.19109340012073517,0.19109340012073517,link6
1762481478.1242123,ddpg_train,FAR,train,1,21,-8.592015411198116,0,22,0,0.011,0.042,1.395,0.11972028,0.004997243,-0.025025284,0.10685143,0.06942571,-0.13670641,0.84736896,0.36864895,0.2945103,0.42667707800865173,0.42667707800865173,link6
1762481479.4985342,ddpg_train,FAR,train,1,22,-9.176566491526808,0,23,0,-0.17,0.021,1.38,0.11929999,-0.057794023,-0.16382796,0.08719887,-0.011016298,-0.058346353,0.84736896,0.36864895,0.2945103,0.6241142153739929,0.6241142153739929,link6
1762481480.8766518,ddpg_train,FAR,train,1,23,-9.494055665398735,0,24,0,-0.268,-0.001,1.348,0.18776436,-0.096461855,-0.14589101,-0.22540614,-0.43618965,0.321033,0.84736896,0.36864895,0.2945103,0.5289949774742126,0.5289949774742126,link6
1762481482.2558908,ddpg_train,FAR,train,1,24,-9.639657272277885,0,25,0,-0.332,0.027,1.329,0.034671567,-0.120095715,-0.25817046,-0.07680942,-0.30263582,0.29914603,0.84736896,0.36864895,0.2945103,0.6671504378318787,0.6671504378318787,link6
1762481483.6419878,ddpg_train,FAR,train,1,25,-9.12979265494398,0,26,0,-0.139,0.025,1.387,0.11248672,-0.13133706,0.020978922,0.11535742,0.06968659,0.2132237,0.84736896,0.36864895,0.2945103,0.44071096181869507,0.44071096181869507,link6
1762481485.0268853,ddpg_train,FAR,train,1,26,-9.140772530681462,0,27,0,-0.147,0.043,1.384,-0.005110112,-0.17863946,0.09484553,0.36579177,0.08421617,0.089710765,0.84736896,0.36864895,0.2945103,0.4168381989002228,0.4168381989002228,link6
1762481486.423647,ddpg_train,FAR,train,1,27,-9.278007569066128,0,28,0,-0.197,0.035,1.378,0.03844915,-0.20901646,0.07370477,0.4175662,0.030314391,0.094949126,0.84736896,0.36864895,0.2945103,0.5133386254310608,0.5133386254310608,link6
1762481487.8098161,ddpg_train,FAR,train,1,28,-9.034003203420669,0,29,0,-0.117,0.044,1.386,-0.048755996,-0.17040233,0.13807127,0.50537753,-0.022242155,0.28406265,0.84736896,0.36864895,0.2945103,0.4127501845359802,0.4127501845359802,link6
1762481489.1942525,ddpg_train,FAR,train,1,29,-9.415487928794649,0,30,0,-0.234,0.02,1.372,0.0770807,-0.2190291,0.05352843,0.39476466,-0.06288698,0.44391873,0.84736896,0.36864895,0.2945103,0.5503448247909546,0.5503448247909546,link6
1762481490.5695777,ddpg_train,FAR,train,1,30,-9.842412374282846,0,31,0,-0.359,-0.008,1.339,0.121982485,-0.26849145,-0.04968992,0.31087926,-0.09726329,0.543094,0.84736896,0.36864895,0.2945103,0.689452588558197,0.689452588558197,link6
1762481491.9563563,ddpg_train,FAR,train,1,31,-9.655790729505886,0,32,0,-0.332,0.04,1.336,-0.02094739,-0.18323383,-0.12321694,0.14137527,-0.35102907,0.59217453,0.84736896,0.36864895,0.2945103,0.6066096425056458,0.6066096425056458,link6
1762481493.4632647,ddpg_train,FAR,train,1,32,-9.741802369427257,0,33,1,-0.382,0.08,1.312,-0.10080114,-0.22284305,-0.11971988,-0.059422374,-0.4667082,0.53330094,0.84736896,0.36864895,0.2945103,0.6072486042976379,0.6072486042976379,link6
1762481494.8414536,ddpg_train,FAR,train,1,33,-9.411261485199626,0,34,1,-0.244,-0.01,1.35,0.24781293,-0.13566057,-0.012289282,-0.13804147,-0.6040192,0.074097484,0.84736896,0.36864895,0.2945103,0.5398644804954529,0.5398644804954529,link6
1762481496.2365246,ddpg_train,FAR,train,1,34,-9.315968702081591,0,35,1,-0.197,-0.063,1.346,0.5255265,-0.11910015,0.037714526,-0.06062999,-0.7810982,-0.17853637,0.84736896,0.36864895,0.2945103,0.45198673009872437,0.45198673009872437,link6
1762481497.6133468,ddpg_train,FAR,train,1,35,-9.21725149142657,0,36,1,-0.149,-0.07,1.354,0.6854791,-0.09907036,0.07215184,0.006709993,-0.7660693,-0.17956643,0.84736896,0.36864895,0.2945103,0.38861924409866333,0.38861924409866333,link6
1762481499.0223417,ddpg_train,FAR,train,1,36,-8.67776360941605,0,37,1,-0.004,0.034,1.361,0.9555872,-0.0428641,0.2748763,0.18233581,-0.81129473,0.10783985,0.84736896,0.36864895,0.2945103,0.30063939094543457,0.30063939094543457,link6
1762481500.4003263,ddpg_train,FAR,train,1,37,-8.600555595290874,0,38,1,0.005,0.092,1.373,1.2080235,-0.009254634,0.26062894,0.16095436,-0.5415647,0.0018329101,0.84736896,0.36864895,0.2945103,0.310732901096344,0.310732901096344,link6
1762481501.7911928,ddpg_train,FAR,train,1,38,-8.48027155437405,0,39,1,-0.004,0.157,1.372,1.3833076,0.015794154,0.2860014,0.12593904,-0.3453364,-0.12862933,0.84736896,0.36864895,0.2945103,0.35509181022644043,0.35509181022644043,link6
1762481503.1709433,ddpg_train,FAR,train,1,39,-8.333086987648983,0,40,1,0.014,0.203,1.344,1.3444289,-0.06891834,0.49917328,0.24940678,-0.24677943,-0.43017465,0.84736896,0.36864895,0.2945103,0.30741289258003235,0.30741289258003235,link6
1762481504.5508552,ddpg_train,FAR,train,1,40,-8.018214972075688,0,41,1,0.042,0.27,1.316,1.2909687,-0.0569416,0.58921057,0.207805,-0.19805089,-0.37163657,0.84736896,0.36864895,0.2945103,0.32646578550338745,0.32646578550338745,link6
1762481505.932928,ddpg_train,FAR,train,1,41,-7.7727588042714935,0,42,1,0.067,0.332,1.286,1.2644951,-0.034233637,0.65358907,0.11859758,-0.11944498,-0.29529005,0.84736896,0.36864895,0.2945103,0.3223729729652405,0.3223729729652405,link6
1762481507.3100252,ddpg_train,FAR,train,1,42,-8.334611655243503,0,43,1,-0.01,0.176,1.329,1.3918326,-0.16809526,0.5601203,0.13575383,0.14948408,0.14234132,0.84736896,0.36864895,0.2945103,0.3267074525356293,0.3267074525356293,link6
1762481508.7362335,ddpg_train,FAR,train,1,43,-8.414311840280563,0,44,1,0.005,0.149,1.329,1.2353183,-0.20742615,0.6007275,0.24265252,0.09168427,0.14850405,0.84736896,0.36864895,0.2945103,0.28064393997192383,0.28064393997192383,link6
1762481510.1679957,ddpg_train,FAR,train,1,44,-9.097834608159829,0,45,1,-0.091,-0.08,1.376,0.9946241,-0.25078747,0.30630735,0.36294264,-0.15926287,0.41864896,0.84736896,0.36864895,0.2945103,0.39638346433639526,0.39638346433639526,link6
1762481511.5512602,ddpg_train,FAR,train,1,45,-9.538233599577765,0,46,1,-0.126,-0.259,1.358,1.2548044,-0.30556208,0.12934697,0.26711586,-0.048790503,0.61836374,0.84736896,0.36864895,0.2945103,0.3873648941516876,0.3873648941516876,link6
1762481512.936327,ddpg_train,FAR,train,1,46,-9.68563574615012,0,47,1,-0.112,-0.407,1.319,1.3895469,-0.36539724,-0.000943553,0.22517344,0.04049312,0.72256196,0.84736896,0.36864895,0.2945103,0.4359689950942993,0.4359689950942993,link6
1762481514.315899,ddpg_train,FAR,train,1,47,-10.002940924259942,0,48,1,-0.249,-0.382,1.296,1.116517,-0.34261662,-0.16089942,0.40305564,0.4348292,0.6208976,0.84736896,0.36864895,0.2945103,0.553706705570221,0.553706705570221,link6
1762481515.709616,ddpg_train,FAR,train,1,48,-10.207932310259933,0,49,1,-0.301,-0.432,1.251,1.0761682,-0.41475537,-0.18802245,0.28321373,0.657959,0.56948364,0.84736896,0.36864895,0.2945103,0.4960862994194031,0.4960862994194031,link6
1762481517.0880017,ddpg_train,FAR,train,1,49,-9.862959326810554,0,50,1,-0.243,-0.333,1.299,1.1291386,-0.2684498,-0.2573623,0.5602048,0.61794335,0.5828345,0.84736896,0.36864895,0.2945103,0.5433729887008667,0.5433729887008667,link6
1762481518.550779,ddpg_train,FAR,train,1,50,-9.752417953311557,0,51,1,-0.226,-0.265,1.326,1.0518208,-0.3003983,-0.058999933,0.3928476,0.5937726,0.7753919,0.84736896,0.36864895,0.2945103,0.4710234999656677,0.4710234999656677,link6
1762481519.9334877,ddpg_train,FAR,train,1,51,-9.770045332474533,0,52,1,-0.242,-0.257,1.324,0.9879202,-0.34811774,-0.012067998,0.3970731,0.5802752,0.70178,0.84736896,0.36864895,0.2945103,0.5303389430046082,0.5303389430046082,link6
1762481521.3109102,ddpg_train,FAR,train,1,52,-9.439638811482471,0,53,1,-0.194,-0.113,1.361,0.868992,-0.27261457,0.12688228,0.8029908,0.41786358,0.104198284,0.84736896,0.36864895,0.2945103,0.48083803057670593,0.48083803057670593,link6
1762481522.7145896,ddpg_train,FAR,train,1,53,-9.569107870067633,0,54,1,-0.219,-0.158,1.345,0.92260915,-0.34990162,0.18967561,0.7507007,0.47827998,0.16421674,0.84736896,0.36864895,0.2945103,0.46433722972869873,0.46433722972869873,link6
1762481524.1748652,ddpg_train,FAR,train,1,54,-9.536362947604884,0,55,1,-0.219,-0.153,1.338,0.8963813,-0.38511133,0.23026597,0.7215726,0.52009517,0.17919594,0.84736896,0.36864895,0.2945103,0.454545795917511,0.454545795917511,link6
1762481525.565112,ddpg_train,FAR,train,1,55,-9.046447781885037,0,56,1,-0.148,0.013,1.351,0.577132,-0.27909186,0.26504982,0.81281674,0.61854,0.04587123,0.84736896,0.36864895,0.2945103,0.4139211177825928,0.4139211177825928,link6
1762481526.9601061,ddpg_train,FAR,train,1,56,-9.05072651815821,0,57,1,-0.142,0.009,1.346,0.7024521,-0.28440005,0.29520115,0.8888631,0.65786266,0.04285045,0.84736896,0.36864895,0.2945103,0.37020713090896606,0.37020713090896606,link6
1762481528.377479,ddpg_train,FAR,train,1,57,-8.44847810654941,0,58,1,-0.057,0.145,1.321,1.0413116,-0.13618498,0.35314596,1.0681955,0.8828241,0.22190058,0.84736896,0.36864895,0.2945103,0.3640414774417877,0.3640414774417877,link6
1762481529.7705686,ddpg_train,FAR,train,1,58,-8.575324737441175,0,59,1,-0.089,0.109,1.323,0.98070794,-0.1616451,0.32829073,1.2624067,0.94890195,0.13970439,0.84736896,0.36864895,0.2945103,0.4065041244029999,0.4065041244029999,link6
1762481531.1568246,ddpg_train,FAR,train,1,59,-8.770160154764856,0,60,1,-0.123,0.067,1.324,0.95744294,-0.1986247,0.3375466,1.439971,0.9511174,0.11615559,0.84736896,0.36864895,0.2945103,0.40067341923713684,0.40067341923713684,link6
1762481532.5340397,ddpg_train,FAR,train,1,60,-8.147263434274038,0,61,1,0.018,0.194,1.301,0.7755143,-0.1696734,0.59210306,1.6352085,0.7741469,-0.08465142,0.84736896,0.36864895,0.2945103,0.2986351251602173,0.2986351251602173,link6
1762481533.9224977,ddpg_train,FAR,train,1,61,-7.909589605830695,0,62,1,0.048,0.231,1.282,0.78544647,-0.13839686,0.64324915,1.7442753,0.8456951,-0.16046457,0.84736896,0.36864895,0.2945103,0.3027912974357605,0.3027912974357605,link6
1762481535.2994528,ddpg_train,FAR,train,1,62,-7.77627237009807,0,63,1,0.06,0.255,1.266,0.8008478,-0.12104352,0.6795405,1.8216176,0.91564393,-0.22942883,0.84736896,0.36864895,0.2945103,0.3026730418205261,0.3026730418205261,link6
1762481536.678102,ddpg_train,FAR,train,1,63,-7.7341497821659555,0,64,1,0.091,0.257,1.264,0.7099694,-0.11399564,0.65503955,1.6394815,0.8892253,-0.42057952,0.84736896,0.36864895,0.2945103,0.27303430438041687,0.27303430438041687,link6
1762481538.0867019,ddpg_train,FAR,train,1,64,-7.65339268691613,0,65,1,0.118,0.272,1.263,0.7010438,-0.08069151,0.6514475,1.7300538,0.8550771,-0.4284999,0.84736896,0.36864895,0.2945103,0.26427602767944336,0.26427602767944336,link6
1762481539.4654436,ddpg_train,FAR,train,1,65,-8.660749610290626,0,66,1,0.261,0.183,1.297,0.29757747,-0.006625787,0.5608373,1.9686106,0.53557426,-0.6645238,0.84736896,0.36864895,0.2945103,0.11369530111551285,0.11369530111551285,link6
1762481540.904792,ddpg_train,MID,train,1,66,-7.270084444827678,0,67,1,0.34,0.245,1.236,0.34847835,0.052501682,0.65763307,1.9552057,0.71874124,-0.6481676,0.84736896,0.36864895,0.2945103,0.181972473859787,0.181972473859787,link6
1762481542.282604,ddpg_train,FAR,train,1,67,-6.656468272684198,0,68,1,0.427,0.288,1.167,0.3594785,0.101445,0.7788933,1.9164351,0.7366177,-0.58271813,0.84736896,0.36864895,0.2945103,0.18012145161628723,0.18012145161628723,link6
1762481543.6583912,ddpg_train,FAR,train,1,68,-5.970442775366265,0,69,1,0.398,0.321,1.099,0.46509382,-0.018969592,1.0409403,1.9641331,0.661219,-0.2939977,0.84736896,0.36864895,0.2945103,0.2443823516368866,0.2443823516368866,link6
1762481545.04751,ddpg_train,FAR,train,1,69,-6.107295129022983,0,70,1,0.46,0.311,1.067,0.41652238,0.0063084103,1.0614984,1.8432112,0.49831918,-0.23150234,0.84736896,0.36864895,0.2945103,0.1702944040298462,0.1702944040298462,link6
1762481546.42756,ddpg_train,FAR,train,1,70,-7.68249442593971,0,71,1,0.456,0.26,1.11,0.36318138,-0.0046649114,0.9906198,1.7476355,0.33748358,-0.18649593,0.84736896,0.36864895,0.2945103,0.08136250078678131,0.08136250078678131,link6
1762481547.8662581,ddpg_train,MID,train,1,71,-8.460002491694008,0,72,1,0.181,0.14,1.335,0.41794217,-0.07877383,0.4904676,1.6791773,0.13340113,-0.3430659,0.84736896,0.36864895,0.2945103,0.16921310126781464,0.16921310126781464,link6
1762481549.2431045,ddpg_train,FAR,train,1,72,-8.690054561565214,0,73,1,0.15,0.111,1.349,0.38697925,-0.0933652,0.46359688,1.6505163,0.03685877,-0.37980804,0.84736896,0.36864895,0.2945103,0.1662033051252365,0.1662033051252365,link6
1762481550.6220744,ddpg_train,FAR,train,1,73,-8.890868611310099,0,74,1,-0.062,0.026,1.384,0.27888712,-0.17873345,0.2520654,1.545804,0.021378774,-0.3616683,0.84736896,0.36864895,0.2945103,0.36390504240989685,0.36390504240989685,link6
1762481551.9999034,ddpg_train,FAR,train,1,74,-8.955960281019221,0,75,1,-0.103,0.054,1.378,0.34928507,-0.15411118,0.14951228,1.3336056,0.41103175,-0.53900063,0.84736896,0.36864895,0.2945103,0.38643544912338257,0.38643544912338257,link6
1762481553.3776047,ddpg_train,FAR,train,1,75,-9.075270557751839,0,76,1,-0.095,0.058,1.374,0.4807945,-0.1474706,0.1692583,1.2207965,0.4638493,-0.5257127,0.84736896,0.36864895,0.2945103,0.2890183925628662,0.2890183925628662,link6
1762481554.7547054,ddpg_train,FAR,train,1,76,-8.237870068139694,0,77,1,0.102,0.188,1.326,0.69075805,-0.10608914,0.48558143,0.91981095,0.4269105,-0.17840458,0.84736896,0.36864895,0.2945103,0.22525747120380402,0.22525747120380402,link6
1762481556.146789,ddpg_train,FAR,train,1,77,-8.113101384590335,0,78,1,0.164,0.219,1.299,0.6484465,-0.09635421,0.5744044,0.86698246,0.38855958,0.0064508645,0.84736896,0.36864895,0.2945103,0.18726445734500885,0.18726445734500885,link6
1762481557.53843,ddpg_train,FAR,train,1,78,-7.489107058570595,0,79,1,0.183,0.242,1.286,0.710992,-0.085816234,0.6113566,0.8621566,0.3317276,0.03253778,0.84736896,0.36864895,0.2945103,0.2854536771774292,0.2854536771774292,link6
1762481558.9403098,ddpg_train,FAR,train,1,79,-8.52779880984518,0,80,1,0.046,0.128,1.367,0.9290724,-0.08758907,0.36836207,0.9890457,-0.0060905665,-0.17002973,0.84736896,0.36864895,0.2945103,0.2614094316959381,0.2614094316959381,link6
1762481560.370307,ddpg_train,FAR,train,1,80,-8.397539836100115,0,81,1,0.042,0.154,1.363,0.8776291,-0.07051107,0.34808135,1.1809903,0.23495372,-0.32936436,0.84736896,0.36864895,0.2945103,0.29307302832603455,0.29307302832603455,link6
1762481561.7569003,ddpg_train,FAR,train,1,81,-8.17873583894834,0,82,1,0.004,0.195,1.307,0.770894,-0.11125676,0.43255004,1.4213934,0.92964196,-0.36797443,0.84736896,0.36864895,0.2945103,0.31990018486976624,0.31990018486976624,link6
1762481563.150855,ddpg_train,FAR,train,1,82,-7.869353945440447,0,83,1,0.129,0.243,1.265,0.60403156,-0.12702502,0.7013236,1.7199869,0.7854106,-0.24368772,0.84736896,0.36864895,0.2945103,0.21445369720458984,0.21445369720458984,link6
1762481564.5353386,ddpg_train,FAR,train,1,83,-6.775262885124245,0,84,1,0.228,0.298,1.18,0.5883381,-0.12885797,0.9613063,1.8487103,0.78111416,-0.2109342,0.84736896,0.36864895,0.2945103,0.28903523087501526,0.28903523087501526,link6
1762481565.9189298,ddpg_train,FAR,train,1,84,-6.042264241632848,0,85,1,0.254,0.358,1.048,0.6242249,-0.13005954,1.2261722,1.9665537,1.123326,-0.54301083,0.84736896,0.36864895,0.2945103,0.28562045097351074,0.28562045097351074,link6
1762481567.2983842,ddpg_train,FAR,train,1,85,-6.074899951911202,0,86,1,0.227,0.355,1.022,0.6630894,-0.13662308,1.2999783,2.157478,1.382286,-0.6495684,0.84736896,0.36864895,0.2945103,0.2694726586341858,0.2694726586341858,link6
1762481568.687327,ddpg_train,FAR,train,1,86,-6.223032437814939,0,87,1,0.205,0.333,1.009,0.67151254,-0.15281393,1.3644946,2.2933116,1.5769354,-0.7937947,0.84736896,0.36864895,0.2945103,0.23984886705875397,0.23984886705875397,link6
1762481570.0679283,ddpg_train,FAR,train,1,87,-5.698987638981468,0,88,1,0.249,0.296,0.907,0.57543415,-0.17843843,1.6124539,2.4931095,1.8156149,-1.2844344,0.84736896,0.36864895,0.2945103,0.22201910614967346,0.22201910614967346,link6
1762481571.452409,ddpg_train,FAR,train,1,88,-5.366014170375268,0,89,1,0.199,0.322,0.841,0.7218348,-0.19127405,1.741554,2.4518704,1.9723959,-1.2997016,0.84736896,0.36864895,0.2945103,0.29166579246520996,0.29166579246520996,link6
1762481572.9232986,ddpg_train,FAR,train,1,89,-5.872735480493625,0,90,1,0.133,0.312,0.832,0.8258826,-0.23266459,1.7838229,2.4028141,2.0927184,-1.2750639,0.84736896,0.36864895,0.2945103,0.23065185546875,0.23065185546875,link6
1762481574.306212,ddpg_train,FAR,train,1,90,-5.348855311325109,0,91,1,0.201,0.336,0.839,0.7609693,-0.16223381,1.7269536,2.506765,1.9735525,-1.2013279,0.84736896,0.36864895,0.2945103,0.29032185673713684,0.29032185673713684,link6
1762481575.6944416,ddpg_train,FAR,train,1,91,-5.1735953684588685,0,92,1,0.198,0.369,0.803,0.834552,-0.11678942,1.772699,2.543944,1.9994384,-1.250065,0.84736896,0.36864895,0.2945103,0.31011438369750977,0.31011438369750977,link6
1762481577.078725,ddpg_train,FAR,train,1,92,-5.79866720715756,0,93,1,0.058,0.317,0.801,1.0984919,-0.20232989,1.7679743,2.3721359,2.4610584,-1.6608778,0.84736896,0.36864895,0.2945103,0.3424616754055023,0.3424616754055023,link6
1762481578.4620256,ddpg_train,FAR,train,1,93,-5.658089416219778,0,94,1,0.081,0.309,0.768,1.0486395,-0.1959185,1.8324134,2.4637296,2.5496151,-1.8485477,0.84736896,0.36864895,0.2945103,0.3031527101993561,0.3031527101993561,link6
1762481579.8391495,ddpg_train,FAR,train,1,94,-5.599376567982888,0,95,1,0.102,0.299,0.75,0.98569626,-0.20096126,1.8935446,2.5379052,2.5419216,-1.9577789,0.84736896,0.36864895,0.2945103,0.26835715770721436,0.26835715770721436,link6
1762481581.2389863,ddpg_train,FAR,train,1,95,-5.8542158772260375,0,96,1,0.127,0.248,0.824,0.8596982,-0.23774345,1.7287524,2.6988018,2.6380136,-2.391869,0.84736896,0.36864895,0.2945103,0.24272237718105316,0.24272237718105316,link6
1762481582.6197364,ddpg_train,FAR,train,1,96,-5.477964043981956,0,97,1,0.084,0.267,0.721,1.0415516,-0.2512765,1.990946,2.6037302,2.664549,-2.351448,0.84736896,0.36864895,0.2945103,0.32387641072273254,0.32387641072273254,link6
1762481583.9985328,ddpg_train,FAR,train,1,97,-5.612420086289669,0,98,1,0.03,0.256,0.667,1.1803448,-0.27657953,2.1167533,2.5215552,2.6993473,-2.300821,0.84736896,0.36864895,0.2945103,0.33201056718826294,0.33201056718826294,link6
1762481585.3748894,ddpg_train,FAR,train,1,98,-6.427563144455655,0,99,1,-0.061,0.256,0.824,1.6116023,-0.23860008,1.6731473,2.7741363,2.8290317,-2.462514,0.84736896,0.36864895,0.2945103,0.4099413752555847,0.4099413752555847,link6
1762481586.758742,ddpg_train,FAR,train,1,99,-6.485670875739681,0,100,1,-0.123,0.269,0.747,1.7974023,-0.2051537,1.8767061,2.7138364,2.7400293,-2.4363348,0.84736896,0.36864895,0.2945103,0.49965065717697144,0.49965065717697144,link6
1762481588.1394465,ddpg_train,FAR,train,1,100,-6.600486185164501,0,101,1,-0.17,0.257,0.678,1.934865,-0.18535341,2.0451195,2.6284962,2.6601803,-2.3928676,0.84736896,0.36864895,0.2945103,0.47628873586654663,0.47628873586654663,link6
1762481589.522316,ddpg_train,FAR,train,1,101,-6.848191819172161,0,102,1,-0.218,0.207,0.66,2.179109,-0.20891497,2.1191797,2.7587888,2.5518305,-2.603132,0.84736896,0.36864895,0.2945103,0.5470999479293823,0.5470999479293823,link6
1762481590.900921,ddpg_train,FAR,train,1,102,-6.884366354498354,0,103,1,-0.229,0.194,0.637,2.2158449,-0.19780862,2.1723015,2.7198684,2.5836492,-2.7451608,0.84736896,0.36864895,0.2945103,0.5237427949905396,0.5237427949905396,link6
1762481592.2807019,ddpg_train,FAR,train,1,103,-6.669304283520611,0,104,1,-0.214,0.254,0.591,1.9468012,-0.21023495,2.2976964,2.4545128,2.127356,-3.026239,0.84736896,0.36864895,0.2945103,0.5444476008415222,0.5444476008415222,link6
1762481593.6622343,ddpg_train,FAR,train,1,104,-6.622597772784974,0,105,1,-0.196,0.282,0.631,1.8999969,-0.18555056,2.1839342,2.558897,2.2278464,-3.1060314,0.84736896,0.36864895,0.2945103,0.5324050188064575,0.5324050188064575,link6
1762481595.0462685,ddpg_train,FAR,train,1,105,-6.4794822032951025,0,106,1,-0.161,0.299,0.644,1.8042548,-0.16482602,2.1398418,2.592158,2.3948863,-3.1257365,0.84736896,0.36864895,0.2945103,0.4381043314933777,0.4381043314933777,link6
1762481596.4229753,ddpg_train,FAR,train,1,106,-6.745316005971382,0,107,1,-0.183,0.231,0.709,2.0061781,-0.23321186,2.0135753,2.6405637,2.579399,-3.050766,0.84736896,0.36864895,0.2945103,0.5094534754753113,0.5094534754753113,link6
1762481597.8104875,ddpg_train,FAR,train,1,107,-6.860590571289532,0,108,1,-0.223,0.189,0.643,2.2349484,-0.18863307,2.1159017,2.637598,2.7518885,-3.1099238,0.84736896,0.36864895,0.2945103,0.5468182563781738,0.5468182563781738,link6
1762481599.186761,ddpg_train,FAR,train,1,108,-7.026348395812759,0,109,1,-0.257,0.164,0.62,2.40461,-0.13602652,2.118841,2.7310162,2.83537,-3.122403,0.84736896,0.36864895,0.2945103,0.6209310293197632,0.6209310293197632,link6
1762481600.566114,ddpg_train,FAR,train,1,109,-7.7571953877936135,0,110,1,-0.355,0.16,0.718,2.6171591,-0.016304398,1.762354,3.140229,2.8602827,-2.9716632,0.84736896,0.36864895,0.2945103,0.6598908305168152,0.6598908305168152,link6
1762481601.9428484,ddpg_train,FAR,train,1,110,-7.685921265276662,0,111,1,-0.374,0.194,0.635,2.5686529,0.07377627,1.8660724,3.155912,2.928391,-3.0612752,0.84736896,0.36864895,0.2945103,0.6654282212257385,0.6654282212257385,link6
1762481603.327582,ddpg_train,FAR,train,1,111,-7.5706214690215825,0,112,1,-0.369,0.229,0.595,2.493072,0.12885503,1.913621,3.1575103,2.9480486,-3.1416075,0.84736896,0.36864895,0.2945103,0.6651946902275085,0.6651946902275085,link6
1762481604.7782264,ddpg_train,FAR,train,1,112,-7.2443656801815655,0,113,1,-0.333,0.263,0.519,2.385723,0.1616492,2.112721,3.146113,2.8119965,-3.141605,0.84736896,0.36864895,0.2945103,0.6517052054405212,0.6517052054405212,link6
1762481606.1740866,ddpg_train,FAR,train,1,113,-7.326070545791328,0,114,1,-0.354,0.236,0.462,2.4712696,0.24216694,2.1804965,3.1533458,2.830851,-3.1416137,0.84736896,0.36864895,0.2945103,0.6958456039428711,0.6958456039428711,link6
1762481607.558648,ddpg_train,FAR,train,1,114,-7.267167999333715,0,115,1,-0.343,0.3,0.502,2.3307962,0.23970225,2.0529914,3.0544002,2.8612068,-3.1415937,0.84736896,0.36864895,0.2945103,0.6799050569534302,0.6799050569534302,link6
1762481608.938829,ddpg_train,FAR,train,1,115,-7.304468407561766,0,116,1,-0.353,0.337,0.49,2.2940683,0.2966326,1.956674,3.1177282,2.9209516,-3.1416035,0.84736896,0.36864895,0.2945103,0.6928346753120422,0.6928346753120422,link6
1762481610.3187246,ddpg_train,FAR,train,1,116,-7.318378548891304,0,117,1,-0.357,0.355,0.482,2.2830102,0.34642777,1.9359334,3.1569374,2.9759405,-3.1416154,0.84736896,0.36864895,0.2945103,0.6976402401924133,0.6976402401924133,link6
1762481611.6999257,ddpg_train,FAR,train,1,117,-7.243121034301858,0,118,1,-0.345,0.306,0.466,2.3249385,0.30353093,2.02111,2.853692,3.073328,-3.1415951,0.84736896,0.36864895,0.2945103,0.6807761788368225,0.6807761788368225,link6
1762481613.0859172,ddpg_train,FAR,train,1,118,-7.454412313039423,0,119,1,-0.385,0.271,0.412,2.4493196,0.39076245,2.0465531,2.5952654,3.113304,-3.1415963,0.84736896,0.36864895,0.2945103,0.7236304879188538,0.7236304879188538,link6
1762481614.5836546,ddpg_train,FAR,train,1,119,-7.6969295893733385,0,120,1,-0.423,0.235,0.409,2.5517907,0.42521164,2.0220783,2.4303455,3.1056368,-3.1415837,0.84736896,0.36864895,0.2945103,0.7861077785491943,0.7861077785491943,link6
1762481615.9657729,ddpg_train,FAR,train,1,120,-8.450319131200539,0,121,1,-0.512,0.05,0.477,2.9591682,0.36261472,1.895113,2.5523038,3.0150883,-3.1415913,0.84736896,0.36864895,0.2945103,0.7948486804962158,0.7948486804962158,link6
1762481617.3457227,ddpg_train,FAR,train,1,121,-7.609788419455184,0,122,1,-0.351,-0.044,0.335,3.139239,0.4177829,2.421389,2.701771,3.0561433,-3.1321747,0.84736896,0.36864895,0.2945103,0.8212604522705078,0.8212604522705078,link6
1762481618.7273693,ddpg_train,FAR,train,1,122,-8.175920744127229,0,123,1,-0.476,0.077,0.434,2.8953793,0.37422276,2.0068767,2.7412736,3.0854557,-3.1415925,0.84736896,0.36864895,0.2945103,0.7725335955619812,0.7725335955619812,link6
1762481620.1090436,ddpg_train,FAR,train,1,123,-7.9903323991098665,0,124,1,-0.442,0.043,0.352,2.9548926,0.46702126,2.172482,2.7660437,3.121415,-3.104891,0.84736896,0.36864895,0.2945103,0.7198584079742432,0.7198584079742432,link6
1762481621.4846342,ddpg_train,FAR,train,1,124,-7.891274003607297,0,125,1,-0.426,0.043,0.325,2.9331577,0.51254743,2.2351274,2.8415534,3.1081536,-3.0611033,0.84736896,0.36864895,0.2945103,0.7401130795478821,0.7401130795478821,link6
1762481622.861957,ddpg_train,FAR,train,1,125,-8.169650373596019,0,126,1,-0.489,0.119,0.365,2.8290925,0.5010765,2.0044045,2.9027479,3.1291342,-3.093483,0.84736896,0.36864895,0.2945103,0.7947758436203003,0.7947758436203003,link6
1762481624.2389467,ddpg_train,FAR,train,1,126,-8.02763167485379,0,127,1,-0.461,0.092,0.28,2.8612113,0.63134944,2.1512623,3.0222082,3.1415567,-3.1229217,0.84736896,0.36864895,0.2945103,0.7300577759742737,0.7300577759742737,link6
1762481625.6205513,ddpg_train,FAR,train,1,127,-7.906031796663864,0,128,1,-0.435,0.068,0.276,2.900409,0.62782574,2.23129,3.1162443,3.1355984,-3.1416013,0.84736896,0.36864895,0.2945103,0.7639022469520569,0.7639022469520569,link6
1762481626.9997718,ddpg_train,FAR,train,1,128,-7.836424405537988,0,129,1,-0.399,-0.018,0.316,3.0892968,0.48665938,2.3140447,2.7578452,3.1319916,-2.9994931,0.84736896,0.36864895,0.2945103,0.6799024939537048,0.6799024939537048,link6
1762481628.379499,ddpg_train,FAR,train,1,129,-7.597507132117564,0,130,1,-0.369,0.022,0.286,2.9648056,0.5534393,2.4115074,2.7032976,3.1089969,-2.9451854,0.84736896,0.36864895,0.2945103,0.6372952461242676,0.6372952461242676,link6
1762481629.7641625,ddpg_train,FAR,train,1,130,-7.323777691205503,0,131,1,-0.327,0.043,0.324,2.865033,0.41951683,2.5133357,2.6523921,2.9898784,-3.1195996,0.84736896,0.36864895,0.2945103,0.626215398311615,0.626215398311615,link6
1762481631.1463826,ddpg_train,FAR,train,1,131,-7.307073981323175,0,132,1,-0.327,0.053,0.312,2.832266,0.45106423,2.52546,2.6844168,2.9730923,-3.13577,0.84736896,0.36864895,0.2945103,0.6212454438209534,0.6212454438209534,link6
1762481632.6068952,ddpg_train,FAR,train,1,132,-7.22716187435603,0,133,1,-0.317,0.07,0.305,2.7784534,0.4746065,2.539907,2.762447,3.0083811,-3.1181061,0.84736896,0.36864895,0.2945103,0.584082841873169,0.584082841873169,link6
1762481634.000253,ddpg_train,FAR,train,1,133,-7.034248756945055,0,134,1,-0.289,0.093,0.336,2.7019086,0.37084866,2.5191524,2.8658001,3.1399143,-2.9854863,0.84736896,0.36864895,0.2945103,0.5885699391365051,0.5885699391365051,link6
1762481635.3862078,ddpg_train,FAR,train,1,134,-7.1017749359305125,0,135,1,-0.307,0.116,0.32,2.659751,0.43775263,2.4747376,2.900447,3.1415598,-3.0090106,0.84736896,0.36864895,0.2945103,0.6218064427375793,0.6218064427375793,link6
1762481636.7775252,ddpg_train,FAR,train,1,135,-7.149305302361201,0,136,1,-0.327,0.194,0.377,2.5036352,0.3470878,2.2936912,2.6589518,3.1415925,-3.005233,0.84736896,0.36864895,0.2945103,0.6386007070541382,0.6386007070541382,link6
1762481638.160998,ddpg_train,FAR,train,1,136,-6.744928825330884,0,137,1,-0.257,0.185,0.341,2.3894558,0.360107,2.4874835,2.4417846,3.1415796,-2.905102,0.84736896,0.36864895,0.2945103,0.5429242849349976,0.5429242849349976,link6
1762481639.5457628,ddpg_train,FAR,train,1,137,-6.520462692656433,0,138,1,-0.219,0.193,0.333,2.2803955,0.3730283,2.5508478,2.4294503,3.1415691,-2.84704,0.84736896,0.36864895,0.2945103,0.5053906440734863,0.5053906440734863,link6
1762481640.9301064,ddpg_train,FAR,train,1,138,-5.781531962669366,0,139,1,-0.097,0.267,0.374,1.774604,0.24198544,2.5155628,2.5571537,3.141591,-3.0686278,0.84736896,0.36864895,0.2945103,0.4379361569881439,0.4379361569881439,link6
1762481642.308184,ddpg_train,FAR,train,1,139,-5.746126587234964,0,140,1,-0.092,0.266,0.357,1.7657547,0.28648606,2.540948,2.6924436,3.1415691,-2.9953303,0.84736896,0.36864895,0.2945103,0.43586495518684387,0.43586495518684387,link6
1762481643.6860864,ddpg_train,FAR,train,1,140,-5.7611843206920925,0,141,1,-0.095,0.262,0.355,1.7815143,0.29573464,2.5548584,2.7809136,3.1415703,-2.9769728,0.84736896,0.36864895,0.2945103,0.4434342384338379,0.4434342384338379,link6
1762481645.06384,ddpg_train,FAR,train,1,141,-6.205755757138442,0,142,1,-0.167,0.221,0.378,2.0847704,0.22248022,2.5227172,3.1140459,3.1415877,-2.9558926,0.84736896,0.36864895,0.2945103,0.49607303738594055,0.49607303738594055,link6
1762481646.4454315,ddpg_train,FAR,train,1,142,-6.271047437219177,0,143,1,-0.179,0.216,0.359,2.1229634,0.28530964,2.5444784,3.1432526,3.1415648,-2.946938,0.84736896,0.36864895,0.2945103,0.5018122792243958,0.5018122792243958,link6
1762481647.8247018,ddpg_train,FAR,train,1,143,-6.2903868098587,0,144,1,-0.182,0.215,0.358,2.1361392,0.2952595,2.5460398,3.1431162,3.141563,-2.9329512,0.84736896,0.36864895,0.2945103,0.4986710250377655,0.4986710250377655,link6
1762481649.2019467,ddpg_train,FAR,train,1,144,-6.447746863072369,0,145,1,-0.203,0.192,0.397,2.247486,0.17039146,2.488005,3.1425817,3.1415794,-2.9345648,0.84736896,0.36864895,0.2945103,0.520258903503418,0.520258903503418,link6
1762481650.5828853,ddpg_train,FAR,train,1,145,-6.4246090898915496,0,146,1,-0.197,0.182,0.387,2.2497694,0.19020231,2.5324516,3.0734706,3.1415575,-3.0159075,0.84736896,0.36864895,0.2945103,0.49628496170043945,0.49628496170043945,link6
1762481651.959204,ddpg_train,FAR,train,1,146,-5.802607612427815,0,147,1,-0.09,0.236,0.417,1.7735604,0.08269843,2.5144217,3.0110645,3.141592,-2.6719763,0.84736896,0.36864895,0.2945103,0.41995567083358765,0.41995567083358765,link6
1762481653.337331,ddpg_train,FAR,train,1,147,-5.82009368738028,0,148,1,-0.096,0.233,0.4,1.805319,0.12970428,2.5437615,3.1056292,3.1415758,-2.4426775,0.84736896,0.36864895,0.2945103,0.43163561820983887,0.43163561820983887,link6
1762481654.8083556,ddpg_train,FAR,train,1,148,-5.783415395691481,0,149,1,-0.088,0.243,0.388,1.7562885,0.17619283,2.5481992,3.0154307,3.1415603,-2.335236,0.84736896,0.36864895,0.2945103,0.39837658405303955,0.39837658405303955,link6
1762481656.1896033,ddpg_train,FAR,train,1,149,-5.238773044479133,0,150,1,0.01,0.28,0.392,1.3714491,0.18454246,2.519979,2.5942793,3.0592268,-2.1243944,0.84736896,0.36864895,0.2945103,0.34884917736053467,0.34884917736053467,link6
1762481659.8380888,ddpg_train,FAR,train,2,0,-4.724914166050555,0,151,1,0.269,0.085,1.321,0.13753289,-0.0039004162,0.47172746,0.381869,0.52627045,-0.17028864,0.81674045,0.19632845,0.90384567,0.2225186973810196,0.2225186973810196,link6
1762481661.2179556,ddpg_train,FAR,train,2,1,-5.763886715945366,0,152,1,0.178,0.188,0.444,0.46203417,-0.02329355,2.4838428,1.6882557,2.7385418,-1.2133632,0.81674045,0.19632845,0.90384567,0.15689454972743988,0.15689454972743988,link6
1762481662.5979762,ddpg_train,FAR,train,2,2,-6.01398282796152,0,153,1,0.175,0.169,0.417,0.49407274,0.05017339,2.5551147,1.7816467,2.9299529,-1.6785041,0.81674045,0.19632845,0.90384567,0.14455091953277588,0.14455091953277588,link6
1762481663.9806917,ddpg_train,FAR,train,2,3,-5.314484902795178,0,154,1,0.123,0.291,0.45,0.97312534,0.098726615,2.376094,2.0996292,2.9299798,-2.1787875,0.81674045,0.19632845,0.90384567,0.27867135405540466,0.27867135405540466,link6
1762481665.3790414,ddpg_train,FAR,train,2,4,-5.743272353728607,0,155,1,0.026,0.278,0.414,1.2267959,0.10713546,2.515027,2.009565,2.8603923,-2.0173428,0.81674045,0.19632845,0.90384567,0.35700592398643494,0.35700592398643494,link6
1762481666.8459427,ddpg_train,FAR,train,2,5,-5.93924235600343,0,156,1,-0.005,0.256,0.399,1.3539004,0.121274404,2.5767157,2.0793567,2.9426458,-2.0820014,0.81674045,0.19632845,0.90384567,0.3564237952232361,0.3564237952232361,link6
1762481668.2304173,ddpg_train,FAR,train,2,6,-5.6283801288412025,0,157,1,0.035,0.284,0.448,1.1936907,0.04001048,2.458311,2.1439958,2.8223653,-2.1185422,0.81674045,0.19632845,0.90384567,0.3362005650997162,0.3362005650997162,link6
1762481669.6202288,ddpg_train,FAR,train,2,7,-5.709515212993097,0,158,1,0.038,0.286,0.415,1.1689081,0.1075858,2.5129218,2.118085,2.777352,-2.1557004,0.81674045,0.19632845,0.90384567,0.3401711881160736,0.3401711881160736,link6
1762481671.0035677,ddpg_train,FAR,train,2,8,-5.778666104224091,0,159,1,0.041,0.289,0.403,1.161814,0.14494304,2.5319312,2.1188073,2.775779,-2.1839187,0.81674045,0.19632845,0.90384567,0.3167282044887543,0.3167282044887543,link6
1762481672.3842754,ddpg_train,FAR,train,2,9,-5.617939079640778,0,160,1,0.077,0.285,0.406,1.0315961,0.1266195,2.5334802,2.2469907,2.7175634,-2.2764108,0.81674045,0.19632845,0.90384567,0.3030070960521698,0.3030070960521698,link6
1762481673.7634957,ddpg_train,FAR,train,2,10,-5.709002045139834,0,161,1,0.102,0.274,0.389,0.9495216,0.17047365,2.5681877,2.2809584,2.7353141,-2.1790786,0.81674045,0.19632845,0.90384567,0.2517472505569458,0.2517472505569458,link6
1762481675.141797,ddpg_train,FAR,train,2,11,-5.498068344753712,0,162,1,0.114,0.265,0.416,0.92680323,0.114933014,2.5142841,2.2652438,2.8297155,-1.6678805,0.81674045,0.19632845,0.90384567,0.26629605889320374,0.26629605889320374,link6
1762481676.5237124,ddpg_train,FAR,train,2,12,-5.600318259264378,0,163,1,0.125,0.241,0.411,0.8397281,0.09846133,2.5437803,2.2019818,2.8622267,-1.8532746,0.81674045,0.19632845,0.90384567,0.230829656124115,0.230829656124115,link6
1762481677.9150028,ddpg_train,FAR,train,2,13,-5.560058026182782,0,164,1,0.124,0.23,0.401,0.82622397,0.12377284,2.5793197,2.178542,2.87993,-1.9242405,0.81674045,0.19632845,0.90384567,0.24767929315567017,0.24767929315567017,link6
1762481679.2932043,ddpg_train,FAR,train,2,14,-5.45062225277347,0,165,1,0.118,0.267,0.425,0.8840634,0.07043931,2.5198894,2.3137739,2.6957483,-1.590773,0.81674045,0.19632845,0.90384567,0.2657744288444519,0.2657744288444519,link6
1762481680.683559,ddpg_train,FAR,train,2,15,-5.5004304969574935,0,166,1,0.108,0.27,0.41,0.9028142,0.09128393,2.5599558,2.3138278,2.633189,-1.5755043,0.81674045,0.19632845,0.90384567,0.2817903757095337,0.2817903757095337,link6
1762481682.0608206,ddpg_train,FAR,train,2,16,-5.792497102301177,0,167,1,0.105,0.264,0.413,0.8914144,0.07591455,2.5750842,2.3137922,2.637656,-1.552102,0.81674045,0.19632845,0.90384567,0.21385419368743896,0.21385419368743896,link6
1762481683.4579146,ddpg_train,FAR,train,2,17,-5.437735491474972,0,168,1,0.121,0.221,0.459,0.80684394,-0.043447364,2.5101373,2.3303254,2.834218,-1.0471739,0.81674045,0.19632845,0.90384567,0.23418743908405304,0.23418743908405304,link6
1762481684.8362665,ddpg_train,FAR,train,2,18,-5.471534287132651,0,169,1,0.079,0.226,0.434,0.9852071,-0.001298346,2.5676172,2.3284225,2.8985627,-1.0969414,0.81674045,0.19632845,0.90384567,0.3120823800563812,0.3120823800563812,link6
1762481686.2152922,ddpg_train,FAR,train,2,19,-5.617280757422199,0,170,1,0.051,0.236,0.446,1.1428016,-0.01409055,2.5137765,2.2752857,3.0131316,-1.3629878,0.81674045,0.19632845,0.90384567,0.2960655391216278,0.2960655391216278,link6
1762481687.6066718,ddpg_train,FAR,train,2,20,-5.458192788289501,0,171,1,0.063,0.282,0.462,1.1711308,0.03639081,2.3812397,2.157227,3.0106165,-1.4321442,0.81674045,0.19632845,0.90384567,0.32657095789909363,0.32657095789909363,link6
1762481688.9946845,ddpg_train,FAR,train,2,21,-5.610342649610383,0,172,1,0.07,0.287,0.441,1.1510361,0.09172056,2.4199,2.07447,3.0297086,-1.5621407,0.81674045,0.19632845,0.90384567,0.27772313356399536,0.27772313356399536,link6
1762481690.3759997,ddpg_train,FAR,train,2,22,-5.377766575345381,0,173,1,0.087,0.277,0.47,1.1322153,0.032714307,2.3490431,1.9918271,3.138807,-1.8572724,0.81674045,0.19632845,0.90384567,0.2952575385570526,0.2952575385570526,link6
1762481691.7571151,ddpg_train,FAR,train,2,23,-5.454963325687402,0,174,1,0.073,0.293,0.444,1.1691791,0.095599405,2.3753457,1.962976,3.0522616,-1.7908251,0.81674045,0.19632845,0.90384567,0.3343949615955353,0.3343949615955353,link6
1762481693.1364322,ddpg_train,FAR,train,2,24,-5.562350616640463,0,175,1,0.059,0.308,0.428,1.1767441,0.13942955,2.4080372,1.9232911,2.9266407,-1.7214026,0.81674045,0.19632845,0.90384567,0.34924831986427307,0.34924831986427307,link6
1762481694.5232828,ddpg_train,FAR,train,2,25,-5.674509730042242,0,176,1,0.06,0.316,0.399,1.0220613,0.12481732,2.488277,1.8801883,2.4654653,-1.7238059,0.81674045,0.19632845,0.90384567,0.3385060727596283,0.3385060727596283,link6
1762481695.9034839,ddpg_train,FAR,train,2,26,-5.604522621814796,0,177,1,0.076,0.336,0.393,1.023596,0.1804976,2.4425695,1.9189427,2.4930573,-1.5989468,0.81674045,0.19632845,0.90384567,0.35684099793434143,0.35684099793434143,link6
1762481697.2929726,ddpg_train,FAR,train,2,27,-5.77292252605868,0,178,1,0.013,0.283,0.428,1.2418325,0.0625959,2.5135813,2.1177716,2.7507544,-1.1440625,0.81674045,0.19632845,0.90384567,0.3543110191822052,0.3543110191822052,link6
1762481698.67861,ddpg_train,FAR,train,2,28,-5.833791241775199,0,179,1,0.007,0.254,0.421,1.3209978,0.05803615,2.5459392,2.2782178,2.9617975,-1.3869421,0.81674045,0.19632845,0.90384567,0.3401694893836975,0.3401694893836975,link6
1762481700.0779145,ddpg_train,FAR,train,2,29,-5.8803593532532545,0,180,1,-0.002,0.232,0.414,1.3799212,0.056567382,2.5805836,2.3733964,3.0649033,-1.4271946,0.81674045,0.19632845,0.90384567,0.3494437634944916,0.3494437634944916,link6
1762481701.4614215,ddpg_train,FAR,train,2,30,-5.7347372880840775,0,181,1,0.019,0.218,0.447,1.3016092,-0.050795015,2.5196655,2.608343,3.1415915,-1.3027762,0.81674045,0.19632845,0.90384567,0.3135211765766144,0.3135211765766144,link6
1762481702.844373,ddpg_train,FAR,train,2,31,-5.772224052680439,0,182,1,0.025,0.209,0.433,1.2605056,-0.030918121,2.566663,2.8459997,3.125975,-1.2996731,0.81674045,0.19632845,0.90384567,0.30171632766723633,0.30171632766723633,link6
1762481704.228475,ddpg_train,FAR,train,2,32,-5.700336579041219,0,183,1,0.028,0.21,0.431,1.252949,-0.023092026,2.5773761,3.038225,3.100197,-1.3208251,0.81674045,0.19632845,0.90384567,0.3313034176826477,0.3313034176826477,link6
1762481705.611231,ddpg_train,FAR,train,2,33,-5.722011812957089,0,184,1,0.027,0.213,0.446,1.2586024,-0.06405251,2.5303452,3.1436393,3.1257138,-1.6577693,0.81674045,0.19632845,0.90384567,0.30202674865722656,0.30202674865722656,link6
1762481706.9909344,ddpg_train,FAR,train,2,34,-5.755459568029721,0,185,1,-0.004,0.205,0.451,1.3986609,-0.090092756,2.5715594,3.1492033,3.0312042,-1.8227035,0.81674045,0.19632845,0.90384567,0.3642531931400299,0.3642531931400299,link6
1762481708.3779325,ddpg_train,FAR,train,2,35,-5.494902371454528,0,186,1,0.066,0.206,0.487,1.0789726,-0.1520224,2.513685,3.14165,2.9171488,-2.0593963,0.81674045,0.19632845,0.90384567,0.2681344747543335,0.2681344747543335,link6
1762481709.7605352,ddpg_train,FAR,train,2,36,-5.539262812789815,0,187,1,0.103,0.195,0.481,0.90482485,-0.14190233,2.544294,3.1458676,2.818927,-1.8264037,0.81674045,0.19632845,0.90384567,0.21862240135669708,0.21862240135669708,link6
1762481711.1391258,ddpg_train,FAR,train,2,37,-5.727255147009562,0,188,1,0.115,0.175,0.467,0.8018255,-0.13670188,2.5861468,3.151556,2.8444824,-1.6788546,0.81674045,0.19632845,0.90384567,0.18760348856449127,0.18760348856449127,link6
1762481712.518009,ddpg_train,FAR,train,2,38,-5.533170895872552,0,189,1,0.139,0.168,0.496,0.69838333,-0.17622031,2.5160809,3.1419842,2.8198392,-1.4187145,0.81674045,0.19632845,0.90384567,0.18525685369968414,0.18525685369968414,link6
1762481713.903779,ddpg_train,FAR,train,2,39,-6.235045595551158,0,190,1,0.163,0.11,0.475,0.38660115,-0.16870593,2.557192,3.1477277,2.9447224,-1.5287977,0.81674045,0.19632845,0.90384567,0.1193723976612091,0.1193723976612091,link6
1762481715.3576944,ddpg_train,MID,train,2,40,-6.708978971486596,0,191,1,0.171,0.078,0.465,0.2173079,-0.16614078,2.589372,3.152277,2.9570615,-1.5782442,0.81674045,0.19632845,0.90384567,0.09308968484401703,0.09308968484401703,link6
1762481716.803909,ddpg_train,MID,train,2,41,-6.54764312897327,0,192,1,0.203,0.051,0.485,0.05618606,-0.16527735,2.5317361,3.1441941,2.88856,-1.5822997,0.81674045,0.19632845,0.90384567,0.0913829654455185,0.0913829654455185,link6
1762481718.242183,ddpg_train,MID,train,2,42,-6.7129137399576715,0,193,1,0.194,0.041,0.462,-0.0025443803,-0.1391881,2.584849,3.078583,2.941501,-1.5586547,0.81674045,0.19632845,0.90384567,0.0897623747587204,0.0897623747587204,link6
1762481719.6793017,ddpg_train,MID,train,2,43,-6.736268085028458,0,194,1,0.214,0.011,0.466,-0.1501838,-0.10561802,2.51664,2.8234177,3.0584605,-1.628562,0.81674045,0.19632845,0.90384567,0.08532623946666718,0.08532623946666718,link6
1762481721.1338568,ddpg_train,MID,train,2,44,-6.909860779068929,0,195,1,0.205,-0.001,0.446,-0.21819651,-0.079276,2.5685384,2.7901917,3.059347,-1.5938964,0.81674045,0.19632845,0.90384567,0.08324794471263885,0.08324794471263885,link6
1762481722.5899677,ddpg_train,MID,train,2,45,-6.829765761022662,0,196,1,0.216,-0.024,0.459,-0.29842708,-0.08211258,2.5136669,2.8274593,3.100479,-1.5042412,0.81674045,0.19632845,0.90384567,0.08421503007411957,0.08421503007411957,link6
1762481724.0294583,ddpg_train,MID,train,2,46,-6.8675162386132484,0,197,1,0.206,-0.05,0.442,-0.42712724,-0.051193073,2.55087,2.9229252,3.1153724,-1.514097,0.81674045,0.19632845,0.90384567,0.08958016335964203,0.08958016335964203,link6
1762481725.4686842,ddpg_train,MID,train,2,47,-6.873322925095022,0,198,1,0.199,-0.06,0.43,-0.48558518,-0.028457034,2.5806928,2.975461,3.12311,-1.5245697,0.81674045,0.19632845,0.90384567,0.09388522803783417,0.09388522803783417,link6
1762481726.9423044,ddpg_train,MID,train,2,48,-6.875077259267622,0,199,1,0.206,-0.062,0.445,-0.47177652,-0.053292952,2.5329645,3.0758913,3.131306,-1.5507569,0.81674045,0.19632845,0.90384567,0.08981107175350189,0.08981107175350189,link6
1762481728.3925028,ddpg_train,MID,train,2,49,-6.819372302205178,0,200,1,0.197,-0.058,0.431,-0.4792589,-0.03426958,2.5795224,3.0995338,3.1312861,-1.5694597,0.81674045,0.19632845,0.90384567,0.0967807024717331,0.0967807024717331,link6
1762481729.8372145,ddpg_train,MID,train,2,50,-6.983662766477686,0,201,1,0.217,-0.049,0.458,-0.39367306,-0.06883077,2.4928756,3.1269479,3.1313102,-1.6435198,0.81674045,0.19632845,0.90384567,0.07921312749385834,0.07921312749385834,link6
1762481731.2913573,ddpg_train,MID,train,2,51,-59.07599475727318,1,202,1,0.307,-0.04,0.522,-0.28118667,-0.03479706,2.285707,2.8081348,2.805066,-1.4624,0.81674045,0.19632845,0.90384567,0.0,-0.04705743491649628,link6
1762481734.950707,ddpg_train,FAR,train,3,0,-4.314453768771263,0,203,1,0.245,0.305,0.595,0.6219196,-0.027789745,2.1121507,1.8129501,2.580052,-1.0491722,0.9021011,0.19975282,0.44983247,0.3089170753955841,0.3089170753955841,link6
1762481736.3353379,ddpg_train,FAR,train,3,1,-4.931402173762317,0,204,1,0.165,0.186,0.425,0.6654296,0.05616435,2.5240607,2.3997304,3.07975,-1.4545468,0.9021011,0.19975282,0.44983247,0.2291611284017563,0.2291611284017563,link6
1762481737.7163029,ddpg_train,FAR,train,3,2,-4.667590219313413,0,205,1,0.186,0.18,0.41,0.6183374,0.11198574,2.51364,2.8390121,3.1413417,-1.7744385,0.9021011,0.19975282,0.44983247,0.26235896348953247,0.26235896348953247,link6
1762481739.0967536,ddpg_train,FAR,train,3,3,-4.670984856388072,0,206,1,0.174,0.193,0.389,0.6890138,0.1712294,2.543298,3.0236545,3.1415715,-1.9354476,0.9021011,0.19975282,0.44983247,0.285781592130661,0.285781592130661,link6
1762481740.4752815,ddpg_train,FAR,train,3,4,-4.6482789133992855,0,207,1,0.168,0.207,0.376,0.74621373,0.22366154,2.5518873,3.1004775,3.141555,-1.964214,0.9021011,0.19975282,0.44983247,0.3117956221103668,0.3117956221103668,link6
1762481741.8649619,ddpg_train,FAR,train,3,5,-5.501648280308923,0,208,1,-0.002,0.295,0.393,1.4430954,0.20203194,2.5175025,3.1387641,2.9757211,-1.8163893,0.9021011,0.19975282,0.44983247,0.4923352003097534,0.4923352003097534,link6
1762481743.2522597,ddpg_train,FAR,train,3,6,-5.865734130424583,0,209,1,-0.067,0.272,0.38,1.6771499,0.2201737,2.54457,3.1195135,3.0506244,-1.7705859,0.9021011,0.19975282,0.44983247,0.5523634552955627,0.5523634552955627,link6
1762481744.634227,ddpg_train,FAR,train,3,7,-6.113987044974968,0,210,1,-0.112,0.245,0.382,1.8538074,0.20456845,2.54311,3.1083763,3.1184502,-1.7799109,0.9021011,0.19975282,0.44983247,0.6240569353103638,0.6240569353103638,link6
1762481746.0111709,ddpg_train,FAR,train,3,8,-6.380081057296992,0,211,1,-0.15,0.34,0.479,1.8803166,0.1521304,2.1779065,3.143297,3.1415827,-2.1545312,0.9021011,0.19975282,0.44983247,0.6294569969177246,0.6294569969177246,link6
1762481747.3998253,ddpg_train,FAR,train,3,9,-6.590143861008889,0,212,1,-0.191,0.285,0.41,2.053964,0.23200111,2.3407385,3.1528313,3.1415658,-2.143356,0.9021011,0.19975282,0.44983247,0.6531630754470825,0.6531630754470825,link6
1762481748.7908936,ddpg_train,FAR,train,3,10,-6.847615188705552,0,213,1,-0.237,0.18,0.405,2.3589082,0.18193093,2.4426966,3.0086136,3.1415925,-2.1964447,0.9021011,0.19975282,0.44983247,0.6616532802581787,0.6616532802581787,link6
1762481750.1785424,ddpg_train,FAR,train,3,11,-7.68624724797209,0,214,1,-0.376,0.118,0.433,2.7345362,0.25483507,2.243319,3.049545,2.9918578,-2.4004123,0.9021011,0.19975282,0.44983247,0.8250898718833923,0.8250898718833923,link6
1762481751.573324,ddpg_train,FAR,train,3,12,-7.905039985119361,0,215,1,-0.41,0.089,0.417,2.8233902,0.31120658,2.2148852,3.063171,2.9631577,-2.3732271,0.9021011,0.19975282,0.44983247,0.783310055732727,0.783310055732727,link6
1762481752.9566896,ddpg_train,FAR,train,3,13,-7.783528734190559,0,216,1,-0.391,0.19,0.55,2.5975966,0.16638814,1.9270736,3.1245425,3.1348972,-1.8575814,0.9021011,0.19975282,0.44983247,0.8139445185661316,0.8139445185661316,link6
1762481754.3385997,ddpg_train,FAR,train,3,14,-7.874948427795522,0,217,1,-0.408,0.183,0.523,2.6351042,0.20919374,1.9553196,3.1470008,3.1006927,-1.7496738,0.9021011,0.19975282,0.44983247,0.8145166635513306,0.8145166635513306,link6
1762481755.717827,ddpg_train,FAR,train,3,15,-7.88892244144414,0,218,1,-0.41,0.163,0.521,2.6752307,0.20933996,1.9953535,3.1566765,3.0487955,-1.705411,0.9021011,0.19975282,0.44983247,0.8009940385818481,0.8009940385818481,link6
1762481757.1110928,ddpg_train,FAR,train,3,16,-7.8888652067717535,0,219,1,-0.401,0.192,0.623,2.6066413,0.12629873,1.8265507,3.1454296,2.9773955,-1.7199755,0.9021011,0.19975282,0.44983247,0.8189772963523865,0.8189772963523865,link6
1762481758.4940083,ddpg_train,FAR,train,3,17,-8.010585620673393,0,220,1,-0.425,0.188,0.593,2.6412728,0.17414598,1.8313892,3.0303936,2.9891663,-1.7737058,0.9021011,0.19975282,0.44983247,0.8133419752120972,0.8133419752120972,link6
1762481759.8862784,ddpg_train,FAR,train,3,18,-8.037382777024598,0,221,1,-0.42,0.137,0.655,2.7352293,0.11694983,1.7747555,2.8604157,2.9879518,-1.861226,0.9021011,0.19975282,0.44983247,0.8513453602790833,0.8513453602790833,link6
1762481761.265457,ddpg_train,FAR,train,3,19,-8.12487191231256,0,222,1,-0.398,-0.022,0.756,3.0976627,0.003825299,1.6661408,2.9879706,2.8710828,-2.218137,0.9021011,0.19975282,0.44983247,0.834949791431427,0.834949791431427,link6
1762481762.6467545,ddpg_train,FAR,train,3,20,-8.273475700901221,0,223,1,-0.39,-0.196,0.723,3.5661082,0.050571088,1.5054635,2.5599508,3.6108506,-2.448633,0.9021011,0.19975282,0.44983247,0.8195645213127136,0.8195645213127136,link6
1762481764.0283551,ddpg_train,FAR,train,3,21,-7.969938438151389,0,224,1,-0.413,0.036,0.533,2.9411302,-0.13948534,1.8918633,3.139276,4.852642,-2.1187081,0.9021011,0.19975282,0.44983247,0.7503955960273743,0.7503955960273743,link6
1762481765.4208689,ddpg_train,FAR,train,3,22,-7.731882626162174,0,225,1,-0.368,-0.013,0.487,3.067766,0.13543816,2.161183,2.984309,3.1415825,-2.2962248,0.9021011,0.19975282,0.44983247,0.7883608937263489,0.7883608937263489,link6
1762481766.8009136,ddpg_train,FAR,train,3,23,-7.8953566221015645,0,226,1,-0.399,0.005,0.464,3.0295892,0.2146753,2.1390507,3.0008345,3.1270878,-2.3293326,0.9021011,0.19975282,0.44983247,0.8237246870994568,0.8237246870994568,link6
1762481768.1791003,ddpg_train,FAR,train,3,24,-8.16043400317555,0,227,1,-0.445,0.055,0.567,2.9274118,0.17070976,1.9281508,3.0410132,2.9636393,-2.311608,0.9021011,0.19975282,0.44983247,0.8561409115791321,0.8561409115791321,link6
1762481769.5612082,ddpg_train,FAR,train,3,25,-7.979397100333634,0,228,1,-0.415,0.018,0.46,2.9877841,0.23067361,2.2019928,2.922672,2.8572512,-2.34655,0.9021011,0.19975282,0.44983247,0.8004812598228455,0.8004812598228455,link6
1762481770.94688,ddpg_train,FAR,train,3,26,-7.812678123646463,0,229,1,-0.383,-0.003,0.407,3.0183172,0.27302307,2.3570542,2.8562746,2.818896,-2.3542378,0.9021011,0.19975282,0.44983247,0.7614648938179016,0.7614648938179016,link6
1762481772.327572,ddpg_train,FAR,train,3,27,-7.685055812011541,0,230,1,-0.375,0.121,0.399,2.6986055,0.30421004,2.3133914,2.8593998,2.8796275,-2.0905004,0.9021011,0.19975282,0.44983247,0.7908499240875244,0.7908499240875244,link6
1762481773.7095883,ddpg_train,FAR,train,3,28,-7.902111448135903,0,231,1,-0.41,0.112,0.381,2.7763538,0.3796097,2.2491314,2.971541,2.9254527,-2.152702,0.9021011,0.19975282,0.44983247,0.8406985402107239,0.8406985402107239,link6
1762481775.088462,ddpg_train,FAR,train,3,29,-8.038240760320651,0,232,1,-0.432,0.1,0.383,2.8191864,0.4065082,2.1980195,3.053118,2.9612255,-2.26027,0.9021011,0.19975282,0.44983247,0.8270794153213501,0.8270794153213501,link6
1762481776.4724882,ddpg_train,FAR,train,3,30,-7.993760138135405,0,233,1,-0.428,0.147,0.399,2.7253993,0.38169068,2.1356165,2.9907787,3.0174868,-2.749423,0.9021011,0.19975282,0.44983247,0.8460848331451416,0.8460848331451416,link6
1762481777.8620293,ddpg_train,FAR,train,3,31,-8.115066329815111,0,234,1,-0.444,0.127,0.342,2.7757492,0.4998521,2.1819544,3.055981,2.9836278,-2.844236,0.9021011,0.19975282,0.44983247,0.8695671558380127,0.8695671558380127,link6
1762481779.2463708,ddpg_train,FAR,train,3,32,-7.988371917867555,0,235,1,-0.428,0.201,0.395,2.6200917,0.4204704,2.112596,3.1416745,2.9670525,-2.990581,0.9021011,0.19975282,0.44983247,0.8534027934074402,0.8534027934074402,link6
1762481780.6398978,ddpg_train,FAR,train,3,33,-7.720275566144191,0,236,1,-0.378,0.145,0.336,2.6812422,0.44913226,2.3137996,3.1451356,3.040357,-2.9981732,0.9021011,0.19975282,0.44983247,0.7655894756317139,0.7655894756317139,link6
1762481782.0287397,ddpg_train,FAR,train,3,34,-7.531160531375397,0,237,1,-0.345,0.14,0.326,2.6475775,0.4513594,2.3981822,3.1442893,3.0343306,-2.9666686,0.9021011,0.19975282,0.44983247,0.7349669933319092,0.7349669933319092,link6
1762481783.424564,ddpg_train,FAR,train,3,35,-7.063500622320877,0,238,1,-0.271,0.197,0.361,2.39637,0.31317115,2.5114136,3.1420157,2.82819,-3.126753,0.9021011,0.19975282,0.44983247,0.6964733600616455,0.6964733600616455,link6
1762481784.815285,ddpg_train,FAR,train,3,36,-7.073076860632182,0,239,1,-0.271,0.198,0.342,2.3956604,0.35472485,2.53684,3.1415236,2.801139,-3.141579,0.9021011,0.19975282,0.44983247,0.6950927972793579,0.6950927972793579,link6
1762481786.1988413,ddpg_train,FAR,train,3,37,-7.06691566483834,0,240,1,-0.271,0.193,0.354,2.4057677,0.32955566,2.5331724,3.1416764,2.8060434,-3.1415944,0.9021011,0.19975282,0.44983247,0.6959958076477051,0.6959958076477051,link6
1762481787.5822992,ddpg_train,FAR,train,3,38,-7.314038696491225,0,241,1,-0.308,0.06,0.426,2.8227975,0.15454566,2.4155078,3.109902,3.0243988,-3.0325215,0.9021011,0.19975282,0.44983247,0.7189019322395325,0.7189019322395325,link6
1762481788.9662044,ddpg_train,FAR,train,3,39,-7.29999811448675,0,242,1,-0.302,0.034,0.415,2.9011126,0.16047552,2.431586,3.11079,3.076617,-3.0189567,0.9021011,0.19975282,0.44983247,0.7066157460212708,0.7066157460212708,link6
1762481790.3540857,ddpg_train,FAR,train,3,40,-6.8300324353507085,0,243,1,-0.226,0.059,0.438,2.7193384,-0.0017154068,2.513578,3.1164777,3.1415923,-2.9345279,0.9021011,0.19975282,0.44983247,0.6368378400802612,0.6368378400802612,link6
1762481791.7416017,ddpg_train,FAR,train,3,41,-6.665335436314495,0,244,1,-0.203,0.109,0.425,2.4725537,0.026419675,2.5408182,2.982209,3.141578,-2.8803122,0.9021011,0.19975282,0.44983247,0.6143238544464111,0.6143238544464111,link6
1762481793.1264656,ddpg_train,FAR,train,3,42,-6.545345776720577,0,245,1,-0.184,0.137,0.408,2.3269038,0.07317884,2.5747316,2.989932,3.1415606,-2.928393,0.9021011,0.19975282,0.44983247,0.5948628783226013,0.5948628783226013,link6
1762481794.5059135,ddpg_train,FAR,train,3,43,-6.824035368980562,0,246,1,-0.234,0.197,0.43,2.3166764,0.1353166,2.4123333,3.10676,3.0487173,-2.9883404,0.9021011,0.19975282,0.44983247,0.6665574908256531,0.6665574908256531,link6
1762481795.8901734,ddpg_train,FAR,train,3,44,-7.108646049890802,0,247,1,-0.281,0.157,0.424,2.5141048,0.17147875,2.3738487,3.112219,3.1036165,-2.9661217,0.9021011,0.19975282,0.44983247,0.7204741835594177,0.7204741835594177,link6
1762481797.289248,ddpg_train,FAR,train,3,45,-7.298924492447494,0,248,1,-0.311,0.117,0.434,2.6693244,0.16709934,2.3368325,3.1074746,3.1001387,-2.9153385,0.9021011,0.19975282,0.44983247,0.7493365406990051,0.7493365406990051,link6
1762481798.7746117,ddpg_train,FAR,train,3,46,-7.601907072173564,0,249,1,-0.347,0.007,0.532,3.0155482,0.03342753,2.136033,2.8812592,3.1136281,-2.6644897,0.9021011,0.19975282,0.44983247,0.7567957043647766,0.7567957043647766,link6
1762481800.1617877,ddpg_train,FAR,train,3,47,-7.629399357858723,0,250,1,-0.352,0.002,0.512,3.0252244,0.0725745,2.159167,2.9329174,3.1415622,-2.6487057,0.9021011,0.19975282,0.44983247,0.7526816725730896,0.7526816725730896,link6
1762481801.5481155,ddpg_train,FAR,train,3,48,-7.358798931111286,0,251,1,-0.298,-0.035,0.535,3.1341844,-0.04849875,2.201541,2.899548,3.146861,-2.6994092,0.9021011,0.19975282,0.44983247,0.7143139839172363,0.7143139839172363,link6
1762481802.9309642,ddpg_train,FAR,train,3,49,-7.570083434742494,0,252,1,-0.337,-0.021,0.532,3.0834992,0.020095488,2.135624,2.8052564,3.1415744,-2.5379784,0.9021011,0.19975282,0.44983247,0.7668041586875916,0.7668041586875916,link6
1762481804.3249109,ddpg_train,FAR,train,3,50,-7.663722824312499,0,253,1,-0.356,-0.005,0.522,3.0459547,0.067532845,2.1445088,2.702827,3.1415668,-2.4323153,0.9021011,0.19975282,0.44983247,0.724956214427948,0.724956214427948,link6
1762481805.7193801,ddpg_train,FAR,train,3,51,-7.141188065213655,0,254,1,-0.272,0.011,0.464,2.9265518,0.0062155155,2.414409,2.2360256,3.0615635,-2.2851913,0.9021011,0.19975282,0.44983247,0.6790518164634705,0.6790518164634705,link6
1762481807.0997803,ddpg_train,FAR,train,3,52,-7.090182705040785,0,255,1,-0.263,0.01,0.419,2.9387636,0.09745306,2.4979632,2.1846056,3.0966492,-2.303449,0.9021011,0.19975282,0.44983247,0.6896694302558899,0.6896694302558899,link6
1762481808.477998,ddpg_train,FAR,train,3,53,-7.521257915915428,0,256,1,-0.342,0.05,0.444,2.8754506,0.16826819,2.2897482,2.184014,3.1149592,-2.4515612,0.9021011,0.19975282,0.44983247,0.7528814673423767,0.7528814673423767,link6
1762481809.8574533,ddpg_train,FAR,train,3,54,-7.858338901674806,0,257,1,-0.394,0.013,0.45,3.0123882,0.22675934,2.161254,2.1734948,3.1361198,-2.3806272,0.9021011,0.19975282,0.44983247,0.8166373372077942,0.8166373372077942,link6
1762481811.2360957,ddpg_train,FAR,train,3,55,-8.128889503896287,0,258,1,-0.436,-0.011,0.434,3.0815551,0.31591812,2.0840487,2.3408074,3.141549,-2.3329334,0.9021011,0.19975282,0.44983247,0.8796775937080383,0.8796775937080383,link6
1762481812.6414099,ddpg_train,FAR,train,3,56,-8.07267234786414,0,259,1,-0.43,0.03,0.53,2.9814181,0.18366344,1.9708116,2.4311323,3.1389759,-2.415671,0.9021011,0.19975282,0.44983247,0.8434605002403259,0.8434605002403259,link6
1762481814.021341,ddpg_train,FAR,train,3,57,-7.660265967078104,0,260,1,-0.366,0.057,0.481,2.8811805,0.14711896,2.1752703,2.637504,3.1412425,-2.546417,0.9021011,0.19975282,0.44983247,0.8241284489631653,0.8241284489631653,link6
1762481815.4158242,ddpg_train,FAR,train,3,58,-7.989499620328257,0,261,1,-0.408,-0.034,0.418,3.1288972,0.3111077,2.1893644,2.6017423,3.1415539,-2.5898848,0.9021011,0.19975282,0.44983247,0.7613692879676819,0.7613692879676819,link6
1762481816.7972589,ddpg_train,FAR,train,3,59,-7.649319308875457,0,262,1,-0.349,-0.039,0.405,3.1416762,0.24870674,2.3230526,2.4533422,3.141585,-2.4468205,0.9021011,0.19975282,0.44983247,0.7594686150550842,0.7594686150550842,link6
1762481818.180885,ddpg_train,FAR,train,3,60,-7.919477732448529,0,263,1,-0.395,-0.039,0.403,3.1419127,0.31694058,2.2272625,2.256475,3.14156,-2.5294595,0.9021011,0.19975282,0.44983247,0.8383811116218567,0.8383811116218567,link6
1762481819.5625916,ddpg_train,FAR,train,3,61,-7.577974626661363,0,264,1,-0.334,-0.051,0.388,3.1809387,0.27918246,2.4237063,2.146389,3.1407678,-2.5993347,0.9021011,0.19975282,0.44983247,0.8321192860603333,0.8321192860603333,link6
1762481820.9514432,ddpg_train,FAR,train,3,62,-7.731064247027417,0,265,1,-0.363,-0.043,0.438,3.1518013,0.20649068,2.2433605,2.414746,3.1400805,-2.7121673,0.9021011,0.19975282,0.44983247,0.8014355301856995,0.8014355301856995,link6
1762481822.3441246,ddpg_train,FAR,train,3,63,-7.276104335579422,0,266,1,-0.283,-0.055,0.43,3.195475,0.1073814,2.4146252,2.6025972,3.1412425,-2.7952657,0.9021011,0.19975282,0.44983247,0.7778940796852112,0.7778940796852112,link6
1762481823.7395313,ddpg_train,FAR,train,3,64,-7.840583474118699,0,267,1,-0.377,-0.053,0.533,3.1389318,0.09548655,2.0539744,2.4336298,3.1300802,-2.964569,0.9021011,0.19975282,0.44983247,0.7998785972595215,0.7998785972595215,link6
1762481825.121506,ddpg_train,FAR,train,3,65,-6.9546335759983045,0,268,1,-0.235,-0.02,0.417,3.0455775,0.048511077,2.4960475,2.4386077,3.1414032,-2.9467266,0.9021011,0.19975282,0.44983247,0.7419700622558594,0.7419700622558594,link6
1762481826.5116363,ddpg_train,FAR,train,3,66,-7.5181022348098505,0,269,1,-0.337,0.025,0.506,2.9511352,0.060613483,2.1992328,2.3191292,3.1415515,-3.0007646,0.9021011,0.19975282,0.44983247,0.7657284736633301,0.7657284736633301,link6
1762481827.9023561,ddpg_train,FAR,train,3,67,-7.413747444286823,0,270,1,-0.313,-0.003,0.537,3.0287547,-0.033513583,2.1864674,2.7637434,3.1415854,-3.1415927,0.9021011,0.19975282,0.44983247,0.7165862917900085,0.7165862917900085,link6
1762481829.2832816,ddpg_train,FAR,train,3,68,-7.187837485352228,0,271,1,-0.283,0.051,0.526,2.8160214,-0.06620363,2.2494745,2.7785435,3.1415677,-3.141598,0.9021011,0.19975282,0.44983247,0.6588751673698425,0.6588751673698425,link6
1762481830.6633928,ddpg_train,FAR,train,3,69,-6.931902271165326,0,272,1,-0.243,0.094,0.549,2.6260755,-0.13920417,2.2589223,2.7601802,3.141558,-3.1415882,0.9021011,0.19975282,0.44983247,0.6653003692626953,0.6653003692626953,link6
1762481832.044076,ddpg_train,FAR,train,3,70,-6.984696725208324,0,273,1,-0.249,0.066,0.548,2.727623,-0.14830925,2.2510805,2.861183,3.1415796,-3.1415932,0.9021011,0.19975282,0.44983247,0.6612291932106018,0.6612291932106018,link6
1762481833.4333763,ddpg_train,FAR,train,3,71,-7.005168158262952,0,274,1,-0.253,0.068,0.547,2.7345653,-0.13827807,2.2387896,2.9122567,3.1415627,-3.1415932,0.9021011,0.19975282,0.44983247,0.6849043369293213,0.6849043369293213,link6
1762481834.827369,ddpg_train,FAR,train,3,72,-7.158567010184196,0,275,1,-0.267,0.022,0.601,2.9154286,-0.17815052,2.1282382,2.6776464,3.1413345,-3.1415699,0.9021011,0.19975282,0.44983247,0.6793016791343689,0.6793016791343689,link6
1762481836.2274678,ddpg_train,FAR,train,3,73,-7.074755065619338,0,276,1,-0.259,0.031,0.556,2.8723512,-0.15072899,2.2335813,2.6513958,3.1415768,-3.1415966,0.9021011,0.19975282,0.44983247,0.6693835854530334,0.6693835854530334,link6
1762481837.6302974,ddpg_train,FAR,train,3,74,-7.015681572754513,0,277,1,-0.252,0.034,0.524,2.8514507,-0.1224502,2.3108618,2.607009,3.1415584,-3.141593,0.9021011,0.19975282,0.44983247,0.674507200717926,0.674507200717926,link6
1762481839.0161448,ddpg_train,FAR,train,3,75,-6.85925593417107,0,278,1,-0.236,0.113,0.485,2.5403073,-0.045964535,2.372401,2.6875436,3.1415834,-3.141592,0.9021011,0.19975282,0.44983247,0.6490404605865479,0.6490404605865479,link6
1762481840.3951027,ddpg_train,FAR,train,3,76,-6.750805122661351,0,279,1,-0.218,0.112,0.437,2.506108,0.02118471,2.4950902,2.568813,3.1415586,-3.141593,0.9021011,0.19975282,0.44983247,0.6301729679107666,0.6301729679107666,link6
1762481841.7765172,ddpg_train,FAR,train,3,77,-6.760985322343617,0,280,1,-0.221,0.131,0.428,2.4528527,0.06534919,2.488237,2.4697802,3.1415925,-3.1415927,0.9021011,0.19975282,0.44983247,0.6377929449081421,0.6377929449081421,link6
1762481843.1679971,ddpg_train,FAR,train,3,78,-7.134982013728022,0,281,1,-0.28,0.079,0.427,2.6989098,0.1134619,2.4660819,2.586742,2.9808245,-3.1415966,0.9021011,0.19975282,0.44983247,0.7094033360481262,0.7094033360481262,link6
1762481844.550075,ddpg_train,FAR,train,3,79,-7.172161907493979,0,282,1,-0.285,0.072,0.418,2.7117214,0.12485624,2.5080073,2.7176254,2.8737302,-3.1415942,0.9021011,0.19975282,0.44983247,0.6745126843452454,0.6745126843452454,link6
1762481845.9305987,ddpg_train,FAR,train,3,80,-6.850492077213938,0,283,1,-0.235,0.114,0.469,2.5061214,-0.05038448,2.516585,2.9460678,2.7675116,-3.1415937,0.9021011,0.19975282,0.44983247,0.6496224403381348,0.6496224403381348,link6
1762481847.3086782,ddpg_train,FAR,train,3,81,-6.863570137941158,0,284,1,-0.236,0.097,0.459,2.5601988,-0.049571466,2.559233,2.9561934,2.7168717,-3.1416032,0.9021011,0.19975282,0.44983247,0.6575815677642822,0.6575815677642822,link6
1762481848.6874175,ddpg_train,FAR,train,3,82,-6.893742923625216,0,285,1,-0.24,0.083,0.454,2.6135004,-0.049356647,2.5841634,2.9384606,2.6688714,-3.1416106,0.9021011,0.19975282,0.44983247,0.6834829449653625,0.6834829449653625,link6
1762481850.071685,ddpg_train,FAR,train,3,83,-7.086314467004233,0,286,1,-0.268,0.047,0.465,2.7708793,-0.036620244,2.5256908,2.8768466,2.6886656,-3.1415951,0.9021011,0.19975282,0.44983247,0.6803118586540222,0.6803118586540222,link6
1762481851.4669864,ddpg_train,FAR,train,3,84,-6.99286635662477,0,287,1,-0.248,0.019,0.455,2.8585339,-0.039508134,2.5448127,2.8237555,2.82841,-3.1416032,0.9021011,0.19975282,0.44983247,0.6503894925117493,0.6503894925117493,link6
1762481852.8485725,ddpg_train,FAR,train,3,85,-6.890808020105768,0,288,1,-0.228,0.005,0.464,2.907677,-0.07776163,2.5279603,2.778614,2.9729667,-3.141599,0.9021011,0.19975282,0.44983247,0.6242354512214661,0.6242354512214661,link6
1762481854.241543,ddpg_train,FAR,train,3,86,-6.481555301626154,0,289,1,-0.17,0.091,0.463,2.444705,-0.14252879,2.5328226,3.0181093,3.1333709,-3.0409205,0.9021011,0.19975282,0.44983247,0.5779240727424622,0.5779240727424622,link6
1762481855.618481,ddpg_train,FAR,train,3,87,-6.412848188708262,0,290,1,-0.159,0.089,0.444,2.4179676,-0.11301776,2.5881221,2.91311,3.141566,-3.020385,0.9021011,0.19975282,0.44983247,0.6069627404212952,0.6069627404212952,link6
1762481857.0038922,ddpg_train,FAR,train,3,88,-6.293392759369574,0,291,1,-0.144,0.189,0.446,2.0486982,-0.01439565,2.4867184,2.5745971,3.141591,-3.1393223,0.9021011,0.19975282,0.44983247,0.5719158053398132,0.5719158053398132,link6
1762481858.3882701,ddpg_train,FAR,train,3,89,-6.313539588722296,0,292,1,-0.147,0.193,0.407,2.0625632,0.09924525,2.5487237,2.559902,3.1415744,-3.1415992,0.9021011,0.19975282,0.44983247,0.5910177826881409,0.5910177826881409,link6
1762481859.7978387,ddpg_train,FAR,train,3,90,-6.287563956810207,0,293,1,-0.136,0.215,0.384,1.9803632,0.17977108,2.565907,2.5714607,3.141577,-3.1416087,0.9021011,0.19975282,0.44983247,0.4693458676338196,0.4693458676338196,link6
1762481861.1832852,ddpg_train,FAR,train,3,91,-4.801583425260095,0,294,1,0.149,0.227,0.396,0.8085891,0.16504408,2.5270972,2.252733,3.0656207,-3.1415951,0.9021011,0.19975282,0.44983247,0.29243478178977966,0.29243478178977966,link6
1762481862.5813298,ddpg_train,FAR,train,3,92,-4.902546912562978,0,295,1,0.201,0.199,0.353,0.60331815,0.3069213,2.563772,2.1607008,3.0587096,-3.1415703,0.9021011,0.19975282,0.44983247,0.20310242474079132,0.20310242474079132,link6
1762481863.9615974,ddpg_train,FAR,train,3,93,-4.670042863633094,0,296,1,0.263,0.156,0.361,0.34814513,0.29797307,2.5135002,2.0404549,2.9772096,-3.1415925,0.9021011,0.19975282,0.44983247,0.18455639481544495,0.18455639481544495,link6
1762481865.3496988,ddpg_train,FAR,train,3,94,-5.602937605799974,0,297,1,0.306,0.054,0.342,0.019331604,0.35669702,2.4981544,1.9939381,3.1012843,-3.052961,0.9021011,0.19975282,0.44983247,0.09864149987697601,0.09864149987697601,link6
1762481866.7985623,ddpg_train,MID,train,3,95,-7.289469378442331,0,298,1,0.333,-0.002,0.322,-0.122695155,0.43561763,2.462191,2.0023382,3.1415474,-2.9943953,0.9021011,0.19975282,0.44983247,0.03323058784008026,0.03323058784008026,link6
1762481868.3002203,ddpg_train,NEAR,train,3,96,-57.89077808521591,1,299,1,0.461,0.006,0.454,-0.16276218,0.3002703,2.0491974,1.7092918,2.79943,-2.5902188,0.9021011,0.19975282,0.44983247,0.0,-0.022427424788475037,link6
1762481871.9493942,ddpg_train,FAR,train,4,0,-4.73095178549713,0,300,1,0.149,0.061,1.372,0.17699602,-0.008112702,0.29241446,0.13454778,0.3469325,-0.21351662,0.12527789,-0.0826835,0.59708285,1.135941982269287,1.135941982269287,link6
1762481873.3338585,ddpg_train,FAR,train,4,1,-2.1960966935327817,0,301,1,-0.045,0.207,0.452,1.4879707,-0.09990859,2.5068555,1.2677801,2.9484217,-1.8504045,0.12527789,-0.0826835,0.59708285,1.1284074783325195,1.1284074783325195,link6
1762481874.7149358,ddpg_train,FAR,train,4,2,-2.178881112351113,0,302,1,0.027,0.218,0.419,1.0777029,0.020721933,2.573129,1.4723324,2.9200616,-2.3631253,0.12527789,-0.0826835,0.59708285,0.8780421018600464,0.8780421018600464,link6
1762481876.1396685,ddpg_train,FAR,train,4,3,-2.0949535723544965,0,303,1,0.251,0.159,0.379,0.40198752,0.24325475,2.483476,1.5256231,3.069904,-3.0867133,0.12527789,-0.0826835,0.59708285,0.8369618654251099,0.8369618654251099,link6
1762481877.5235853,ddpg_train,FAR,train,4,4,-2.685078765109291,0,304,1,0.167,0.263,0.316,0.89817953,0.443894,2.518326,1.6168889,3.118515,-3.0560927,0.12527789,-0.0826835,0.59708285,1.0404129028320312,1.0404129028320312,link6
1762481878.915376,ddpg_train,FAR,train,4,5,-3.0422198892896355,0,305,1,0.086,0.311,0.28,1.1801561,0.55271167,2.5219707,1.6799535,3.141526,-3.0626204,0.12527789,-0.0826835,0.59708285,1.0928010940551758,1.0928010940551758,link6
1762481880.310346,ddpg_train,FAR,train,4,6,-2.753070544037373,0,306,1,0.003,0.29,0.359,1.4283571,0.2843133,2.520712,1.7257308,3.141582,-3.1415868,0.12527789,-0.0826835,0.59708285,1.1196646690368652,1.1196646690368652,link6
1762481881.6914973,ddpg_train,FAR,train,4,7,-2.784087506935235,0,307,1,-0.023,0.281,0.35,1.5141956,0.31464103,2.5522916,2.0158877,3.1415524,-3.1415684,0.12527789,-0.0826835,0.59708285,1.1534162759780884,1.1534162759780884,link6
1762481883.0825565,ddpg_train,FAR,train,4,8,-2.741174941055804,0,308,1,-0.041,0.272,0.362,1.5762168,0.2745831,2.5556653,2.3011177,3.1415577,-3.1411064,0.12527789,-0.0826835,0.59708285,1.1176530122756958,1.1176530122756958,link6
1762481884.4714582,ddpg_train,FAR,train,4,9,-2.5933115501491244,0,309,1,-0.012,0.268,0.385,1.4688102,0.18663284,2.5303679,2.2980225,3.1415777,-3.1408634,0.12527789,-0.0826835,0.59708285,1.1222363710403442,1.1222363710403442,link6
1762481885.8543887,ddpg_train,FAR,train,4,10,-2.698570098811642,0,310,1,-0.032,0.269,0.365,1.5462726,0.25704375,2.5637245,2.2403805,3.103033,-3.1415753,0.12527789,-0.0826835,0.59708285,1.1823267936706543,1.1823267936706543,link6
1762481887.2384021,ddpg_train,FAR,train,4,11,-2.740712193094726,0,311,1,0.011,0.298,0.372,1.3217438,0.25346226,2.5143986,1.8769958,2.94184,-3.141592,0.12527789,-0.0826835,0.59708285,1.1125998497009277,1.1125998497009277,link6
1762481888.622854,ddpg_train,FAR,train,4,12,-2.898160771144899,0,312,1,-0.024,0.302,0.346,1.4022614,0.31247097,2.539502,1.7896358,2.8181765,-3.1415684,0.12527789,-0.0826835,0.59708285,1.1653386354446411,1.1653386354446411,link6
1762481890.0053487,ddpg_train,FAR,train,4,13,-2.9776354799075047,0,313,1,-0.025,0.313,0.338,1.3820708,0.3457417,2.527037,1.7681494,2.7812266,-3.1415405,0.12527789,-0.0826835,0.59708285,1.101081371307373,1.101081371307373,link6
1762481891.4016075,ddpg_train,FAR,train,4,14,-2.7870695880479883,0,314,1,0.058,0.338,0.412,1.1306281,0.16401957,2.4346306,2.1343331,2.6200392,-3.1415863,0.12527789,-0.0826835,0.59708285,1.0889930725097656,1.0889930725097656,link6
1762481892.7953045,ddpg_train,FAR,train,4,15,-2.8202811970259907,0,315,1,0.111,0.336,0.384,0.99557155,0.23308681,2.4751496,2.390047,2.5803363,-3.141558,0.12527789,-0.0826835,0.59708285,0.9882092475891113,0.9882092475891113,link6
1762481894.1857147,ddpg_train,FAR,train,4,16,-2.757401505938607,0,316,1,0.177,0.32,0.382,0.8503033,0.26274905,2.4801114,2.5552354,2.5725849,-3.1415775,0.12527789,-0.0826835,0.59708285,0.8830832839012146,0.8830832839012146,link6
1762481895.57261,ddpg_train,FAR,train,4,17,-2.8069169848914055,0,317,1,0.301,0.293,0.381,0.5812239,0.3440218,2.2879312,2.2757738,2.684171,-3.141575,0.12527789,-0.0826835,0.59708285,0.857658863067627,0.857658863067627,link6
1762481896.9638088,ddpg_train,FAR,train,4,18,-2.9443703384888256,0,318,1,0.279,0.297,0.327,0.6122347,0.43863672,2.3865066,2.2312133,2.6708243,-3.141558,0.12527789,-0.0826835,0.59708285,0.9238019585609436,0.9238019585609436,link6
1762481898.4414852,ddpg_train,FAR,train,4,19,-2.194774235287175,0,319,1,0.252,0.182,0.379,0.37572208,0.22917482,2.5150917,2.0770297,2.791665,-3.0839133,0.12527789,-0.0826835,0.59708285,0.8448944687843323,0.8448944687843323,link6
1762481899.8185205,ddpg_train,FAR,train,4,20,-2.523448338217337,0,320,1,0.218,0.232,0.334,0.54302126,0.3376316,2.5513608,1.9192392,2.6511772,-3.115356,0.12527789,-0.0826835,0.59708285,0.9601362943649292,0.9601362943649292,link6
1762481901.1953106,ddpg_train,FAR,train,4,21,-2.7515377765742306,0,321,1,0.185,0.272,0.313,0.62494403,0.39326435,2.5516405,1.8110572,2.5518024,-3.1415346,0.12527789,-0.0826835,0.59708285,0.8090040683746338,0.8090040683746338,link6
1762481902.578452,ddpg_train,FAR,train,4,22,-2.1726458876061794,0,322,1,0.304,0.138,0.373,0.22334768,0.28039506,2.4145303,1.6813992,2.928002,-3.1415772,0.12527789,-0.0826835,0.59708285,0.7726455926895142,0.7726455926895142,link6
1762481903.967856,ddpg_train,FAR,train,4,23,-2.3199323473697198,0,323,1,0.306,0.152,0.349,0.30303788,0.36789745,2.4159245,1.502541,3.0193057,-3.1402164,0.12527789,-0.0826835,0.59708285,0.7980049848556519,0.7980049848556519,link6
1762481905.3487568,ddpg_train,FAR,train,4,24,-2.741772065503485,0,324,1,0.212,0.303,0.368,0.7653581,0.33923805,2.3203714,1.3243049,2.8677602,-2.8144946,0.12527789,-0.0826835,0.59708285,0.9402648210525513,0.9402648210525513,link6
1762481906.7291687,ddpg_train,FAR,train,4,25,-2.575172189163542,0,325,1,0.348,0.239,0.422,0.46264124,0.29524973,2.1291926,1.5527188,3.0693371,-2.6544077,0.12527789,-0.0826835,0.59708285,0.7328749299049377,0.7328749299049377,link6
1762481908.1113737,ddpg_train,FAR,train,4,26,-2.5714513331674405,0,326,1,0.365,0.224,0.418,0.47838914,0.3353174,2.1404665,1.5147592,3.1415517,-2.5468276,0.12527789,-0.0826835,0.59708285,0.9041157960891724,0.9041157960891724,link6
1762481909.4982514,ddpg_train,FAR,train,4,27,-2.6128719195952455,0,327,1,0.307,0.272,0.422,0.6166994,0.2936176,2.1662042,1.0700551,3.1098197,-2.633863,0.12527789,-0.0826835,0.59708285,0.8392905592918396,0.8392905592918396,link6
1762481910.8858862,ddpg_train,FAR,train,4,28,-2.7425713862130294,0,328,1,0.237,0.293,0.362,0.752551,0.37175813,2.3091462,1.1844878,3.018767,-2.6498325,0.12527789,-0.0826835,0.59708285,0.9588856101036072,0.9588856101036072,link6
1762481912.3185134,ddpg_train,FAR,train,4,29,-2.7449051128485458,0,329,1,0.192,0.289,0.339,0.8056962,0.39583027,2.4089725,1.301022,2.957088,-2.6737735,0.12527789,-0.0826835,0.59708285,0.9106895327568054,0.9106895327568054,link6
1762481913.6985104,ddpg_train,FAR,train,4,30,-2.3280785860790183,0,330,1,0.214,0.202,0.349,0.6073075,0.32016072,2.526376,1.6695868,3.1107244,-2.4665887,0.12527789,-0.0826835,0.59708285,0.8849596381187439,0.8849596381187439,link6
1762481915.0925126,ddpg_train,FAR,train,4,31,-2.5537050328565205,0,331,1,0.165,0.243,0.326,0.8651329,0.39833605,2.5531614,1.6412494,3.1415386,-2.6354208,0.12527789,-0.0826835,0.59708285,1.06536066532135,1.06536066532135,link6
1762481916.4293678,ddpg_train,FAR,train,4,32,-2.604903436060936,0,332,1,0.125,0.279,0.357,0.9168123,0.2970777,2.5138056,1.7315564,2.8851144,-2.8897552,0.12527789,-0.0826835,0.59708285,1.0029175281524658,1.0029175281524658,link6
1762481917.8229072,ddpg_train,FAR,train,4,33,-2.7868369562598296,0,333,1,0.107,0.294,0.326,0.9680264,0.37551653,2.5322986,1.7013417,2.7968073,-2.8296125,0.12527789,-0.0826835,0.59708285,1.0358965396881104,1.0358965396881104,link6
1762481919.207435,ddpg_train,FAR,train,4,34,-2.8143107548065163,0,334,1,0.128,0.285,0.306,0.9008074,0.4530912,2.550815,1.6919718,2.8734815,-2.7418172,0.12527789,-0.0826835,0.59708285,0.9165141582489014,0.9165141582489014,link6
1762481920.586972,ddpg_train,FAR,train,4,35,-2.6898579793820985,0,335,1,0.153,0.277,0.331,0.8699637,0.38089284,2.5155525,1.840124,2.9324179,-2.4162834,0.12527789,-0.0826835,0.59708285,0.9817150235176086,0.9817150235176086,link6
1762481921.9808667,ddpg_train,FAR,train,4,36,-2.8480030470930457,0,336,1,0.11,0.298,0.314,0.9991872,0.4216447,2.5372174,1.7933418,2.861847,-2.3228688,0.12527789,-0.0826835,0.59708285,1.060179591178894,1.060179591178894,link6
1762481923.3826852,ddpg_train,FAR,train,4,37,-2.8816679100670517,0,337,1,0.075,0.302,0.314,1.0787783,0.4218831,2.5525534,1.7344002,2.8262963,-2.3066156,0.12527789,-0.0826835,0.59708285,1.051230788230896,1.051230788230896,link6
1762481924.7657416,ddpg_train,FAR,train,4,38,-2.656604118915616,0,338,1,0.096,0.278,0.342,1.0236704,0.3359755,2.522729,1.2664999,2.9384003,-2.5762084,0.12527789,-0.0826835,0.59708285,1.0258212089538574,1.0258212089538574,link6
1762481926.1583006,ddpg_train,FAR,train,4,39,-2.7556083976427543,0,339,1,0.095,0.28,0.317,0.99415004,0.4052512,2.5490973,1.3467252,2.8571067,-2.7197208,0.12527789,-0.0826835,0.59708285,1.0342501401901245,1.0342501401901245,link6
1762481927.5710924,ddpg_train,FAR,train,4,40,-2.632896443338502,0,340,1,0.177,0.256,0.323,0.66270834,0.37182227,2.5134835,1.3997145,2.68257,-2.8676605,0.12527789,-0.0826835,0.59708285,0.9469439387321472,0.9469439387321472,link6
1762481928.9545224,ddpg_train,FAR,train,4,41,-2.828442297789839,0,341,1,0.144,0.277,0.293,0.8507271,0.4880907,2.5300314,1.3318602,2.8322275,-2.739308,0.12527789,-0.0826835,0.59708285,1.0005333423614502,1.0005333423614502,link6
1762481930.3369596,ddpg_train,FAR,train,4,42,-2.8915136632409224,0,342,1,0.162,0.271,0.272,0.8044947,0.5649296,2.5378015,1.3603373,2.9080172,-2.7285616,0.12527789,-0.0826835,0.59708285,0.8756244778633118,0.8756244778633118,link6
1762481931.7268987,ddpg_train,FAR,train,4,43,-2.553797645760658,0,343,1,0.234,0.207,0.305,0.46896043,0.44318053,2.5152578,1.3131633,2.8003454,-2.7093725,0.12527789,-0.0826835,0.59708285,0.8736053705215454,0.8736053705215454,link6
1762481933.112847,ddpg_train,FAR,train,4,44,-2.954962614705576,0,344,1,0.123,0.289,0.274,0.9225779,0.5329496,2.530607,1.2890491,2.7435682,-2.8341925,0.12527789,-0.0826835,0.59708285,1.099623680114746,1.099623680114746,link6
1762481934.4934185,ddpg_train,FAR,train,4,45,-3.1452993475391766,0,345,1,0.04,0.313,0.264,1.1427501,0.5614697,2.5363352,1.3204628,2.679797,-2.9240818,0.12527789,-0.0826835,0.59708285,1.0633424520492554,1.0633424520492554,link6
1762481935.87475,ddpg_train,FAR,train,4,46,-2.6158877780093346,0,346,1,0.182,0.274,0.353,0.64124435,0.25978434,2.52217,1.8600223,2.503229,-3.1175108,0.12527789,-0.0826835,0.59708285,0.9357306361198425,0.9357306361198425,link6
1762481937.2554023,ddpg_train,FAR,train,4,47,-2.757564180235872,0,347,1,0.1,0.294,0.335,0.9385332,0.3228675,2.556842,1.7706664,2.644007,-3.1365504,0.12527789,-0.0826835,0.59708285,1.126530647277832,1.126530647277832,link6
1762481938.6391664,ddpg_train,FAR,train,4,48,-2.161867404113765,0,348,1,0.194,0.201,0.386,0.6466618,0.20505469,2.5135589,1.7252477,3.1029859,-3.1415925,0.12527789,-0.0826835,0.59708285,0.9069119095802307,0.9069119095802307,link6
1762481940.0211105,ddpg_train,FAR,train,4,49,-2.7288276962842195,0,349,1,0.026,0.288,0.353,1.3500775,0.3117369,2.532678,1.9399424,3.1343648,-3.141581,0.12527789,-0.0826835,0.59708285,1.1405905485153198,1.1405905485153198,link6
1762481941.4165635,ddpg_train,FAR,train,4,50,-2.64234134282568,0,350,1,0.083,0.275,0.344,1.071393,0.32542098,2.553156,2.1167836,3.1067512,-3.141565,0.12527789,-0.0826835,0.59708285,0.8383817672729492,0.8383817672729492,link6
1762481942.8048143,ddpg_train,FAR,train,4,51,-2.4253695472011434,0,351,1,0.13,0.253,0.372,0.9721873,0.25103533,2.515717,2.3508303,3.1399488,-3.1415925,0.12527789,-0.0826835,0.59708285,0.9939997792243958,0.9939997792243958,link6
1762481944.2061732,ddpg_train,FAR,train,4,52,-2.5988019770148556,0,352,1,0.11,0.272,0.349,1.0394657,0.32455164,2.540134,2.3807147,3.0910723,-3.1415777,0.12527789,-0.0826835,0.59708285,1.023683786392212,1.023683786392212,link6
1762481945.592984,ddpg_train,FAR,train,4,53,-2.6180353054281573,0,353,1,0.121,0.269,0.339,0.9938621,0.35873044,2.552877,2.4047515,3.0795143,-3.1415634,0.12527789,-0.0826835,0.59708285,0.9047651290893555,0.9047651290893555,link6
1762481946.982727,ddpg_train,FAR,train,4,54,-2.0144286070240676,0,354,1,0.234,0.148,0.379,0.42006943,0.22190021,2.523823,2.8309243,3.141579,-3.141588,0.12527789,-0.0826835,0.59708285,0.8409842848777771,0.8409842848777771,link6
1762481948.372069,ddpg_train,FAR,train,4,55,-2.4121768879082883,0,355,1,0.18,0.224,0.343,0.7575975,0.34037954,2.550333,2.7291229,3.1415586,-3.1416001,0.12527789,-0.0826835,0.59708285,1.0403393507003784,1.0403393507003784,link6
1762481949.7541897,ddpg_train,FAR,train,4,56,-2.3499069804449797,0,356,1,0.218,0.214,0.359,0.6468041,0.30906633,2.4861598,2.5341458,3.1415925,-3.1415925,0.12527789,-0.0826835,0.59708285,0.8903631567955017,0.8903631567955017,link6
1762481951.1382556,ddpg_train,FAR,train,4,57,-2.453302467891075,0,357,1,0.245,0.209,0.337,0.53596,0.368785,2.5235639,2.5008874,2.9447227,-3.1415823,0.12527789,-0.0826835,0.59708285,0.8562973141670227,0.8562973141670227,link6
1762481952.5205195,ddpg_train,FAR,train,4,58,-2.4264061653157594,0,358,1,0.273,0.166,0.315,0.37750185,0.4407459,2.5463018,2.5258925,2.981749,-3.141559,0.12527789,-0.0826835,0.59708285,0.7703028917312622,0.7703028917312622,link6
1762481953.9036043,ddpg_train,FAR,train,4,59,-2.1622326599086406,0,359,1,0.279,0.134,0.354,0.3039108,0.32316333,2.5050097,2.4962416,3.0641208,-3.1415918,0.12527789,-0.0826835,0.59708285,0.8024420142173767,0.8024420142173767,link6
1762481955.2895844,ddpg_train,FAR,train,4,60,-2.2886307973202236,0,360,1,0.262,0.157,0.334,0.4076793,0.37750557,2.5230298,2.4804766,3.1153047,-3.1415756,0.12527789,-0.0826835,0.59708285,0.8409333825111389,0.8409333825111389,link6
1762481956.67271,ddpg_train,FAR,train,4,61,-2.2578765963731056,0,361,1,0.263,0.142,0.329,0.3593581,0.39345154,2.5393615,2.4845948,3.1415346,-3.1415682,0.12527789,-0.0826835,0.59708285,0.7668929100036621,0.7668929100036621,link6
1762481958.057728,ddpg_train,FAR,train,4,62,-1.8548868633076292,0,362,1,0.279,0.067,0.375,0.08839026,0.24002793,2.520891,2.517882,3.088833,-3.1279495,0.12527789,-0.0826835,0.59708285,0.7776874899864197,0.7776874899864197,link6
1762481959.4369721,ddpg_train,FAR,train,4,63,-2.0647540190290807,0,363,1,0.278,0.087,0.34,0.16789618,0.3542463,2.5494618,2.3924258,3.1145556,-3.0292656,0.12527789,-0.0826835,0.59708285,0.7891558408737183,0.7891558408737183,link6
1762481960.886835,ddpg_train,FAR,train,4,64,-2.220545898545087,0,364,1,0.285,0.098,0.317,0.19749917,0.4319403,2.545456,2.2606068,3.1415448,-2.9619064,0.12527789,-0.0826835,0.59708285,0.743659257888794,0.743659257888794,link6
1762481962.2723734,ddpg_train,FAR,train,4,65,-2.0233950884984937,0,365,1,0.294,0.049,0.337,0.03409852,0.3628222,2.5290077,2.2547228,3.1415718,-3.0921814,0.12527789,-0.0826835,0.59708285,0.7622062563896179,0.7622062563896179,link6
1762481963.664048,ddpg_train,FAR,train,4,66,-2.0764584794022243,0,366,1,0.292,0.048,0.324,0.027987167,0.40726197,2.5513136,2.244394,3.1415436,-3.1067812,0.12527789,-0.0826835,0.59708285,0.7495649456977844,0.7495649456977844,link6
1762481965.0471227,ddpg_train,FAR,train,4,67,-1.7565237636287239,0,367,1,0.293,-0.059,0.359,-0.3665998,0.2955451,2.515711,2.104909,3.0608242,-3.141591,0.12527789,-0.0826835,0.59708285,0.7298415303230286,0.7298415303230286,link6
1762481966.4367712,ddpg_train,FAR,train,4,68,-2.071204202586611,0,368,1,0.315,0.008,0.324,-0.19515887,0.40094104,2.541578,1.9200146,2.8836024,-3.1329558,0.12527789,-0.0826835,0.59708285,0.7344929575920105,0.7344929575920105,link6
1762481967.826568,ddpg_train,FAR,train,4,69,-2.2816308460543224,0,369,1,0.323,0.044,0.299,-0.12311377,0.46967116,2.5482347,1.8676851,2.7665613,-3.130382,0.12527789,-0.0826835,0.59708285,0.6944115161895752,0.6944115161895752,link6
1762481969.2047546,ddpg_train,FAR,train,4,70,-2.261895673304829,0,370,1,0.34,0.048,0.317,-0.07985699,0.42136785,2.520855,2.2028782,2.7628276,-2.888988,0.12527789,-0.0826835,0.59708285,0.716430127620697,0.716430127620697,link6
1762481970.587914,ddpg_train,FAR,train,4,71,-2.5011152272793318,0,371,1,0.348,0.101,0.297,0.09740055,0.49825525,2.47448,2.206387,2.8277347,-2.854291,0.12527789,-0.0826835,0.59708285,0.753311038017273,0.753311038017273,link6
1762481971.98214,ddpg_train,FAR,train,4,72,-2.1032271993949774,0,372,1,0.343,0.087,0.382,0.0993756,0.3000609,2.3793793,2.2370403,3.0053172,-2.5985713,0.12527789,-0.0826835,0.59708285,0.7235158681869507,0.7235158681869507,link6
1762481973.367527,ddpg_train,FAR,train,4,73,-2.404447021601853,0,373,1,0.269,0.198,0.35,0.47480473,0.3525533,2.463632,2.1746647,2.9865978,-2.4519932,0.12527789,-0.0826835,0.59708285,0.8764756917953491,0.8764756917953491,link6
1762481974.7533658,ddpg_train,FAR,train,4,74,-2.5084071601182694,0,374,1,0.271,0.216,0.344,0.49500933,0.37537163,2.4482732,2.1434467,2.9323583,-2.4159412,0.12527789,-0.0826835,0.59708285,0.7808265089988708,0.7808265089988708,link6
1762481976.133823,ddpg_train,FAR,train,4,75,-2.3075308202854696,0,375,1,0.315,0.202,0.422,0.39549294,0.23723051,2.3072994,2.1687663,2.8885546,-2.2272282,0.12527789,-0.0826835,0.59708285,0.7999264597892761,0.7999264597892761,link6
1762481977.5180411,ddpg_train,FAR,train,4,76,-2.8714933259608824,0,376,1,0.216,0.342,0.396,0.86100155,0.3229294,2.2776678,2.3096135,2.8816624,-2.3320112,0.12527789,-0.0826835,0.59708285,1.0591425895690918,1.0591425895690918,link6
1762481978.9213178,ddpg_train,FAR,train,4,77,-3.1114028989142453,0,377,1,0.174,0.393,0.397,0.9932704,0.35210842,2.2248206,2.4476862,2.869238,-2.404456,0.12527789,-0.0826835,0.59708285,0.8230934739112854,0.8230934739112854,link6
1762481980.3032308,ddpg_train,FAR,train,4,78,-2.599405750425947,0,378,1,0.321,0.301,0.552,0.55852133,0.11108441,2.0714293,2.3997343,2.5374155,-2.416175,0.12527789,-0.0826835,0.59708285,0.8552966117858887,0.8552966117858887,link6
1762481981.6978512,ddpg_train,FAR,train,4,79,-3.194165876724962,0,379,1,0.199,0.429,0.47,1.0031341,0.27091876,2.102915,2.3311036,2.573909,-2.585564,0.12527789,-0.0826835,0.59708285,1.2532447576522827,1.2532447576522827,link6
1762481983.0812652,ddpg_train,FAR,train,4,80,-2.7897058467013305,0,380,1,0.177,0.364,0.479,0.95210224,0.18599375,2.172779,2.240638,2.8576353,-2.7727618,0.12527789,-0.0826835,0.59708285,1.0019018650054932,1.0019018650054932,link6
1762481984.4673593,ddpg_train,FAR,train,4,81,-3.0529750290005038,0,381,1,0.046,0.385,0.413,1.3205549,0.26940793,2.291118,2.4034808,2.9201245,-2.8658142,0.12527789,-0.0826835,0.59708285,1.159877896308899,1.159877896308899,link6
1762481985.850724,ddpg_train,FAR,train,4,82,-2.9898282731886314,0,382,1,0.059,0.367,0.393,1.2362189,0.2837059,2.3454814,2.446989,2.9584396,-2.9633944,0.12527789,-0.0826835,0.59708285,0.9722535610198975,0.9722535610198975,link6
1762481987.2333987,ddpg_train,FAR,train,4,83,-3.0742139513802793,0,383,1,-0.027,0.397,0.501,1.5480273,0.16335665,2.0844398,2.3471818,3.1394985,-2.707064,0.12527789,-0.0826835,0.59708285,1.1999531984329224,1.1999531984329224,link6
1762481988.6373022,ddpg_train,FAR,train,4,84,-2.7937783407973016,0,384,1,0.072,0.36,0.463,1.2451118,0.16392559,2.2221537,2.2281544,3.0912292,-2.6062453,0.12527789,-0.0826835,0.59708285,1.031903862953186,1.031903862953186,link6
1762481990.0245829,ddpg_train,FAR,train,4,85,-2.716826649608487,0,385,1,0.076,0.338,0.437,1.2403699,0.18957238,2.3083525,2.139933,3.0816872,-2.5806391,0.12527789,-0.0826835,0.59708285,1.2650583982467651,1.2650583982467651,link6
1762481991.414187,ddpg_train,FAR,train,4,86,-3.252021896843986,0,386,1,-0.119,0.356,0.393,1.7876359,0.30851126,2.2876618,2.2081363,3.1415842,-2.631321,0.12527789,-0.0826835,0.59708285,1.2538594007492065,1.2538594007492065,link6
1762481992.8018026,ddpg_train,FAR,train,4,87,-2.654922578801227,0,387,1,0.1,0.31,0.395,1.1394145,0.24211206,2.395685,2.3496115,3.1415718,-2.6211562,0.12527789,-0.0826835,0.59708285,0.8739804029464722,0.8739804029464722,link6
1762481994.1879969,ddpg_train,FAR,train,4,88,-3.1059553952897216,0,388,1,-0.123,0.284,0.329,1.8518511,0.40030387,2.513427,2.2309256,3.1415925,-2.7616258,0.12527789,-0.0826835,0.59708285,1.2291961908340454,1.2291961908340454,link6
1762481995.5786822,ddpg_train,FAR,train,4,89,-2.125044404550341,0,389,1,0.211,0.192,0.391,0.58062273,0.19415025,2.4895592,2.441468,3.1415825,-2.6597278,0.12527789,-0.0826835,0.59708285,0.8153316378593445,0.8153316378593445,link6
1762481997.0018127,ddpg_train,FAR,train,4,90,-2.412921147728324,0,390,1,0.13,0.245,0.364,0.94176775,0.26798278,2.5455196,2.3475072,3.1415603,-2.6986928,0.12527789,-0.0826835,0.59708285,1.3357597589492798,1.3357597589492798,link6
1762481998.385313,ddpg_train,FAR,train,4,91,-3.2249006798046085,0,391,1,-0.145,0.281,0.308,1.9084693,0.4591519,2.5152092,2.1566987,3.1415906,-2.9411976,0.12527789,-0.0826835,0.59708285,1.238991141319275,1.238991141319275,link6
1762481999.828821,ddpg_train,FAR,train,4,92,-2.11945841133009,0,392,1,0.266,0.141,0.363,0.23143747,0.26810777,2.4894822,2.546153,3.1415753,-2.8720052,0.12527789,-0.0826835,0.59708285,0.8282461166381836,0.8282461166381836,link6
1762482001.228385,ddpg_train,FAR,train,4,93,-1.2877920216796,0,393,1,0.249,-0.111,0.424,-0.5659814,0.09964269,2.4667041,2.7904978,3.1352708,-2.8349206,0.12527789,-0.0826835,0.59708285,1.4239970445632935,1.4239970445632935,link6
1762482002.610355,ddpg_train,FAR,train,4,94,-4.325530872968006,0,394,1,-0.436,0.267,0.31,2.518984,0.6081749,2.0304997,2.479431,3.1317918,-3.0022128,0.12527789,-0.0826835,0.59708285,1.5308072566986084,1.5308072566986084,link6
1762482003.9916253,ddpg_train,FAR,train,4,95,-2.9037760308549325,0,395,1,0.331,0.321,0.427,0.59255654,0.3418362,2.0499027,2.61402,3.1415553,-2.9530075,0.12527789,-0.0826835,0.59708285,1.132549524307251,1.132549524307251,link6
1762482005.401605,ddpg_train,FAR,train,4,96,-3.0255086383099132,0,396,1,0.214,0.381,0.42,0.969823,0.33943203,2.1159134,2.6402268,3.1415925,-2.7939925,0.12527789,-0.0826835,0.59708285,1.0026130676269531,1.0026130676269531,link6
1762482006.7774625,ddpg_train,FAR,train,4,97,-2.4661857428555987,0,397,1,0.322,0.21,0.387,0.4413758,0.31797245,2.2770827,2.706101,3.1415641,-3.0170462,0.12527789,-0.0826835,0.59708285,0.7330865263938904,0.7330865263938904,link6
1762482008.1600323,ddpg_train,FAR,train,4,98,-2.1327320358774067,0,398,1,0.326,0.127,0.392,0.29351306,0.29072076,2.3458223,2.7252235,3.1415563,-3.141599,0.12527789,-0.0826835,0.59708285,0.9796040654182434,0.9796040654182434,link6
1762482009.5549867,ddpg_train,FAR,train,4,99,-2.9403624037834244,0,399,1,0.216,0.337,0.361,0.9031906,0.40434322,2.2639909,2.7254238,3.1415837,-3.141593,0.12527789,-0.0826835,0.59708285,0.9529878497123718,0.9529878497123718,link6
1762482010.9386365,ddpg_train,FAR,train,4,100,-2.1113484494531307,0,400,1,0.342,0.048,0.353,-0.006263799,0.3602057,2.4208493,2.7095375,3.0847108,-3.1415956,0.12527789,-0.0826835,0.59708285,0.796108603477478,0.796108603477478,link6
1762482012.3256092,ddpg_train,FAR,train,4,101,-1.4832321589139073,0,401,1,0.242,-0.144,0.388,-0.67727596,0.20527898,2.5322597,2.6653745,3.0409684,-3.141602,0.12527789,-0.0826835,0.59708285,1.0523474216461182,1.0523474216461182,link6
1762482013.7143462,ddpg_train,FAR,train,4,102,-3.1992547213218647,0,402,1,-0.122,0.294,0.312,1.843791,0.45429885,2.513154,2.2595766,3.1153488,-3.1415818,0.12527789,-0.0826835,0.59708285,1.2628666162490845,1.2628666162490845,link6
1762482015.0996044,ddpg_train,FAR,train,4,103,-2.0699452339158806,0,403,1,0.252,0.144,0.37,0.29555714,0.2501712,2.538209,2.392687,3.017536,-3.1415672,0.12527789,-0.0826835,0.59708285,1.1161551475524902,1.1161551475524902,link6
1762482016.4847865,ddpg_train,FAR,train,4,104,-2.328182475555823,0,404,1,0.199,0.217,0.362,0.7073731,0.29388675,2.5172265,2.55579,3.1109426,-3.1415932,0.12527789,-0.0826835,0.59708285,0.9310603141784668,0.9310603141784668,link6
1762482017.8673532,ddpg_train,FAR,train,4,105,-1.9294793793844236,0,405,1,0.288,0.046,0.352,-0.012209311,0.31037512,2.5353155,2.6934466,3.109848,-3.0499768,0.12527789,-0.0826835,0.59708285,0.7454214692115784,0.7454214692115784,link6
1762482019.246735,ddpg_train,FAR,train,4,106,-1.9302726941304316,0,406,1,0.295,0.01,0.34,-0.03622794,0.36883056,2.5406437,2.7787495,3.1146553,-3.008137,0.12527789,-0.0826835,0.59708285,1.0771028995513916,1.0771028995513916,link6
1762482020.6308424,ddpg_train,FAR,train,4,107,-3.278846750736788,0,407,1,0.013,0.36,0.297,1.4289846,0.51739705,2.4160411,2.702688,3.1415863,-2.8604376,0.12527789,-0.0826835,0.59708285,1.1460198163986206,1.1460198163986206,link6
1762482022.0139935,ddpg_train,FAR,train,4,108,-2.1442751858620057,0,408,1,0.309,0.093,0.346,0.019514497,0.32572702,2.4791691,2.8558125,3.0978036,-2.896313,0.12527789,-0.0826835,0.59708285,0.9223489165306091,0.9223489165306091,link6
1762482023.4041286,ddpg_train,FAR,train,4,109,-1.1749038208395284,0,409,1,0.157,-0.178,0.429,-1.0167357,0.02861683,2.547462,3.0299416,3.064811,-2.9408307,0.12527789,-0.0826835,0.59708285,1.265632152557373,1.265632152557373,link6
1762482024.8090563,ddpg_train,FAR,train,4,110,-3.57805590359725,0,410,1,-0.323,0.143,0.275,2.6127498,0.5776029,2.4482377,3.0669203,3.1415777,-2.7846448,0.12527789,-0.0826835,0.59708285,1.3733830451965332,1.3733830451965332,link6
1762482026.1992266,ddpg_train,FAR,train,4,111,-2.9037959030743608,0,411,1,0.05,0.321,0.341,1.068389,0.33175987,2.4627185,2.9600375,3.1415722,-2.788306,0.12527789,-0.0826835,0.59708285,1.0737828016281128,1.0737828016281128,link6
1762482027.5808759,ddpg_train,FAR,train,4,112,-1.6406925097883194,0,412,1,0.273,0.101,0.459,0.23071815,0.05699078,2.368879,2.444591,3.141594,-2.823094,0.12527789,-0.0826835,0.59708285,0.8046350479125977,0.8046350479125977,link6
1762482028.961729,ddpg_train,FAR,train,4,113,-2.9424490348545085,0,413,1,0.019,0.348,0.388,1.4342909,0.2890922,2.363676,2.2305253,3.0697033,-2.9474416,0.12527789,-0.0826835,0.59708285,1.3380533456802368,1.3380533456802368,link6
1762482030.350545,ddpg_train,FAR,train,4,114,-3.068971558030236,0,414,1,-0.005,0.355,0.367,1.449782,0.33834073,2.3826208,2.1517394,3.0534475,-3.0438328,0.12527789,-0.0826835,0.59708285,0.8644474744796753,0.8644474744796753,link6
1762482031.7783556,ddpg_train,FAR,train,4,115,-0.7087774862798615,0,415,1,0.117,-0.163,0.511,-1.1537914,-0.21566044,2.4080646,2.569025,3.1415803,-2.9817083,0.12527789,-0.0826835,0.59708285,0.8968026041984558,0.8968026041984558,link6
1762482033.167294,ddpg_train,FAR,train,4,116,-1.8948216591892066,0,416,1,0.195,0.162,0.41,0.77334553,0.14625241,2.527819,2.655327,3.1415505,-2.8026857,0.12527789,-0.0826835,0.59708285,1.3485119342803955,1.3485119342803955,link6
1762482034.5890481,ddpg_train,FAR,train,4,117,-1.456109274619143,0,417,1,0.261,0.01,0.419,-0.1309576,0.090287134,2.513593,2.5731103,3.0748641,-2.7770092,0.12527789,-0.0826835,0.59708285,0.7763746976852417,0.7763746976852417,link6
1762482035.973191,ddpg_train,FAR,train,4,118,-2.615801239078495,0,418,1,0.126,0.273,0.345,0.99811167,0.34300688,2.5422192,2.8766952,3.053448,-2.5600498,0.12527789,-0.0826835,0.59708285,1.1186714172363281,1.1186714172363281,link6
1762482037.35603,ddpg_train,FAR,train,4,119,-2.6220681641474055,0,419,1,0.17,0.26,0.33,0.7647158,0.37643704,2.5347657,3.0289016,3.060102,-2.5419765,0.12527789,-0.0826835,0.59708285,0.81340491771698,0.81340491771698,link6
1762482038.7440941,ddpg_train,FAR,train,4,120,-1.5058486212668971,0,420,1,0.301,-0.029,0.427,-0.21482427,0.13639301,2.4258804,3.0266585,3.0325909,-2.7109017,0.12527789,-0.0826835,0.59708285,0.7239040732383728,0.7239040732383728,link6
1762482040.1315234,ddpg_train,FAR,train,4,121,-2.7986040089231805,0,421,1,0.134,0.301,0.332,1.0503942,0.40133983,2.516643,3.098285,2.9636486,-2.5874276,0.12527789,-0.0826835,0.59708285,1.2590124607086182,1.2590124607086182,link6
1762482041.5145974,ddpg_train,FAR,train,4,122,-3.2603737665431534,0,422,1,0.019,0.356,0.295,1.4063036,0.5142567,2.4868758,3.1415455,2.9504097,-2.5486116,0.12527789,-0.0826835,0.59708285,0.8058274388313293,0.8058274388313293,link6
1762482042.895794,ddpg_train,FAR,train,4,123,-0.9816327037821468,0,423,1,0.051,-0.198,0.508,-1.5093129,-0.20276295,2.417823,3.144614,3.136941,-3.020652,0.12527789,-0.0826835,0.59708285,0.9750330448150635,0.9750330448150635,link6
1762482044.2755723,ddpg_train,FAR,train,4,124,-1.8694872837434857,0,424,1,0.234,0.151,0.422,0.48464197,0.122410305,2.4533343,3.1539292,3.1415718,-3.080787,0.12527789,-0.0826835,0.59708285,1.4164648056030273,1.4164648056030273,link6
1762482045.6864288,ddpg_train,FAR,train,4,125,-1.7394115490971953,0,425,1,0.342,-0.079,0.406,-0.3421746,0.25121665,2.3265724,3.1416245,3.1415925,-3.1415925,0.12527789,-0.0826835,0.59708285,0.6779441833496094,0.6779441833496094,link6
1762482047.0747726,ddpg_train,FAR,train,4,126,-2.955286853584676,0,426,1,0.314,0.308,0.364,0.714878,0.44004592,2.1606832,3.144419,3.1415746,-3.1415975,0.12527789,-0.0826835,0.59708285,1.0356700420379639,1.0356700420379639,link6
1762482048.4623978,ddpg_train,FAR,train,4,127,-2.995678585969298,0,427,1,0.349,0.276,0.332,0.49664456,0.49342638,2.1906312,3.1488745,3.1415536,-3.1416035,0.12527789,-0.0826835,0.59708285,0.7908119559288025,0.7908119559288025,link6
1762482049.8616302,ddpg_train,FAR,train,4,128,-2.068148666469281,0,428,1,0.439,-0.028,0.471,-0.13809739,0.26830617,2.0345604,3.1425905,3.1415894,-3.1415937,0.12527789,-0.0826835,0.59708285,0.5942531824111938,0.5942531824111938,link6
1762482051.2501402,ddpg_train,FAR,train,4,129,-3.0333203591817557,0,429,1,0.329,0.302,0.34,0.7357503,0.4972411,2.1766129,3.0151582,3.1415665,-3.1415997,0.12527789,-0.0826835,0.59708285,1.1499736309051514,1.1499736309051514,link6
1762482052.6301928,ddpg_train,FAR,train,4,130,-3.5856278778945017,0,430,1,0.131,0.426,0.287,1.151714,0.59685576,2.207527,2.9340158,3.1415536,-3.1410277,0.12527789,-0.0826835,0.59708285,0.6119102835655212,0.6119102835655212,link6
1762482054.0252938,ddpg_train,FAR,train,4,131,-1.6776761446127129,0,431,1,0.105,-0.361,0.58,-1.4612608,0.020904798,1.9813241,2.9649746,3.1415837,-3.0951898,0.12527789,-0.0826835,0.59708285,1.0047852993011475,1.0047852993011475,link6
1762482055.4179392,ddpg_train,FAR,train,4,132,-2.0436206222720834,0,432,1,0.426,-0.002,0.459,0.013701873,0.2800735,2.0910144,2.9146,3.1415854,-3.1102273,0.12527789,-0.0826835,0.59708285,1.4823951721191406,1.4823951721191406,link6
1762482056.802274,ddpg_train,FAR,train,4,133,-3.194641853552095,0,433,1,0.124,0.383,0.339,1.1612722,0.45307222,2.2812517,2.7980804,3.1415923,-3.1169431,0.12527789,-0.0826835,0.59708285,1.055360198020935,1.055360198020935,link6
1762482058.1861348,ddpg_train,FAR,train,4,134,-1.699941343686092,0,434,1,0.306,-0.042,0.383,-0.33345655,0.22882546,2.4546492,2.7524855,3.141567,-3.1348598,0.12527789,-0.0826835,0.59708285,0.8235379457473755,0.8235379457473755,link6
