QuanPM-doosan/DoosanRobot_Reinforcement_Learning/ros2_ws/rl_logs_back_up/20251111_023222_ddpg_demo.csv
ts,run_tag,mode,phase,ep,step,reward,done,mem_len,learn_flag,ee_x,ee_y,ee_z,j1,j2,j3,j4,j5,j6,sphere_x,sphere_y,sphere_z,dist_out,signed,closest_link
1762803147.0378907,ddpg_demo,FAR,demo,1,0,-8.470537601558899,0,0,0,0.196,0.083,1.346,0.19488816,-0.04892845,0.46130255,0.4905261,0.518071,-0.04287577,0.0,0.0,0.0,0.2832987308502197,0.2832987308502197,link6
1762803148.4123814,ddpg_demo,FAR,demo,1,1,-3.2756118690582436,0,0,0,-0.059,0.176,0.494,1.3896577,-0.30384958,2.528577,1.8265419,2.6926367,-1.4391421,0.0,0.0,0.0,0.38234105706214905,0.38234105706214905,link6
1762803149.7878594,ddpg_demo,FAR,demo,1,2,-4.423816336825747,0,0,0,0.189,0.123,0.482,0.023442606,-0.25016966,2.5884955,2.320882,2.3986373,-2.221512,0.0,0.0,0.0,0.14016349613666534,0.14016349613666534,link6
1762803151.1683483,ddpg_demo,FAR,demo,1,3,-4.070809893439055,0,0,0,0.193,-0.206,0.479,-1.0019914,-0.15540788,2.5874796,2.8710542,2.2139053,-2.791051,0.0,0.0,0.0,0.19175079464912415,0.19175079464912415,link6
1762803152.5754318,ddpg_demo,FAR,demo,1,4,-3.0212772984648133,0,0,0,-0.112,0.22,0.43,1.8938615,0.038907666,2.5321226,3.0798392,3.0514739,-2.361669,0.0,0.0,0.0,0.46816667914390564,0.46816667914390564,link6
1762803156.217483,ddpg_demo,FAR,demo,2,0,-8.315518564185805,0,0,0,0.189,0.081,1.352,0.22391699,-0.033710603,0.40516138,0.27070284,0.43103144,-0.2278813,0.0,0.0,0.0,0.3814588487148285,0.3814588487148285,link6
1762803157.6000319,ddpg_demo,FAR,demo,2,1,-3.2547830652351,0,0,0,-0.063,0.185,0.486,1.4706575,-0.24590434,2.531153,1.9766401,2.760589,-1.2436291,0.0,0.0,0.0,0.3800051212310791,0.3800051212310791,link6
1762803158.9839242,ddpg_demo,FAR,demo,2,2,-4.389349426944236,0,0,0,0.172,0.151,0.481,0.22149041,-0.23658977,2.5920165,2.3579865,2.4131513,-1.9582895,0.0,0.0,0.0,0.14327315986156464,0.14327315986156464,link6
1762803160.3733752,ddpg_demo,FAR,demo,2,3,-4.69876754089888,0,0,0,0.314,0.207,0.417,0.40066707,0.088832624,2.5135698,2.8595543,2.1059093,-2.7784142,0.0,0.0,0.0,0.13246417045593262,0.13246417045593262,link6
1762803161.761369,ddpg_demo,FAR,demo,2,4,-5.310154702109735,0,0,0,0.277,0.165,0.417,0.37741962,0.11068329,2.5387175,2.9850724,2.5623755,-2.8192484,0.0,0.0,0.0,0.08451308310031891,0.08451308310031891,link6
1762803165.4008687,ddpg_demo,FAR,demo,3,0,-8.415290259825737,0,0,0,0.099,0.051,1.384,0.14030905,-0.0195342,0.23070797,0.1761013,0.2420023,-0.12783742,0.0,0.0,0.0,0.40810254216194153,0.40810254216194153,link6
1762803166.7851744,ddpg_demo,FAR,demo,3,1,-3.3705051450041346,0,0,0,-0.028,0.195,0.496,1.3263735,-0.25081542,2.5387392,2.262131,2.7630687,-0.92302406,0.0,0.0,0.0,0.3391057550907135,0.3391057550907135,link6
1762803168.1719606,ddpg_demo,FAR,demo,3,2,-5.244588523137352,0,0,0,0.193,0.171,0.476,0.23758636,-0.2339685,2.5954118,2.4001915,2.1518304,-1.689075,0.0,0.0,0.0,0.09180651605129242,0.09180651605129242,link6
1762803169.6127303,ddpg_demo,MID,demo,3,3,-5.2217461132603855,0,0,0,0.352,0.175,0.411,0.25638953,0.05170223,2.5137985,2.777949,1.8563153,-2.7897763,0.0,0.0,0.0,0.10164502263069153,0.10164502263069153,link6
1762803171.0501652,ddpg_demo,MID,demo,3,4,-5.117743202169132,0,0,0,0.304,0.175,0.415,0.3348893,0.076201685,2.5502243,2.87485,2.212188,-2.7709305,0.0,0.0,0.0,0.09902386367321014,0.09902386367321014,link6
1762803174.6958272,ddpg_demo,FAR,demo,4,0,-3.387876990274924,0,0,0,-0.056,0.223,0.496,1.3924099,-0.21337897,2.5011623,1.9901669,2.628041,-1.6418136,0.0,0.0,0.0,0.3838062882423401,0.3838062882423401,link6
1762803176.073577,ddpg_demo,FAR,demo,4,1,-4.539024188342518,0,0,0,0.284,-0.04,0.473,-0.5550653,-0.13810039,2.558715,2.6032457,2.2242637,-2.5097625,0.0,0.0,0.0,0.1410530060529709,0.1410530060529709,link6
1762803177.4487545,ddpg_demo,FAR,demo,4,2,-3.3126229601289854,0,0,0,0.28,-0.057,0.454,-0.41000625,-0.06638178,2.5898273,2.904504,2.362165,-2.740149,0.0,0.0,0.0,0.39739087224006653,0.39739087224006653,link6
1762803178.8421342,ddpg_demo,FAR,demo,4,3,-3.173465146986007,0,0,0,-0.008,0.247,0.439,1.4326887,0.01607774,2.5176787,3.0599675,3.0315292,-2.6255758,0.0,0.0,0.0,0.3501325845718384,0.3501325845718384,link6
1762803180.2233343,ddpg_demo,FAR,demo,4,4,-4.73018770544583,0,0,0,0.397,0.013,0.362,-0.25835672,0.14079817,2.555229,2.8995364,1.7254997,-2.8794303,0.0,0.0,0.0,0.120020791888237,0.120020791888237,link6
1762803183.8833961,ddpg_demo,FAR,demo,5,0,-3.418240023324178,0,0,0,-0.075,0.205,0.515,1.643752,-0.21546628,2.4787514,2.5209544,2.8419416,-0.83447844,0.0,0.0,0.0,0.4388025403022766,0.4388025403022766,link6
1762803185.2732565,ddpg_demo,FAR,demo,5,1,-3.696781273902913,0,0,0,0.31,-0.041,0.469,-0.49731004,-0.22414741,2.5676692,2.4906375,1.7951552,-2.2559164,0.0,0.0,0.0,0.27656853199005127,0.27656853199005127,link6
1762803186.6509237,ddpg_demo,FAR,demo,5,2,-3.396278004255664,0,0,0,0.261,-0.196,0.437,-0.9700635,-0.19669908,2.6034002,2.5842218,1.6303544,-2.8982444,0.0,0.0,0.0,0.36998888850212097,0.36998888850212097,link6
1762803188.0353577,ddpg_demo,FAR,demo,5,3,-3.0441624817490642,0,0,0,-0.08,0.203,0.448,1.7744503,-0.05215224,2.5222108,3.1161778,3.1306937,-1.8026386,0.0,0.0,0.0,0.4522639214992523,0.4522639214992523,link6
1762803189.4236054,ddpg_demo,FAR,demo,5,4,-3.364338882367378,0,0,0,0.35,-0.004,0.425,-0.4111531,-0.0094942795,2.5620985,2.7524362,1.8836062,-2.515914,0.0,0.0,0.0,0.4408873915672302,0.4408873915672302,link6
1762803193.0752885,ddpg_demo,FAR,demo,6,0,-3.556010747049727,0,0,0,-0.099,0.21,0.536,1.7874508,-0.21178529,2.4398665,2.604532,2.9025223,-0.44600895,0.0,0.0,0.0,0.4579765498638153,0.4579765498638153,link6
1762803194.4647977,ddpg_demo,FAR,demo,6,1,-3.722540600009486,0,0,0,0.326,0.013,0.46,-0.32074907,-0.26250666,2.5695028,2.4861898,1.5478222,-2.0938544,0.0,0.0,0.0,0.26917481422424316,0.26917481422424316,link6
1762803195.8408058,ddpg_demo,FAR,demo,6,2,-3.5546011717652592,0,0,0,0.229,-0.253,0.402,-1.1346251,-0.26546052,2.6065881,2.4847288,1.1343257,-2.9574618,0.0,0.0,0.0,0.2549121081829071,0.2549121081829071,link6
1762803197.222891,ddpg_demo,FAR,demo,6,3,-3.05220816236404,0,0,0,-0.032,0.218,0.444,1.5379287,-0.04043436,2.528244,3.1205785,3.127557,-0.8562279,0.0,0.0,0.0,0.4157707393169403,0.4157707393169403,link6
1762803198.6052873,ddpg_demo,FAR,demo,6,4,-3.328301355486832,0,0,0,0.378,0.101,0.371,-0.018465266,-0.018806327,2.5674667,2.6679268,1.3675691,-1.8632401,0.0,0.0,0.0,0.3982868790626526,0.3982868790626526,link6
1762803202.261172,ddpg_demo,FAR,demo,7,0,-3.8844706221117367,0,0,0,0.001,0.266,0.571,1.3686312,-0.18927777,2.3500633,2.6849735,2.8498135,0.35912755,0.0,0.0,0.0,0.3863648474216461,0.3863648474216461,link6
1762803203.6405838,ddpg_demo,FAR,demo,7,1,-3.35179888151263,0,0,0,0.31,0.164,0.347,0.21153492,-0.269994,2.575695,2.265979,0.49988115,-1.5619615,0.0,0.0,0.0,0.25468671321868896,0.25468671321868896,link6
1762803205.0172882,ddpg_demo,FAR,demo,7,2,-3.4985457616342206,0,0,0,0.145,-0.203,0.324,-0.67793924,-0.31806785,2.604388,1.9404793,-0.88718843,-3.0453703,0.0,0.0,0.0,0.15653572976589203,0.15653572976589203,link6
1762803206.3945985,ddpg_demo,FAR,demo,7,3,-3.6385273399445914,0,0,0,0.17,-0.132,0.451,-0.8443506,-0.06737101,2.5357265,3.116424,3.0956416,0.5826302,0.0,0.0,0.0,0.20554472506046295,0.20554472506046295,link6
1762803207.772477,ddpg_demo,FAR,demo,7,4,-2.531236180001586,0,0,0,0.216,0.316,0.175,0.91172576,0.2016761,2.5705385,2.5715616,0.23620522,-0.8658752,0.0,0.0,0.0,0.6729210615158081,0.6729210615158081,link6
1762803211.4141014,ddpg_demo,FAR,demo,8,0,-4.341522773546568,0,0,0,0.376,0.105,0.526,-0.05344743,-0.005744521,2.2983563,2.0923598,2.349018,-1.3535724,0.0,0.0,0.0,0.24979077279567719,0.24979077279567719,link6
1762803212.8064911,ddpg_demo,FAR,demo,8,1,-3.17684341510864,0,0,0,0.192,0.276,0.409,0.6635228,0.045800164,2.572499,2.516741,2.1584063,-2.2263715,0.0,0.0,0.0,1.0617129802703857,1.0617129802703857,link6
1762803214.1832733,ddpg_demo,FAR,demo,8,2,-3.2395698595776725,0,0,0,0.104,0.369,0.38,1.0783616,0.05201617,2.5714245,2.774879,1.7336968,-2.9857318,0.0,0.0,0.0,0.8729167580604553,0.8729167580604553,link6
1762803215.5675395,ddpg_demo,FAR,demo,8,3,-3.441529067397384,0,0,0,-0.093,-0.356,0.44,-1.9807383,-0.07142625,2.5365365,3.055164,1.743334,-3.131417,0.0,0.0,0.0,1.0858246088027954,1.0858246088027954,link6
1762803216.945852,ddpg_demo,FAR,demo,8,4,-3.1982478584114675,0,0,0,0.295,-0.098,0.433,-0.37543455,0.019182872,2.5801558,3.1007516,2.363203,-2.887757,0.0,0.0,0.0,1.0986593961715698,1.0986593961715698,link6
1762803220.580078,ddpg_demo,FAR,demo,9,0,-4.447877577193253,0,0,0,0.408,-0.039,0.616,-0.45535436,-0.23982012,2.2330203,2.2511058,1.5414505,-2.7560787,0.0,0.0,0.0,0.6374516487121582,0.6374516487121582,link6
1762803221.9651842,ddpg_demo,FAR,demo,9,1,-3.2961823003903516,0,0,0,0.233,-0.064,0.493,-0.5623193,-0.22955304,2.5919638,2.8162115,2.4039755,-3.08192,0.0,0.0,0.0,0.7823057770729065,0.7823057770729065,link6
1762803223.3430412,ddpg_demo,FAR,demo,9,2,-3.021736491286639,0,0,0,0.221,-0.029,0.451,-0.3065794,-0.05253906,2.5136364,3.0999577,3.1158805,-3.1107779,0.0,0.0,0.0,0.7324734926223755,0.7324734926223755,link6
1762803224.721662,ddpg_demo,FAR,demo,9,3,-2.965739911838134,0,0,0,0.254,-0.005,0.423,-0.1717121,0.06895478,2.5365913,3.0769072,3.0154812,-3.1253643,0.0,0.0,0.0,0.6872551441192627,0.6872551441192627,link6
1762803226.1014037,ddpg_demo,FAR,demo,9,4,-2.887779182265864,0,0,0,0.263,0.007,0.402,-0.12693967,0.1342057,2.565048,3.0755596,2.98632,-3.1284134,0.0,0.0,0.0,0.6879578232765198,0.6879578232765198,link6
