QuanPM-doosan/DoosanRobot_Reinforcement_Learning/ros2_ws/rl_logs/20251118_120556_d4pg_train.csv
ts,run_tag,mode,phase,ep,step,reward,done,mem_len,learn_flag,ee_x,ee_y,ee_z,j1,j2,j3,j4,j5,j6,sphere_x,sphere_y,sphere_z,dist_out,signed,closest_link
1763442361.2537014,d4pg_train,FAR,train,1,0,-8.314059828092985,0,1,0,0.17,0.022,1.344,-0.11346257,-0.13088089,0.5190858,-0.44667923,-0.025481738,-0.9869519,0.0,0.0,0.0,0.3298270106315613,0.3298270106315613,link6
1763442362.6388667,d4pg_train,FAR,train,1,1,-8.441323942242684,0,2,0,0.25,-0.059,1.312,-0.4581408,-0.09387761,0.55203784,0.57010245,0.25263685,0.7350877,0.0,0.0,0.0,0.24772445857524872,0.24772445857524872,link6
1763442364.0141423,d4pg_train,FAR,train,1,2,-8.301219958913876,0,3,0,0.261,-0.022,1.331,-0.30219224,-0.018642137,0.39965266,0.49125925,0.30652097,0.40212688,0.0,0.0,0.0,0.3429245948791504,0.3429245948791504,link6
1763442365.3930526,d4pg_train,FAR,train,1,3,-8.40850851682554,0,4,0,0.016,0.057,1.394,0.5054497,0.049361102,-0.016092243,-0.31271544,-0.101979144,-0.19337226,0.0,0.0,0.0,0.49071168899536133,0.49071168899536133,link6
1763442366.7714627,d4pg_train,FAR,train,1,4,-10.001562649161055,0,5,0,0.349,-0.043,1.296,-0.26239425,0.030361447,0.4761662,-0.03393241,0.34254113,-0.48240957,0.0,0.0,0.0,0.09444750845432281,0.09444750845432281,link6
1763442368.2080522,d4pg_train,MID,train,1,5,-9.817543603844191,0,6,0,0.497,-0.21,1.159,-0.4620976,0.1055953,0.6785192,0.20713343,0.38875094,-0.51611066,0.0,0.0,0.0,0.08453907072544098,0.08453907072544098,link6
1763442369.6439319,d4pg_train,MID,train,1,6,-8.546541260001055,0,7,0,0.238,0.025,1.368,-0.15388131,0.13541523,0.058912255,0.8469971,0.2371785,-0.4303591,0.0,0.0,0.0,0.3151695132255554,0.3151695132255554,link6
1763442371.0186102,d4pg_train,FAR,train,1,7,-8.538422087953773,0,8,0,0.286,-0.009,1.317,-0.34948102,0.11700847,0.09943672,0.50361174,0.8962864,-0.49822316,0.0,0.0,0.0,0.24033679068088531,0.24033679068088531,link6
1763442372.4033165,d4pg_train,FAR,train,1,8,-11.600017014490643,0,9,0,0.477,-0.089,1.172,-0.22173503,0.106208585,0.522859,-0.2107828,0.9289962,0.773986,0.0,0.0,0.0,0.022585853934288025,0.022585853934288025,link6
1763442373.8992589,d4pg_train,NEAR,train,1,9,-8.293201260415486,0,10,0,0.261,0.011,1.346,-0.09418887,0.06011165,0.20093279,-0.0171648,0.34837013,0.2543026,0.0,0.0,0.0,0.4319876432418823,0.4319876432418823,link6
1763442375.2735424,d4pg_train,FAR,train,1,10,-8.96180986849011,0,11,0,0.123,0.045,1.385,0.032162346,0.04711819,0.08420188,0.14975671,0.24870867,0.015615084,0.0,0.0,0.0,0.2096000462770462,0.2096000462770462,link6
1763442376.6522179,d4pg_train,FAR,train,1,11,-9.442659146306037,0,12,0,0.373,0.012,1.301,-0.048474677,0.07730844,0.44391716,-0.65636116,0.12595628,0.13151154,0.0,0.0,0.0,0.13304020464420319,0.13304020464420319,link6
1763442378.0292535,d4pg_train,FAR,train,1,12,-10.00375359936845,0,13,0,0.467,0.031,1.269,-0.011064836,0.17563385,0.41563717,-0.20405625,0.11403589,0.16435033,0.0,0.0,0.0,0.09737025201320648,0.09737025201320648,link6
1763442379.4638736,d4pg_train,MID,train,1,13,-8.484231485905635,0,14,0,0.49,0.019,1.265,-0.07718555,0.22724372,0.3484551,0.18940614,0.19934599,0.24676853,0.0,0.0,0.0,0.2676788568496704,0.2676788568496704,link6
1763442380.8454123,d4pg_train,FAR,train,1,14,-8.470788925159182,0,15,0,0.267,0.031,1.34,-0.083566666,0.034450706,0.2995139,0.3383753,0.33477685,0.1723429,0.0,0.0,0.0,0.2916439175605774,0.2916439175605774,link6
1763442382.2224786,d4pg_train,FAR,train,1,15,-8.380465952432179,0,16,0,0.231,0.116,1.344,0.2908093,0.08787977,0.13727446,0.1538094,0.55974936,-0.171097,0.0,0.0,0.0,0.33892184495925903,0.33892184495925903,link6
1763442383.5997565,d4pg_train,FAR,train,1,16,-11.55552470605392,0,17,0,0.489,-0.236,1.057,-0.55416036,0.15436167,0.5954071,0.14312716,1.4171776,0.056910142,0.0,0.0,0.0,0.012200906872749329,0.012200906872749329,link6
1763442385.110298,d4pg_train,NEAR,train,1,17,-8.085281075421484,0,18,0,0.333,-0.037,1.296,-0.23828824,0.069363795,0.27649894,0.09614835,0.67622113,-0.030178452,0.0,0.0,0.0,0.4535136818885803,0.4535136818885803,link6
1763442386.4930918,d4pg_train,FAR,train,1,18,-11.035758545180144,0,19,0,0.091,0.039,1.39,-0.034857336,0.036291942,0.0731148,0.1722497,0.112742335,0.025620764,0.0,0.0,0.0,0.06256268918514252,0.06256268918514252,link6
1763442387.939674,d4pg_train,MID,train,1,19,-8.47675328087684,0,20,0,0.248,0.017,1.365,-0.08390435,0.10582519,0.14574945,0.13761279,0.034817785,-0.268004,0.0,0.0,0.0,0.3492969274520874,0.3492969274520874,link6
1763442389.324225,d4pg_train,FAR,train,1,20,-8.540917757897365,0,21,0,0.211,0.001,1.366,-0.17858124,0.034485802,0.2781267,0.11133748,-0.07044439,-0.39642447,0.0,0.0,0.0,0.3004913330078125,0.3004913330078125,link6
1763442390.7112792,d4pg_train,FAR,train,1,21,-9.340395968443257,0,22,0,0.375,-0.286,1.229,-0.7128115,0.08664692,0.6833969,0.34727153,-0.24439552,-0.5450012,0.0,0.0,0.0,0.12433354556560516,0.12433354556560516,link6
1763442392.0877821,d4pg_train,FAR,train,1,22,-9.125016677655506,0,23,0,0.465,-0.173,1.197,-0.36898685,0.088412225,0.6104216,-0.55337447,0.48930186,-0.1781835,0.0,0.0,0.0,0.13089419901371002,0.13089419901371002,link6
1763442393.4679356,d4pg_train,FAR,train,1,23,-8.16392595268609,0,24,0,0.464,-0.085,1.217,-0.16288516,0.10867469,0.52001715,-0.62708414,0.5333114,0.07162412,0.0,0.0,0.0,0.27103090286254883,0.27103090286254883,link6
1763442394.8506136,d4pg_train,FAR,train,1,24,-8.407316452362451,0,25,0,0.046,0.045,1.393,0.048897225,0.06954209,-0.08342687,0.3290984,0.101470426,0.16955625,0.0,0.0,0.0,0.48182880878448486,0.48182880878448486,link6
1763442396.241268,d4pg_train,FAR,train,1,25,-11.426927981334869,0,26,0,0.418,-0.147,1.252,-0.40855733,0.09629278,0.4897269,-0.17448485,0.3927315,-0.44480118,0.0,0.0,0.0,0.036864444613456726,0.036864444613456726,link6
1763442397.741891,d4pg_train,NEAR,train,1,26,-7.684991562923563,0,27,0,0.5,-0.276,1.14,-0.50640297,0.12450325,0.643963,-0.3245488,0.39563423,-0.5579188,0.0,0.0,0.0,0.4972291588783264,0.4972291588783264,link6
1763442399.1168714,d4pg_train,FAR,train,1,27,-8.374130085592025,0,28,0,0.112,0.12,1.37,0.44906846,0.008437426,0.1650722,0.47902954,0.36583352,-0.3395318,0.0,0.0,0.0,0.3959755599498749,0.3959755599498749,link6
1763442400.4924755,d4pg_train,FAR,train,1,28,-8.398440261151936,0,29,0,0.16,0.124,1.368,0.37022558,0.11019307,0.020988323,0.34692192,0.44494694,-0.554084,0.0,0.0,0.0,0.3901407718658447,0.3901407718658447,link6
1763442401.8672915,d4pg_train,FAR,train,1,29,-8.478127560572675,0,30,0,0.169,0.032,1.372,-0.21989352,0.08187998,0.17373991,-0.55243355,-0.4764863,-0.3353992,0.0,0.0,0.0,0.3314893841743469,0.3314893841743469,link6
1763442403.2454622,d4pg_train,FAR,train,1,30,-8.213402368864495,0,31,0,-0.155,0.089,1.357,-0.13200293,0.0016239028,-0.17863593,-0.46085745,-0.5429667,-0.2787597,0.0,0.0,0.0,0.8439179062843323,0.8439179062843323,link6
1763442404.6200511,d4pg_train,FAR,train,1,31,-8.644446269566535,0,32,0,-0.259,0.113,1.34,-0.25392798,-0.047175527,-0.30813697,-0.23223999,-0.220444,-0.06101019,0.0,0.0,0.0,0.24589534103870392,0.24589534103870392,link6
1763442405.9936612,d4pg_train,FAR,train,1,32,-10.305475406050693,0,33,0,0.446,-0.017,1.147,-0.12624532,-0.022061646,0.72347873,0.08270597,0.9382952,0.4840375,0.0,0.0,0.0,0.053757742047309875,0.053757742047309875,link6
1763442407.497739,d4pg_train,NEAR,train,1,33,-8.20015679994268,0,34,0,0.307,-0.028,1.314,-0.20295776,0.021101438,0.38624334,-0.09249283,0.40820238,0.13903888,0.0,0.0,0.0,0.3891313076019287,0.3891313076019287,link6
1763442408.8738606,d4pg_train,FAR,train,1,34,-8.577534427364203,0,35,0,0.24,0.039,1.346,0.21111947,0.116144635,0.24902761,0.838361,-0.5933056,0.3314302,0.0,0.0,0.0,0.2601471543312073,0.2601471543312073,link6
1763442410.2487063,d4pg_train,FAR,train,1,35,-8.637092321440463,0,36,0,0.28,0.002,1.346,-0.041732755,0.0958877,0.29897085,0.8384026,-0.30939868,-0.4255304,0.0,0.0,0.0,0.2555687427520752,0.2555687427520752,link6
1763442411.6289077,d4pg_train,FAR,train,1,36,-10.186858377597174,0,37,0,0.385,-0.099,1.301,-0.344497,0.13004015,0.4249538,0.6587441,-0.094615236,-0.37053558,0.0,0.0,0.0,0.09040690958499908,0.09040690958499908,link6
1763442413.0643685,d4pg_train,MID,train,1,37,-8.907768625906876,0,38,0,0.307,0.059,1.343,0.10619839,0.13642861,0.19262525,-0.39073873,0.22317688,0.0094440505,0.0,0.0,0.0,0.20646102726459503,0.20646102726459503,link6
1763442414.4458752,d4pg_train,FAR,train,1,38,-8.443419503214136,0,39,0,0.29,-0.047,1.355,-0.35382172,0.1516952,0.13141699,0.4110904,0.07666813,-0.18025136,0.0,0.0,0.0,0.36926954984664917,0.36926954984664917,link6
1763442415.8222694,d4pg_train,FAR,train,1,39,-8.863110884897326,0,40,0,0.169,-0.065,1.379,-0.5688301,0.079504125,0.1357822,0.8099428,-0.025736189,-0.36624685,0.0,0.0,0.0,0.226704403758049,0.226704403758049,link6
1763442417.2044024,d4pg_train,FAR,train,1,40,-10.641875267192496,0,41,0,0.44,0.07,1.228,0.071448445,0.023508573,0.71510947,0.3231242,-0.0053939978,-0.10993664,0.0,0.0,0.0,0.05784167721867561,0.05784167721867561,link6
1763442418.7016983,d4pg_train,NEAR,train,1,41,-8.369902404138852,0,42,0,0.33,0.055,1.31,0.029339734,0.028613113,0.45837346,0.3177142,0.15972117,-0.100430615,0.0,0.0,0.0,0.29656535387039185,0.29656535387039185,link6
1763442420.0912268,d4pg_train,FAR,train,1,42,-8.242585330173451,0,43,0,0.152,0.224,1.328,0.95998025,0.06348375,0.2221481,-0.49047056,0.6230443,1.2667193,0.0,0.0,0.0,0.3810116648674011,0.3810116648674011,link6
1763442421.4688683,d4pg_train,FAR,train,1,43,-8.38269462797838,0,44,0,0.222,0.13,1.341,0.32844093,0.09841847,0.09581349,0.066028155,0.6153687,0.6668272,0.0,0.0,0.0,0.32703280448913574,0.32703280448913574,link6
1763442422.8562963,d4pg_train,FAR,train,1,44,-8.672427048933779,0,45,0,0.229,0.101,1.345,0.16191153,0.12950939,0.047487225,0.38043314,0.65613127,0.35633674,0.0,0.0,0.0,0.23775367438793182,0.23775367438793182,link6
1763442424.2327807,d4pg_train,FAR,train,1,45,-62.807537896161634,1,46,0,0.53,0.032,1.188,-0.037816245,0.10362799,0.7041364,0.39509013,0.092139885,0.13953933,0.0,0.0,0.0,0.0,-0.02682967483997345,link6
1763442427.8644552,d4pg_train,FAR,train,2,0,-8.814726065887434,0,47,0,0.224,0.07,1.359,0.15141736,0.043152742,0.34382504,-0.047327295,-0.054673385,-0.17702325,0.0,0.0,0.0,0.2225552499294281,0.2225552499294281,link6
1763442429.2575972,d4pg_train,FAR,train,2,1,-12.047484517192121,0,48,0,0.578,0.083,1.024,0.15366836,0.0694585,0.91478,-0.5537921,0.7889318,-0.090340495,0.0,0.0,0.0,0.0005065500736236572,0.0005065500736236572,link6
1763442430.7538874,d4pg_train,NEAR,train,2,2,-8.064918370473029,0,49,0,0.379,0.043,1.276,0.04576645,0.044854194,0.45913997,-0.2793477,0.4096084,-0.03953148,0.0,0.0,0.0,0.42107629776000977,0.42107629776000977,link6
1763442432.1320252,d4pg_train,FAR,train,2,3,-8.889238291133921,0,50,0,0.11,0.031,1.388,-0.069083884,0.034431335,0.08155551,-0.08763983,0.11230179,-0.027714018,0.0,0.0,0.0,0.22385664284229279,0.22385664284229279,link6
1763442433.5140803,d4pg_train,FAR,train,2,4,-8.349568351595071,0,51,0,0.142,0.004,1.373,-0.44871426,0.062084228,-0.024852226,0.43639952,0.54102516,-0.31768733,0.0,0.0,0.0,0.43036961555480957,0.43036961555480957,link6
1763442434.8915968,d4pg_train,FAR,train,2,5,-8.678100953127489,0,52,0,0.12,0.032,1.381,-0.23581268,0.03778658,0.052259225,0.5085804,0.35957456,-0.12467017,0.0,0.0,0.0,0.2634811997413635,0.2634811997413635,link6
1763442436.274676,d4pg_train,FAR,train,2,6,-8.217041383192747,0,53,0,0.106,0.107,1.346,0.47847188,-0.15537816,0.49882123,0.621978,0.1131485,-0.28114423,0.0,0.0,0.0,0.4010322391986847,0.4010322391986847,link6
1763442437.6505299,d4pg_train,FAR,train,2,7,-9.60988695227496,0,54,0,0.295,0.118,1.319,0.23312406,0.060114585,0.34741816,0.013920875,0.36397335,-0.1446817,0.0,0.0,0.0,0.12245015054941177,0.12245015054941177,link6
1763442439.029726,d4pg_train,FAR,train,2,8,-8.470818538811107,0,55,0,0.441,0.061,1.289,0.05376712,0.21320887,0.2723288,-0.33139372,0.2003406,-0.109490216,0.0,0.0,0.0,0.28524327278137207,0.28524327278137207,link6
1763442440.407032,d4pg_train,FAR,train,2,9,-8.348570196551446,0,56,0,-0.105,0.074,1.384,-0.23672837,-0.021245532,-0.18660146,0.51846194,0.148122,0.09320679,0.0,0.0,0.0,0.6333522796630859,0.6333522796630859,link6
1763442441.7819345,d4pg_train,FAR,train,2,10,-11.50798195701711,0,57,0,0.305,0.04,1.335,0.012069968,0.069243774,0.3833485,0.9759693,-0.012220804,0.33405584,0.0,0.0,0.0,0.04191306233406067,0.04191306233406067,link6
1763442443.2803357,d4pg_train,NEAR,train,2,11,-8.190742259294511,0,58,0,0.428,0.053,1.28,0.043372195,0.12546101,0.47933888,0.7688572,-0.052368127,0.22451691,0.0,0.0,0.0,0.405662477016449,0.405662477016449,link6
1763442444.662967,d4pg_train,FAR,train,2,12,-7.7955719945139945,0,59,0,0.463,0.293,1.149,0.5134472,0.11131285,0.7201178,0.11380533,0.5102294,-0.2909393,0.0,0.0,0.0,0.34556668996810913,0.34556668996810913,link6
1763442446.037316,d4pg_train,FAR,train,2,13,-7.734883535189005,0,60,0,0.514,0.403,1.055,0.5644025,0.18853228,0.77769876,0.45456123,0.50800055,-0.13878882,0.0,0.0,0.0,0.28474023938179016,0.28474023938179016,link6
1763442447.4148805,d4pg_train,FAR,train,2,14,-9.157991924130178,0,61,0,0.32,0.021,1.352,-0.056330957,0.25851846,0.019280469,-0.34446213,-0.003678665,-0.020714078,0.0,0.0,0.0,0.180677130818367,0.180677130818367,link6
1763442448.799074,d4pg_train,FAR,train,2,15,-62.425210300052115,1,62,0,0.702,-0.092,1.015,-0.1791371,0.2408127,0.84532464,-0.23087674,0.440993,0.1896074,0.0,0.0,0.0,0.0,-0.13144423067569733,link6
1763442452.4370992,d4pg_train,FAR,train,3,0,-8.10148152103135,0,63,0,-0.15,0.088,1.339,0.12798166,-0.0091689015,-0.10165456,-0.7855919,-0.8810825,0.431691,0.0,0.0,0.0,1.4069620370864868,1.4069620370864868,link6
1763442453.8209846,d4pg_train,FAR,train,3,1,-7.574700071764586,0,64,0,0.445,0.099,1.176,0.13194774,-0.04146503,0.8598068,0.044534203,0.26653907,-0.056865875,0.0,0.0,0.0,0.655990481376648,0.655990481376648,link6
1763442455.2135565,d4pg_train,FAR,train,3,2,-7.513203048444745,0,65,1,0.486,0.049,1.153,0.02898307,-0.0055625346,0.7805492,-0.18462262,0.40882406,-0.1346031,0.0,0.0,0.0,1.67367422580719,1.67367422580719,link6
1763442456.5984633,d4pg_train,FAR,train,3,3,-7.806994200675081,0,66,1,0.384,-0.085,1.24,-0.3647119,0.020355534,0.8168612,-0.19621225,-0.6805585,-0.39755756,0.0,0.0,0.0,0.7967841625213623,0.7967841625213623,link6
1763442457.9942222,d4pg_train,FAR,train,3,4,-8.319815869415407,0,67,1,0.243,0.022,1.365,-0.04678778,0.1047326,0.10416804,-0.15926598,-0.065321974,-0.14229544,0.0,0.0,0.0,1.4363433122634888,1.4363433122634888,link6
1763442459.3769984,d4pg_train,FAR,train,3,5,-8.131460439529347,0,68,1,-0.209,-0.009,1.339,0.2032535,0.045941062,-0.5118466,-0.1093641,0.45947522,0.1746115,0.0,0.0,0.0,1.4104937314987183,1.4104937314987183,link6
1763442460.7696915,d4pg_train,FAR,train,3,6,-8.264320324864583,0,69,1,0.238,0.066,1.355,0.13108581,0.06388991,0.35459834,0.46141064,-0.22295785,-0.53700346,0.0,0.0,0.0,0.9515546560287476,0.9515546560287476,link6
1763442462.159932,d4pg_train,FAR,train,3,7,-7.910277657263798,0,70,1,0.529,0.061,1.204,0.036639318,0.14295618,0.66808534,0.093190186,-0.0005426495,-0.47670534,0.0,0.0,0.0,0.6095532178878784,0.6095532178878784,link6
1763442463.5448678,d4pg_train,FAR,train,3,8,-7.64775693228327,0,71,1,0.393,-0.158,1.202,-0.49420756,-0.03781432,0.9056318,-0.13742875,-0.47042122,-0.021733703,0.0,0.0,0.0,0.8448982238769531,0.8448982238769531,link6
1763442464.9262443,d4pg_train,FAR,train,3,9,-8.113145077765644,0,72,1,0.271,-0.068,1.323,-0.3628978,-0.02569865,0.5093306,0.2439635,-0.16870452,-0.50401276,0.0,0.0,0.0,1.1366705894470215,1.1366705894470215,link6
1763442466.3117483,d4pg_train,FAR,train,3,10,-8.286798778563487,0,73,1,0.148,-0.022,1.373,-0.39939037,-0.033271383,0.31162757,0.16200167,-0.1190907,-0.41564283,0.0,0.0,0.0,1.2187761068344116,1.2187761068344116,link6
1763442467.6955645,d4pg_train,FAR,train,3,11,-6.716826346859287,0,74,1,0.624,-0.08,0.921,-0.18304908,0.019103045,1.3292137,-0.09296127,-0.079981185,0.32161808,0.0,0.0,0.0,0.5310562252998352,0.5310562252998352,link6
1763442469.0736942,d4pg_train,FAR,train,3,12,-7.833942525103878,0,75,1,0.391,-0.242,1.222,-0.6782529,0.056655128,0.69439965,-0.013164977,-0.47637603,0.30321917,0.0,0.0,0.0,1.215678334236145,1.215678334236145,link6
1763442470.4528766,d4pg_train,FAR,train,3,13,-8.295913057342915,0,76,1,0.041,0.011,1.382,-0.84919965,0.0017965544,0.122749925,0.019523561,-0.50895983,-0.08746872,0.0,0.0,0.0,1.4610718488693237,1.4610718488693237,link6
1763442471.8345618,d4pg_train,FAR,train,3,14,-7.776830771233157,0,77,1,0.448,-0.307,1.176,-0.6517354,0.13372375,0.8126246,0.43153083,-0.3116298,0.020052772,0.0,0.0,0.0,0.6961821913719177,0.6961821913719177,link6
1763442473.2298005,d4pg_train,FAR,train,3,15,-7.695168523266435,0,78,1,0.527,-0.087,1.166,-0.16869782,0.08717502,0.8040267,0.60097873,-0.34489286,0.23152147,0.0,0.0,0.0,1.1384916305541992,1.1384916305541992,link6
1763442474.6139402,d4pg_train,FAR,train,3,16,-8.06324188372251,0,79,1,0.2,0.058,1.327,0.17297229,-0.1050779,0.60278976,0.6887114,-0.25882998,0.2324167,0.0,0.0,0.0,0.7181286811828613,0.7181286811828613,link6
1763442475.9937093,d4pg_train,FAR,train,3,17,-7.676556134641213,0,80,1,0.365,-0.319,1.184,-0.7586404,0.019813213,0.84931684,0.33881173,-0.49393398,0.5255202,0.0,0.0,0.0,1.0084694623947144,1.0084694623947144,link6
1763442477.3854215,d4pg_train,FAR,train,3,18,-7.639751488062255,0,81,1,0.384,-0.222,1.193,-0.5101205,0.020585416,0.88288045,0.36118352,-0.62271905,0.34214842,0.0,0.0,0.0,0.7410553693771362,0.7410553693771362,link6
1763442478.7705452,d4pg_train,FAR,train,3,19,-8.274687796385926,0,82,1,0.113,0.036,1.374,-0.10262288,-0.061811175,0.32969528,-0.24688075,-0.27070394,-0.4447973,0.0,0.0,0.0,1.1864604949951172,1.1864604949951172,link6
1763442480.1694098,d4pg_train,FAR,train,3,20,-8.216656095738507,0,83,1,0.259,-0.085,1.342,-0.4607039,0.026579114,0.38644156,-0.00781415,-0.019482832,-0.012798592,0.0,0.0,0.0,1.0003466606140137,1.0003466606140137,link6
1763442481.5567014,d4pg_train,FAR,train,3,21,-8.103626853721943,0,84,1,0.35,-0.139,1.297,-0.471709,0.06190877,0.49378225,0.21579611,0.019262055,0.2865025,0.0,0.0,0.0,0.9997503757476807,0.9997503757476807,link6
1763442482.940105,d4pg_train,FAR,train,3,22,-8.173644014470453,0,85,1,0.216,0.008,1.345,-0.12244305,-0.051685248,0.46392903,0.29462287,-0.14535698,0.2099359,0.0,0.0,0.0,1.081870436668396,1.081870436668396,link6
1763442484.3335881,d4pg_train,FAR,train,3,23,-8.011067602331229,0,86,1,0.27,-0.038,1.307,-0.25667876,-0.072403796,0.6418725,0.2088645,-0.30367106,0.064772114,0.0,0.0,0.0,0.9941485524177551,0.9941485524177551,link6
1763442485.717501,d4pg_train,FAR,train,3,24,-7.781047529728457,0,87,1,0.337,-0.054,1.251,-0.25732046,-0.0892299,0.83365756,-0.013051433,-0.38418546,0.05879555,0.0,0.0,0.0,0.884565532207489,0.884565532207489,link6
1763442487.100203,d4pg_train,FAR,train,3,25,-7.640381962839006,0,88,1,0.387,-0.156,1.203,-0.46700358,-0.03160074,0.6851937,-0.11289791,0.58521944,0.4063547,0.0,0.0,0.0,0.914788007736206,0.914788007736206,link6
1763442488.486308,d4pg_train,FAR,train,3,26,-7.614298576545662,0,89,1,0.372,-0.282,1.18,-0.7672419,-0.0132238325,0.79325145,0.25906858,0.3123339,0.42723206,0.0,0.0,0.0,0.9375514388084412,0.9375514388084412,link6
1763442489.8760989,d4pg_train,FAR,train,3,27,-6.6904281662055,0,90,1,0.655,-0.127,0.887,-0.24687691,0.072594315,1.2725822,-0.061811224,0.08309673,0.73837256,0.0,0.0,0.0,0.5086224675178528,0.5086224675178528,link6
1763442491.2591474,d4pg_train,FAR,train,3,28,-7.70203992203567,0,91,1,0.362,-0.213,1.213,-0.5308233,0.0022999567,0.8332859,0.59536684,-0.6090538,-0.0003510923,0.0,0.0,0.0,1.1015199422836304,1.1015199422836304,link6
1763442492.6507764,d4pg_train,FAR,train,3,29,-7.802989577237811,0,92,1,0.218,-0.168,1.271,-0.56690836,-0.08679338,0.7466024,0.8020554,-0.7460957,0.033601213,0.0,0.0,0.0,0.9918749332427979,0.9918749332427979,link6
1763442494.034323,d4pg_train,FAR,train,3,30,-7.938558141893915,0,93,1,0.126,-0.192,1.303,-1.0921091,-0.14384948,0.70856565,0.4200054,-0.33000556,0.086053275,0.0,0.0,0.0,1.1342484951019287,1.1342484951019287,link6
1763442495.4237442,d4pg_train,FAR,train,3,31,-7.11473060804455,0,94,1,0.37,-0.41,1.048,-0.89019245,-0.020536061,1.157975,0.5075323,0.04753819,-0.013083161,0.0,0.0,0.0,0.6562374830245972,0.6562374830245972,link6
1763442496.830646,d4pg_train,FAR,train,3,32,-6.311994938730522,0,95,1,0.59,-0.377,0.785,-0.62749225,0.108520605,1.3635299,0.28840774,0.21590735,0.13707782,0.0,0.0,0.0,0.8862636089324951,0.8862636089324951,link6
1763442498.2280507,d4pg_train,FAR,train,3,33,-7.460951467837291,0,96,1,0.338,-0.26,1.168,-0.7689854,-0.11159489,0.9679133,0.91973996,0.02385488,0.040711273,0.0,0.0,0.0,0.9225452542304993,0.9225452542304993,link6
1763442499.612792,d4pg_train,FAR,train,3,34,-7.60403395417641,0,97,1,0.296,-0.228,1.211,-0.64366204,-0.112525426,0.88398546,0.9824293,-0.38978004,0.009040798,0.0,0.0,0.0,1.1262922286987305,1.1262922286987305,link6
1763442501.008591,d4pg_train,FAR,train,3,35,-8.270376578266804,0,98,1,0.165,-0.036,1.368,-0.44349664,-0.031577095,0.3230642,0.4827398,-0.013596187,0.3298501,0.0,0.0,0.0,1.1219786405563354,1.1219786405563354,link6
1763442502.4079933,d4pg_train,FAR,train,3,36,-7.9525777666365975,0,99,1,0.077,-0.056,1.322,-0.20513679,-0.14370976,0.5257777,0.92978495,-0.963117,-0.2611338,0.0,0.0,0.0,1.1920347213745117,1.1920347213745117,link6
1763442503.7959342,d4pg_train,FAR,train,3,37,-7.784276761155992,0,100,1,0.062,-0.07,1.294,-0.04678804,-0.1443339,0.48140195,1.1918305,-1.1774886,-0.04191898,0.0,0.0,0.0,1.198668122291565,1.198668122291565,link6
1763442505.1785038,d4pg_train,FAR,train,3,38,-7.158000426860603,0,101,1,0.229,-0.331,1.123,-0.9204371,-0.12928203,1.1573313,0.7451921,-0.8363716,-0.6704494,0.0,0.0,0.0,0.9730664491653442,0.9730664491653442,link6
1763442506.574752,d4pg_train,FAR,train,3,39,-6.66462773287035,0,102,1,0.281,-0.338,1.02,-0.8320236,-0.17926626,1.4059845,0.6043704,-0.8766548,-0.35444984,0.0,0.0,0.0,0.9094502925872803,0.9094502925872803,link6
1763442507.953675,d4pg_train,FAR,train,3,40,-6.704870398456438,0,103,1,0.264,-0.302,1.043,-0.79562545,-0.19844468,1.3557279,0.70134413,-0.9546256,-0.036410403,0.0,0.0,0.0,1.224308967590332,1.224308967590332,link6
1763442509.3394098,d4pg_train,FAR,train,3,41,-8.121354939064624,0,104,1,0.229,-0.008,1.334,-0.10812338,-0.06710057,0.4948928,1.6650169,-0.120090745,0.19394253,0.0,0.0,0.0,1.0511815547943115,1.0511815547943115,link6
1763442510.725623,d4pg_train,FAR,train,3,42,-7.719607164070745,0,105,1,0.356,0.088,1.233,0.14681931,-0.107245676,0.84721243,0.8775913,0.006989066,0.026177552,0.0,0.0,0.0,0.8226264715194702,0.8226264715194702,link6
1763442512.1156197,d4pg_train,FAR,train,3,43,-6.846046611966217,0,106,1,0.434,-0.361,0.991,-0.64194554,-0.01416637,1.2138256,1.3826003,-0.59725416,0.6607265,0.0,0.0,0.0,0.7418606877326965,0.7418606877326965,link6
1763442513.4984262,d4pg_train,FAR,train,3,44,-8.212822186834817,0,107,1,0.101,0.014,1.365,0.12467472,-0.104942776,0.32128075,1.9189575,-0.31993663,0.5200127,0.0,0.0,0.0,1.419358491897583,1.419358491897583,link6
1763442514.9176638,d4pg_train,FAR,train,3,45,-8.227665486446382,0,108,1,-0.011,0.013,1.371,-0.036387727,-0.21108152,0.4011766,1.7393367,-0.2144469,0.5793911,0.0,0.0,0.0,0.8486724495887756,0.8486724495887756,link6
1763442516.3091118,d4pg_train,FAR,train,3,46,-7.130045750022361,0,109,1,0.222,-0.112,1.162,-0.2081244,-0.20598519,1.0235018,0.9640271,-1.3717645,-0.041459475,0.0,0.0,0.0,1.0089319944381714,1.0089319944381714,link6
1763442517.693022,d4pg_train,FAR,train,3,47,-7.08935601980106,0,110,1,0.274,-0.215,1.129,-0.5646288,-0.23113912,1.1152557,1.5800713,-0.65299666,0.3660651,0.0,0.0,0.0,0.954818069934845,0.954818069934845,link6
1763442519.0800128,d4pg_train,FAR,train,3,48,-7.25852012784721,0,111,1,0.308,-0.198,1.153,-0.5747978,-0.21351892,1.0581068,1.8996366,-0.19114089,0.5204679,0.0,0.0,0.0,1.1251788139343262,1.1251788139343262,link6
1763442520.4600823,d4pg_train,FAR,train,3,49,-7.361826533879918,0,112,1,0.313,0.025,1.186,0.1898998,-0.19670792,1.0241611,1.1518226,-0.7588297,0.68968225,0.0,0.0,0.0,0.893965482711792,0.893965482711792,link6
1763442521.8396728,d4pg_train,FAR,train,3,50,-7.606039496409731,0,113,1,0.268,-0.006,1.239,0.10720848,-0.18130001,0.8465989,1.3549509,-0.65360314,0.6505418,0.0,0.0,0.0,1.1891629695892334,1.1891629695892334,link6
1763442523.2183332,d4pg_train,FAR,train,3,51,-8.099087147876359,0,114,1,0.087,-0.009,1.347,0.10874916,-0.16591866,0.4559712,1.5547887,-0.48324484,0.4892124,0.0,0.0,0.0,1.121716856956482,1.121716856956482,link6
1763442524.5962813,d4pg_train,FAR,train,3,52,-7.892787478994297,0,115,1,0.063,-0.05,1.313,-0.21421146,-0.22100998,0.6232912,1.0189506,-0.80878806,0.9191634,0.0,0.0,0.0,1.2396568059921265,1.2396568059921265,link6
1763442525.9891834,d4pg_train,FAR,train,3,53,-7.911187863231592,0,116,1,0.16,-0.083,1.306,-0.44051495,-0.1899685,0.68964696,1.4463003,-0.34063053,1.0548372,0.0,0.0,0.0,0.8611790537834167,0.8611790537834167,link6
1763442527.371966,d4pg_train,FAR,train,3,54,-7.806830544144281,0,117,1,0.209,-0.056,1.283,0.028039983,-0.09609638,0.5356063,1.6001636,-0.954356,0.5548167,0.0,0.0,0.0,1.0578632354736328,1.0578632354736328,link6
1763442528.760302,d4pg_train,FAR,train,3,55,-8.085803777455071,0,118,1,-0.005,-0.041,1.347,-0.3019144,-0.17569958,0.36310378,1.2807876,-0.7226907,0.504465,0.0,0.0,0.0,1.379265308380127,1.379265308380127,link6
1763442530.143851,d4pg_train,FAR,train,3,56,-8.132513795202481,0,119,1,-0.059,0.009,1.354,-0.4478848,-0.24626562,0.44221672,1.0203564,-0.5640982,0.77141345,0.0,0.0,0.0,0.898647129535675,0.898647129535675,link6
1763442531.5328853,d4pg_train,FAR,train,3,57,-7.643008712096943,0,120,1,0.331,0.086,1.227,0.13817486,-0.15457171,0.8667738,0.8559638,0.059586562,0.77978945,0.0,0.0,0.0,0.9438086152076721,0.9438086152076721,link6
1763442532.910426,d4pg_train,FAR,train,3,58,-7.784773383495297,0,121,1,0.329,-0.007,1.255,-0.14877422,-0.12040168,0.7834585,1.5636159,0.019409738,0.5821806,0.0,0.0,0.0,1.0051558017730713,1.0051558017730713,link6
1763442534.294425,d4pg_train,FAR,train,3,59,-7.889477679893848,0,122,1,0.291,-0.076,1.28,-0.3529503,-0.110853374,0.70106727,2.1767478,-0.09430178,0.5811239,0.0,0.0,0.0,0.9665200710296631,0.9665200710296631,link6
1763442538.029663,d4pg_train,FAR,train,4,0,-8.200488006161875,0,123,1,0.169,-0.023,1.356,-0.13476099,-0.04339036,0.39711297,1.1457572,-0.38347685,0.48504612,0.0,0.0,0.0,0.9479126930236816,0.9479126930236816,link6
1763442539.4104397,d4pg_train,FAR,train,4,1,-7.04797578001056,0,124,1,0.421,-0.024,1.096,-0.023401465,-0.17937365,1.1608182,1.5545369,-0.44047132,0.8831484,0.0,0.0,0.0,0.7803443074226379,0.7803443074226379,link6
1763442540.789705,d4pg_train,FAR,train,4,2,-8.065734484341764,0,125,1,-0.01,-0.026,1.344,0.13515009,-0.23290262,0.30033883,2.21993,-0.69015735,0.3824208,0.0,0.0,0.0,1.4497727155685425,1.4497727155685425,link6
1763442542.1932783,d4pg_train,FAR,train,4,3,-7.993439545906468,0,126,1,-0.24,-0.034,1.31,0.015025731,-0.32780716,0.09256239,2.409031,-0.9992911,0.55720156,0.0,0.0,0.0,1.2636903524398804,1.2636903524398804,link6
1763442543.5800922,d4pg_train,FAR,train,4,4,-7.791450824885239,0,127,1,-0.196,-0.066,1.282,0.07374876,-0.17574322,-0.16407716,2.3024762,-1.3825824,0.84693855,0.0,0.0,0.0,1.4259967803955078,1.4259967803955078,link6
1763442544.9707773,d4pg_train,FAR,train,4,5,-7.634253856253466,0,128,1,-0.244,-0.139,1.241,0.2187059,-0.2906896,0.04437256,1.7315968,-1.5394727,1.179307,0.0,0.0,0.0,1.399276852607727,1.399276852607727,link6
1763442546.356338,d4pg_train,FAR,train,4,6,-7.642064531640721,0,129,1,-0.18,-0.131,1.254,0.23390001,-0.33467567,0.3059451,1.6096247,-1.4285135,1.1508204,0.0,0.0,0.0,0.9391078352928162,0.9391078352928162,link6
1763442547.7387524,d4pg_train,FAR,train,4,7,-7.984754650847391,0,130,1,0.182,0.058,1.317,0.25524274,-0.15790161,0.557169,2.4176848,-0.33977303,1.2340276,0.0,0.0,0.0,1.1161383390426636,1.1161383390426636,link6
1763442549.1493664,d4pg_train,FAR,train,4,8,-8.076167546693938,0,131,1,0.073,0.011,1.344,0.3484236,-0.17351384,0.37195575,2.2241035,-0.59280163,1.5882435,0.0,0.0,0.0,1.2979964017868042,1.2979964017868042,link6
1763442550.5413098,d4pg_train,FAR,train,4,9,-7.9896194666502005,0,132,1,0.211,-0.437,1.24,1.9362432,-0.3421826,-0.26701778,2.1447592,-0.89520186,0.89815116,0.0,0.0,0.0,1.026630163192749,1.026630163192749,link6
1763442551.9532866,d4pg_train,FAR,train,4,10,-8.071844244815484,0,133,1,-0.319,-0.249,1.283,0.44978076,-0.33480316,-0.02646181,1.8477237,-0.82797134,1.3291181,0.0,0.0,0.0,1.4694557189941406,1.4694557189941406,link6
1763442553.3614106,d4pg_train,FAR,train,4,11,-8.079114917824583,0,134,1,-0.37,-0.166,1.284,0.35712758,-0.349834,-0.072031796,1.8516117,-0.81683284,1.4570932,0.0,0.0,0.0,1.401991605758667,1.401991605758667,link6
1763442554.7432241,d4pg_train,FAR,train,4,12,-7.962720116255206,0,135,1,-0.147,-0.356,1.27,1.0302485,-0.251354,-0.23919946,1.966153,-0.9973492,1.2637057,0.0,0.0,0.0,1.3674890995025635,1.3674890995025635,link6
1763442556.1264832,d4pg_train,FAR,train,4,13,-7.9814468051417276,0,136,1,-0.304,-0.353,1.246,0.8286893,-0.37772763,-0.22419855,2.7115262,-0.9948331,0.8981083,0.0,0.0,0.0,1.5355943441390991,1.5355943441390991,link6
1763442557.5187972,d4pg_train,FAR,train,4,14,-8.001267405627207,0,137,1,-0.337,-0.346,1.243,0.81160206,-0.4365271,-0.155504,2.8182144,-0.9748349,0.79267687,0.0,0.0,0.0,1.2652140855789185,1.2652140855789185,link6
1763442558.9085565,d4pg_train,FAR,train,4,15,-7.960647498058552,0,138,1,-0.06,-0.518,1.22,1.35302,-0.38846782,-0.21110079,1.8627249,-0.9159424,1.6175998,0.0,0.0,0.0,1.2693028450012207,1.2693028450012207,link6
1763442560.3013403,d4pg_train,FAR,train,4,16,-8.01605029259389,0,139,1,-0.449,-0.406,1.191,0.6351583,-0.387576,-0.32763234,2.0715232,-0.620493,1.3411472,0.0,0.0,0.0,1.5539743900299072,1.5539743900299072,link6
1763442561.6871188,d4pg_train,FAR,train,4,17,-7.460430373143212,0,140,1,-0.458,-0.214,1.136,0.35409623,-0.11540535,-0.8540022,2.2746036,-1.0331485,1.3680505,0.0,0.0,0.0,1.6450141668319702,1.6450141668319702,link6
1763442563.0726836,d4pg_train,FAR,train,4,18,-7.2104925879526265,0,141,1,-0.544,-0.358,1.01,0.4589323,-0.32070196,-0.70762706,1.5704436,-1.3062675,2.0088809,0.0,0.0,0.0,1.6881418228149414,1.6881418228149414,link6
1763442564.4707143,d4pg_train,FAR,train,4,19,-7.52342825677645,0,142,1,-0.468,-0.468,1.065,0.68105024,-0.45416895,-0.44242927,1.9062978,-1.2891423,1.7638409,0.0,0.0,0.0,1.3161213397979736,1.3161213397979736,link6
1763442565.8496008,d4pg_train,FAR,train,4,20,-8.14092189529504,0,143,1,-0.328,-0.039,1.316,0.14085044,-0.20990378,-0.27881572,2.819899,-0.74906754,0.54328793,0.0,0.0,0.0,1.5626837015151978,1.5626837015151978,link6
1763442567.2306483,d4pg_train,FAR,train,4,21,-8.149752042461794,0,144,1,-0.467,-0.138,1.268,0.29379225,-0.30575684,-0.28990772,2.3875716,-0.4903892,1.180407,0.0,0.0,0.0,1.636705994606018,1.636705994606018,link6
1763442568.6178622,d4pg_train,FAR,train,4,22,-8.156723438065546,0,145,1,-0.517,-0.251,1.232,0.47241956,-0.39939442,-0.23177958,2.0378938,-0.37148318,1.491461,0.0,0.0,0.0,1.471303105354309,1.471303105354309,link6
1763442570.0009093,d4pg_train,FAR,train,4,23,-7.420883220600583,0,146,1,0.0,-0.744,0.988,1.5442556,-0.33327833,-0.8376018,1.8526093,-0.6153408,0.18525872,0.0,0.0,0.0,1.1187238693237305,1.1187238693237305,link6
1763442571.3852205,d4pg_train,FAR,train,4,24,-7.891788465564057,0,147,1,-0.073,-0.734,1.089,1.4558064,-0.4304615,-0.44271463,1.8760782,-0.34667584,0.67433655,0.0,0.0,0.0,1.3490872383117676,1.3490872383117676,link6
1763442572.7915869,d4pg_train,FAR,train,4,25,-8.3079246724441,0,148,1,-0.119,-0.359,1.332,1.2949997,-0.3522617,0.009314763,1.905443,-0.18501441,1.2223979,0.0,0.0,0.0,1.4641753435134888,1.4641753435134888,link6
1763442574.172973,d4pg_train,FAR,train,4,26,-7.698140516338488,0,149,1,-0.542,-0.327,1.116,0.47859803,-0.34282348,-0.60507774,2.5155516,-0.96911573,0.9736535,0.0,0.0,0.0,1.6932569742202759,1.6932569742202759,link6
1763442575.5904193,d4pg_train,FAR,train,4,27,-7.529661097556651,0,150,1,-0.629,-0.421,1.001,0.563756,-0.41307744,-0.7607489,2.4004385,-0.7805616,0.9509112,0.0,0.0,0.0,1.6027452945709229,1.6027452945709229,link6
1763442576.9875166,d4pg_train,FAR,train,4,28,-8.295478002633033,0,151,1,-0.184,-0.262,1.345,1.0073489,-0.21861088,-0.1176349,2.4311435,-0.29472998,1.6958389,0.0,0.0,0.0,1.4221174716949463,1.4221174716949463,link6
1763442578.3843575,d4pg_train,FAR,train,4,29,-8.013391084453072,0,152,1,-0.008,-0.525,1.228,1.5402614,-0.31103644,-0.40312535,2.3453467,-0.7338222,1.0487111,0.0,0.0,0.0,1.0499054193496704,1.0499054193496704,link6
1763442579.7668378,d4pg_train,FAR,train,4,30,-7.572783077576162,0,153,1,0.145,-0.668,1.061,1.7016871,-0.41331163,-0.6045621,2.132102,-1.0831429,0.7186608,0.0,0.0,0.0,1.3326090574264526,1.3326090574264526,link6
1763442581.15791,d4pg_train,FAR,train,4,31,-7.483137007162273,0,154,1,-0.316,-0.62,1.035,1.0173782,-0.31468007,-0.6864576,1.4973536,-0.8022033,1.5091047,0.0,0.0,0.0,1.4975111484527588,1.4975111484527588,link6
1763442582.5432868,d4pg_train,FAR,train,4,32,-7.273188626876206,0,155,1,-0.252,-0.733,0.932,1.2512596,-0.31334576,-0.94123375,1.9249883,-0.42253754,1.3977405,0.0,0.0,0.0,1.2538527250289917,1.2538527250289917,link6
1763442583.928912,d4pg_train,FAR,train,4,33,-7.061271146301668,0,156,1,-0.139,-0.709,0.929,1.388965,-0.20752849,-1.1041743,2.2978556,-0.19972396,1.2396396,0.0,0.0,0.0,1.7283539772033691,1.7283539772033691,link6
1763442585.3129945,d4pg_train,FAR,train,4,34,-5.911645658414831,0,157,1,-0.444,-0.598,0.645,0.9894353,-0.1929949,-1.54085,1.786137,-0.04485019,0.9873863,0.0,0.0,0.0,1.5228440761566162,1.5228440761566162,link6
1763442586.7203398,d4pg_train,FAR,train,4,35,-5.791886897090281,0,158,1,-0.478,-0.588,0.598,0.9436297,-0.23793955,-1.5175713,1.5314087,0.18005356,0.9073433,0.0,0.0,0.0,1.727095603942871,1.727095603942871,link6
1763442588.1088614,d4pg_train,FAR,train,4,36,-7.201564878991816,0,159,1,-0.681,-0.296,0.943,0.4733799,-0.2429973,-1.0070386,1.139673,0.07271293,1.073745,0.0,0.0,0.0,1.844006896018982,1.844006896018982,link6
1763442589.506134,d4pg_train,FAR,train,4,37,-7.235507576450773,0,160,1,-0.695,-0.397,0.902,0.5934225,-0.33309925,-0.95211506,1.2534796,0.14636558,1.1459168,0.0,0.0,0.0,1.7461113929748535,1.7461113929748535,link6
1763442590.895555,d4pg_train,FAR,train,4,38,-7.258770195180185,0,161,1,-0.742,-0.332,0.896,0.47649682,-0.36178473,-0.9483395,1.2362223,0.18153773,1.1729629,0.0,0.0,0.0,1.8392751216888428,1.8392751216888428,link6
1763442592.2798629,d4pg_train,FAR,train,4,39,-7.183704110608576,0,162,1,-0.718,-0.046,0.957,0.05027141,-0.23240425,-1.003965,1.7977458,-0.4149033,0.72303337,0.0,0.0,0.0,1.8379228115081787,1.8379228115081787,link6
1763442593.6807477,d4pg_train,FAR,train,4,40,-7.327545497644564,0,163,1,-0.733,-0.145,0.966,0.22166637,-0.27500337,-0.9204027,1.7298965,-0.16948818,0.75299984,0.0,0.0,0.0,1.7004462480545044,1.7004462480545044,link6
1763442595.070887,d4pg_train,FAR,train,4,41,-7.647307873311169,0,164,1,-0.576,-0.047,1.136,0.17387895,-0.11774525,-0.82050073,0.99354184,0.14295483,0.08720972,0.0,0.0,0.0,1.7616419792175293,1.7616419792175293,link6
1763442596.465046,d4pg_train,FAR,train,4,42,-7.966237999349002,0,165,1,-0.27,-0.374,1.245,1.0796587,-0.07773478,-0.57992643,0.7226241,-0.019263541,0.41027662,0.0,0.0,0.0,1.3476039171218872,1.3476039171218872,link6
1763442597.8448026,d4pg_train,FAR,train,4,43,-7.7291296779377,0,166,1,-0.25,-0.46,1.177,1.0698998,-0.09067449,-0.7589369,0.63110983,-0.28592536,0.5049695,0.0,0.0,0.0,1.7706694602966309,1.7706694602966309,link6
1763442599.2379692,d4pg_train,FAR,train,4,44,-7.920893446328723,0,167,1,-0.476,-0.076,1.229,0.19469912,-0.097042665,-0.6031882,1.5263993,-0.14309023,-0.13045262,0.0,0.0,0.0,1.6580545902252197,1.6580545902252197,link6
1763442600.62394,d4pg_train,FAR,train,4,45,-7.805156408584529,0,168,1,-0.525,-0.163,1.179,0.4199081,-0.1311689,-0.71601367,1.1275789,0.21519648,0.87842596,0.0,0.0,0.0,1.6291513442993164,1.6291513442993164,link6
1763442602.007832,d4pg_train,FAR,train,4,46,-7.715361325352453,0,169,1,-0.506,-0.278,1.149,0.61703783,-0.13926972,-0.77698356,1.0762177,0.223762,1.3430132,0.0,0.0,0.0,1.4368503093719482,1.4368503093719482,link6
1763442603.3884325,d4pg_train,FAR,train,4,47,-7.177500084522511,0,170,1,-0.511,-0.417,0.998,0.73971355,-0.12117542,-1.0471979,0.49913302,-0.041195378,-0.3397938,0.0,0.0,0.0,1.6846818923950195,1.6846818923950195,link6
1763442604.7709532,d4pg_train,FAR,train,4,48,-7.033947788941169,0,171,1,-0.746,-0.065,0.902,0.13794474,-0.24892765,-1.1346382,0.30115348,0.46363676,-0.26147652,0.0,0.0,0.0,1.7665013074874878,1.7665013074874878,link6
1763442606.1646593,d4pg_train,FAR,train,4,49,-7.188634254771042,0,172,1,-0.652,0.348,0.943,-0.3990578,-0.30846083,-1.0445963,0.25255945,0.7510725,-0.061961636,0.0,0.0,0.0,1.574410319328308,1.574410319328308,link6
1763442607.54511,d4pg_train,FAR,train,4,50,-8.356007186857353,0,173,1,-0.067,0.012,1.391,0.2574359,0.008042893,-0.06796258,1.0570861,-0.07914572,-0.10887192,0.0,0.0,0.0,1.2377140522003174,1.2377140522003174,link6
1763442608.9271982,d4pg_train,FAR,train,4,51,-8.276002164841067,0,174,1,-0.136,-0.041,1.372,0.4723961,0.036675278,-0.3294226,1.5193934,-0.1529215,0.11054117,0.0,0.0,0.0,1.5469393730163574,1.5469393730163574,link6
1763442610.3196898,d4pg_train,FAR,train,4,52,-7.773615816921276,0,175,1,-0.435,-0.425,1.144,0.79378515,-0.20941073,-0.63690096,0.8316449,-0.29636636,0.9507338,0.0,0.0,0.0,1.6241799592971802,1.6241799592971802,link6
1763442611.7175257,d4pg_train,FAR,train,4,53,-7.668798429135291,0,176,1,-0.612,0.014,1.122,0.11338262,-0.20149875,-0.74367553,1.134313,0.7129351,0.8964049,0.0,0.0,0.0,1.6478774547576904,1.6478774547576904,link6
1763442613.1045032,d4pg_train,FAR,train,4,54,-7.47215887442161,0,177,1,-0.577,0.254,1.074,-0.2449777,-0.20848742,-0.8625111,1.0605458,0.7414925,0.7420615,0.0,0.0,0.0,1.7320753335952759,1.7320753335952759,link6
1763442614.5127523,d4pg_train,FAR,train,4,55,-7.544510550484632,0,178,1,-0.539,-0.068,1.134,0.22818269,-0.040362116,-0.90327364,0.06396195,0.15169975,0.19818659,0.0,0.0,0.0,1.6901593208312988,1.6901593208312988,link6
1763442615.894486,d4pg_train,FAR,train,4,56,-7.369150446470227,0,179,1,-0.533,-0.386,1.037,0.7438635,-0.16141339,-0.9078196,0.46882668,-0.1702817,0.097726,0.0,0.0,0.0,1.458017349243164,1.458017349243164,link6
1763442617.2871776,d4pg_train,FAR,train,4,57,-7.338187986159519,0,180,1,-0.365,-0.612,0.994,1.0093036,-0.24949677,-0.84222865,0.77327996,-0.42498764,-0.023858078,0.0,0.0,0.0,1.4979168176651,1.4979168176651,link6
1763442618.6706247,d4pg_train,FAR,train,4,58,-8.096731015559822,0,181,1,-0.236,-0.084,1.326,0.4924175,0.047546957,-0.40449312,0.08540247,-0.39837554,-0.31553495,0.0,0.0,0.0,1.4399824142456055,1.4399824142456055,link6
1763442620.049293,d4pg_train,FAR,train,4,59,-7.9868498266935655,0,182,1,-0.332,-0.125,1.283,0.43274304,-0.012079196,-0.54362,0.26228264,-0.30527356,-0.2966492,0.0,0.0,0.0,1.742849349975586,1.742849349975586,link6
1763442623.7080503,d4pg_train,FAR,train,5,0,-8.087278110437168,0,183,1,-0.235,0.025,1.327,0.18025722,-0.020965407,-0.47033435,0.33239716,0.7592875,-0.06263495,0.0,0.0,0.0,1.506270408630371,1.506270408630371,link6
1763442625.0981073,d4pg_train,FAR,train,5,1,-8.024300052145367,0,184,1,-0.397,0.016,1.277,0.1273696,-0.12886749,-0.5372431,0.35821956,0.68518895,-0.008097524,0.0,0.0,0.0,1.6209022998809814,1.6209022998809814,link6
1763442626.488566,d4pg_train,FAR,train,5,2,-8.023210784488194,0,185,1,-0.274,-0.086,1.306,0.46672484,0.06458177,-0.6261609,0.28560925,0.20202595,-0.3632542,0.0,0.0,0.0,1.5052310228347778,1.5052310228347778,link6
1763442627.87919,d4pg_train,FAR,train,5,3,-7.823548274633435,0,186,1,-0.341,-0.297,1.223,0.82370603,-0.02646404,-0.7298003,0.7228883,0.011026698,-0.6711365,0.0,0.0,0.0,1.5013753175735474,1.5013753175735474,link6
1763442629.2665615,d4pg_train,FAR,train,5,4,-7.776449755573158,0,187,1,-0.358,-0.402,1.179,0.9255327,-0.10818433,-0.7291313,0.7098181,0.14157599,-0.70648074,0.0,0.0,0.0,1.4323291778564453,1.4323291778564453,link6
1763442630.6489968,d4pg_train,FAR,train,5,5,-7.945434844454536,0,188,1,-0.358,-0.174,1.263,0.45982343,-0.05507564,-0.6517056,-0.5879096,0.49608248,-0.9212916,0.0,0.0,0.0,1.5804919004440308,1.5804919004440308,link6
1763442632.0453517,d4pg_train,FAR,train,5,6,-7.998434689816686,0,189,1,-0.489,-0.019,1.24,0.103496194,-0.21460398,-0.5411804,-0.033175483,0.64354664,-1.0039847,0.0,0.0,0.0,1.6494911909103394,1.6494911909103394,link6
1763442633.4261863,d4pg_train,FAR,train,5,7,-7.988695678978436,0,190,1,-0.566,0.1,1.201,-0.055155747,-0.3181812,-0.50903755,0.256904,0.6521251,-1.0856214,0.0,0.0,0.0,1.630130648612976,1.630130648612976,link6
1763442634.810721,d4pg_train,FAR,train,5,8,-8.221624713869014,0,191,1,-0.274,-0.111,1.338,0.539389,-0.09784905,-0.33509383,0.07252882,0.41912463,0.6359461,0.0,0.0,0.0,1.4615684747695923,1.4615684747695923,link6
1763442636.1928542,d4pg_train,FAR,train,5,9,-7.899476072360905,0,192,1,-0.4,-0.225,1.234,0.58797514,-0.07984561,-0.7365578,-0.1259831,0.41894844,0.20500681,0.0,0.0,0.0,1.6357475519180298,1.6357475519180298,link6
1763442637.5863347,d4pg_train,FAR,train,5,10,-7.9228217845002025,0,193,1,-0.244,0.132,1.291,-0.142306,0.08014231,-0.6633504,0.9089324,0.6280261,-1.4735023,0.0,0.0,0.0,1.4819549322128296,1.4819549322128296,link6
1763442638.9757268,d4pg_train,FAR,train,5,11,-8.305587527658567,0,194,1,-0.076,0.022,1.382,0.9485212,0.046172105,-0.17061396,0.7089983,0.42674175,-0.25450048,0.0,0.0,0.0,1.3158727884292603,1.3158727884292603,link6
1763442640.3564463,d4pg_train,FAR,train,5,12,-8.28202093536604,0,195,1,-0.058,0.018,1.379,0.9411678,0.1501942,-0.37610137,0.6489806,0.23483303,0.0391283,0.0,0.0,0.0,1.4944757223129272,1.4944757223129272,link6
1763442641.7421975,d4pg_train,FAR,train,5,13,-8.032120626586222,0,196,1,-0.368,0.017,1.287,0.030470323,-0.035553664,-0.49047753,0.30554655,-0.28546405,-0.85040283,0.0,0.0,0.0,1.5923248529434204,1.5923248529434204,link6
1763442643.1328573,d4pg_train,FAR,train,5,14,-7.620646200058142,0,197,1,-0.412,-0.198,1.185,0.4648617,0.014097105,-0.7929469,0.81648,-0.35070246,-1.0189875,0.0,0.0,0.0,1.5128216743469238,1.5128216743469238,link6
1763442644.5263357,d4pg_train,FAR,train,5,15,-7.338544671614848,0,198,1,-0.383,-0.269,1.13,0.6304954,0.08151401,-0.97453916,0.7704625,-0.27416953,-0.8713891,0.0,0.0,0.0,1.4476356506347656,1.4476356506347656,link6
1763442645.9083154,d4pg_train,FAR,train,5,16,-7.467460346072188,0,199,1,-0.401,-0.147,1.169,0.39588735,0.09579439,-0.9902727,-0.7874684,0.24301283,-0.12073096,0.0,0.0,0.0,1.604669213294983,1.604669213294983,link6
1763442647.2902708,d4pg_train,FAR,train,5,17,-8.015527306492146,0,200,1,-0.295,-0.176,1.291,0.66812944,0.010601543,-0.55739015,-0.19403291,0.059810128,-0.243817,0.0,0.0,0.0,1.3363184928894043,1.3363184928894043,link6
1763442648.6746552,d4pg_train,FAR,train,5,18,-8.346538797076713,0,201,1,-0.081,-0.045,1.388,0.9004541,0.008959053,-0.15101828,0.21596026,-0.11313008,-0.23781273,0.0,0.0,0.0,1.4842381477355957,1.4842381477355957,link6
1763442650.062547,d4pg_train,FAR,train,5,19,-7.87373100660672,0,202,1,-0.455,-0.274,1.2,0.5996705,-0.14727326,-0.68473387,-0.21225008,0.2600209,-0.6463111,0.0,0.0,0.0,1.6804273128509521,1.6804273128509521,link6
1763442651.446237,d4pg_train,FAR,train,5,20,-7.846648019136469,0,203,1,-0.552,-0.209,1.167,0.41084293,-0.18261132,-0.66717005,-0.17112002,0.09402206,-0.9632902,0.0,0.0,0.0,1.5127193927764893,1.5127193927764893,link6
1763442652.8355284,d4pg_train,FAR,train,5,21,-7.7602389385532184,0,204,1,-0.467,0.017,1.206,-0.024402319,-0.18809417,-0.6561704,-0.3127663,1.0590032,-0.033145342,0.0,0.0,0.0,1.668927550315857,1.668927550315857,link6
1763442654.2234871,d4pg_train,FAR,train,5,22,-8.109861384069234,0,205,1,-0.091,-0.098,1.345,0.61451715,-0.09641367,-0.059179217,-0.88020056,0.8862355,-0.09157282,0.0,0.0,0.0,1.1215709447860718,1.1215709447860718,link6
1763442655.6041255,d4pg_train,FAR,train,5,23,-8.182675621399797,0,206,1,0.111,0.094,1.356,0.8467575,0.007753567,0.15190062,-0.9602011,0.634805,-0.52564454,0.0,0.0,0.0,1.4744272232055664,1.4744272232055664,link6
1763442656.995249,d4pg_train,FAR,train,5,24,-7.474051288606423,0,207,1,-0.321,-0.572,1.059,1.1921264,-0.17935956,-0.86708236,-1.1925448,-0.36317503,-0.38636965,0.0,0.0,0.0,1.484619140625,1.484619140625,link6
1763442658.3811152,d4pg_train,FAR,train,5,25,-7.82598030664718,0,208,1,-0.102,-0.515,1.194,1.3654455,-0.14078692,-0.6710206,-1.0465482,0.47141227,-0.5628145,0.0,0.0,0.0,1.211698055267334,1.211698055267334,link6
1763442659.7762122,d4pg_train,FAR,train,5,26,-7.977160822698044,0,209,1,0.01,-0.15,1.321,1.3426393,0.025929382,-0.42412072,-0.84991324,0.9410714,-0.65435964,0.0,0.0,0.0,1.5261290073394775,1.5261290073394775,link6
1763442661.1687002,d4pg_train,FAR,train,5,27,-6.58365611636336,0,210,1,-0.361,-0.517,0.898,1.1084323,-0.033041302,-1.2416662,-0.81747997,-0.5690069,-0.40831244,0.0,0.0,0.0,1.4830543994903564,1.4830543994903564,link6
1763442662.5585344,d4pg_train,FAR,train,5,28,-6.476924564379863,0,211,1,-0.632,-0.262,0.835,0.46380004,-0.10636392,-1.2339209,-0.32208148,-0.51071036,-0.6453585,0.0,0.0,0.0,1.6648012399673462,1.6648012399673462,link6
1763442663.9490976,d4pg_train,FAR,train,5,29,-8.266089240134368,0,212,1,-0.0,0.068,1.376,0.8155273,0.17074253,-0.15659675,-0.14956327,-0.43962008,-0.5860341,0.0,0.0,0.0,1.2786428928375244,1.2786428928375244,link6
1763442665.338191,d4pg_train,FAR,train,5,30,-7.923865377710394,0,213,1,-0.295,-0.17,1.276,0.6828291,0.033094354,-0.5883346,-0.3734735,-0.3781275,-0.47736079,0.0,0.0,0.0,1.6312475204467773,1.6312475204467773,link6
1763442666.743615,d4pg_train,FAR,train,5,31,-7.651553822457259,0,214,1,-0.398,-0.369,1.154,0.86365795,-0.082039066,-0.75395316,-0.44736668,-0.25821087,-0.21026078,0.0,0.0,0.0,1.3078467845916748,1.3078467845916748,link6
1763442668.1253436,d4pg_train,FAR,train,5,32,-7.799802360097062,0,215,1,-0.341,-0.127,1.248,0.4429362,0.07502368,-0.71231866,-0.09616378,-0.25109994,-0.38735804,0.0,0.0,0.0,1.5618338584899902,1.5618338584899902,link6
1763442669.5116358,d4pg_train,FAR,train,5,33,-7.9589380494229705,0,216,1,-0.342,-0.109,1.277,0.39716733,0.0011773162,-0.51772165,0.22757941,-0.34304786,-0.08675124,0.0,0.0,0.0,1.4762458801269531,1.4762458801269531,link6
1763442670.910774,d4pg_train,FAR,train,5,34,-8.171908729323347,0,217,1,-0.274,-0.105,1.33,0.46982306,-0.050126612,-0.31535694,0.22778045,-0.3468932,0.057575703,0.0,0.0,0.0,1.4188451766967773,1.4188451766967773,link6
1763442672.2929344,d4pg_train,FAR,train,5,35,-8.33765928638488,0,218,1,-0.159,-0.098,1.377,0.7514294,-0.070509054,-0.15964536,-0.6317294,0.026667627,-0.3657743,0.0,0.0,0.0,1.417197585105896,1.417197585105896,link6
1763442673.7479928,d4pg_train,FAR,train,5,36,-7.8655348748473495,0,219,1,-0.305,-0.38,1.217,1.0040517,-0.07731756,-0.72138745,-0.31466776,-0.06798581,-0.9630165,0.0,0.0,0.0,1.3276293277740479,1.3276293277740479,link6
1763442675.134387,d4pg_train,FAR,train,5,37,-7.6496921892326295,0,220,1,-0.447,-0.007,1.194,0.1192133,0.024976637,-0.73161805,-0.40895995,-0.39862984,-0.13728426,0.0,0.0,0.0,1.626720666885376,1.626720666885376,link6
1763442676.519233,d4pg_train,FAR,train,5,38,-7.400474387509574,0,221,1,-0.525,-0.216,1.095,0.46763745,-0.04360608,-0.95780313,-0.74147725,-0.05761817,-0.6163924,0.0,0.0,0.0,1.6478667259216309,1.6478667259216309,link6
1763442677.9158523,d4pg_train,FAR,train,5,39,-7.225805256083137,0,222,1,-0.504,-0.4,1.018,0.7075041,-0.11429519,-1.0529053,-0.7290247,0.20585057,-1.0143516,0.0,0.0,0.0,1.5023114681243896,1.5023114681243896,link6
1763442679.297943,d4pg_train,FAR,train,5,40,-7.824064715839077,0,223,1,-0.249,-0.271,1.251,0.96643615,0.055135056,-0.6365308,-0.23806955,-0.42073846,0.07366179,0.0,0.0,0.0,1.4469621181488037,1.4469621181488037,link6
1763442680.6854756,d4pg_train,FAR,train,5,41,-8.077947872574779,0,224,1,-0.293,-0.126,1.308,0.53424364,-0.0056533515,-0.44538903,-0.52076447,-0.2543951,-0.32704937,0.0,0.0,0.0,1.4574077129364014,1.4574077129364014,link6
1763442682.0738888,d4pg_train,FAR,train,5,42,-8.277852105788536,0,225,1,-0.264,0.02,1.354,0.0964145,-0.073343486,-0.27677616,-0.753088,-0.08473152,-0.8002,0.0,0.0,0.0,1.6983122825622559,1.6983122825622559,link6
1763442683.4591148,d4pg_train,FAR,train,5,43,-7.719756514857241,0,226,1,-0.377,-0.101,1.226,0.5809713,-0.03247609,-0.4424659,-0.7446627,-0.998373,0.073258854,0.0,0.0,0.0,1.4957154989242554,1.4957154989242554,link6
1763442684.9221535,d4pg_train,FAR,train,5,44,-7.18162926192946,0,227,1,-0.452,-0.206,1.089,0.63416976,-0.07042959,-0.6736309,-0.5552153,-1.2999227,-0.0036766066,0.0,0.0,0.0,1.7040269374847412,1.7040269374847412,link6
1763442686.316806,d4pg_train,FAR,train,5,45,-7.925594663133518,0,228,1,-0.234,-0.403,1.236,1.1525357,-0.075749904,-0.61587244,-0.68871844,-0.08388926,-0.93186426,0.0,0.0,0.0,1.4185154438018799,1.4185154438018799,link6
1763442687.7228777,d4pg_train,FAR,train,5,46,-8.305630603225081,0,229,1,-0.191,-0.105,1.367,0.71750915,-0.083314344,-0.10606553,-0.24701615,-0.3126754,-0.15455444,0.0,0.0,0.0,1.2061830759048462,1.2061830759048462,link6
1763442689.1063788,d4pg_train,FAR,train,5,47,-8.276793914434373,0,230,1,0.026,0.058,1.378,0.51918787,-0.005137697,0.1662888,-0.01197796,-0.5607874,0.34194577,0.0,0.0,0.0,1.4251831769943237,1.4251831769943237,link6
1763442690.519839,d4pg_train,FAR,train,5,48,-7.290664371016369,0,231,1,-0.493,-0.479,1.002,0.8724017,-0.22037014,-0.81579006,-0.55901456,-0.6297295,-0.780281,0.0,0.0,0.0,1.7015856504440308,1.7015856504440308,link6
1763442691.9046729,d4pg_train,FAR,train,5,49,-7.66670377414625,0,232,1,-0.407,-0.466,1.118,1.0150504,-0.22361177,-0.5237623,-0.65627813,-0.7449967,-0.61077917,0.0,0.0,0.0,1.3522580862045288,1.3522580862045288,link6
1763442693.294083,d4pg_train,FAR,train,5,50,-7.791284678803533,0,233,1,-0.32,-0.215,1.24,0.8135099,-0.03339066,-0.46646774,-0.51332074,-0.85265183,-0.5534817,0.0,0.0,0.0,1.5341060161590576,1.5341060161590576,link6
1763442694.686782,d4pg_train,FAR,train,5,51,-8.021824216340885,0,234,1,-0.371,0.107,1.28,-0.05635748,-0.09771777,-0.36522967,-0.9434696,-0.6413906,-0.59337145,0.0,0.0,0.0,1.5032347440719604,1.5032347440719604,link6
1763442696.0716648,d4pg_train,FAR,train,5,52,-7.761950446401145,0,235,1,-0.448,0.228,1.192,-0.21615492,-0.14814493,-0.53494,-1.0012531,-0.86423767,-0.6564545,0.0,0.0,0.0,1.7162153720855713,1.7162153720855713,link6
1763442697.4549706,d4pg_train,FAR,train,5,53,-7.398681560055411,0,236,1,-0.292,-0.47,1.102,1.2806854,-0.18819092,-0.5826874,-1.0759634,-1.2393825,-0.6600364,0.0,0.0,0.0,1.4410051107406616,1.4410051107406616,link6
1763442698.837844,d4pg_train,FAR,train,5,54,-7.0647861457883225,0,237,1,-0.359,-0.554,0.975,1.1901051,-0.25684297,-0.7480182,-0.91774076,-1.2924073,-0.15305193,0.0,0.0,0.0,1.5649679899215698,1.5649679899215698,link6
1763442700.2299428,d4pg_train,FAR,train,5,55,-6.553159348400795,0,238,1,-0.481,-0.53,0.825,0.9704518,-0.2958514,-0.9415257,-0.62174624,-1.3337489,0.07115686,0.0,0.0,0.0,1.7629565000534058,1.7629565000534058,link6
1763442701.6175845,d4pg_train,FAR,train,5,56,-7.812502534872445,0,239,1,-0.562,-0.133,1.167,0.2786318,-0.16964066,-0.62282854,0.44322222,-0.19922003,-0.09345085,0.0,0.0,0.0,1.6823830604553223,1.6823830604553223,link6
1763442703.0003798,d4pg_train,FAR,train,5,57,-7.792644475238781,0,240,1,-0.609,-0.018,1.147,0.06686258,-0.19558725,-0.6692807,0.3207787,-0.12205627,-0.37349585,0.0,0.0,0.0,1.6805830001831055,1.6805830001831055,link6
1763442704.3901978,d4pg_train,FAR,train,5,58,-8.010044272216728,0,241,1,-0.068,-0.296,1.3,1.6238606,0.030551868,-0.47654116,-0.78533477,-0.49251854,-0.6238279,0.0,0.0,0.0,1.3067456483840942,1.3067456483840942,link6
1763442705.787818,d4pg_train,FAR,train,5,59,-7.862822177216263,0,242,1,-0.243,0.141,1.28,-0.21386987,-0.06858928,-0.16038826,-0.42132652,-1.1653894,-0.22186585,0.0,0.0,0.0,1.3652054071426392,1.3652054071426392,link6
1763442709.4478405,d4pg_train,FAR,train,6,0,-6.917762824699546,0,243,1,-0.282,-0.257,1.088,0.8608972,-0.15355852,-0.34216678,-0.067525186,-2.2534146,-0.49619544,0.0,0.0,0.0,1.4634500741958618,1.4634500741958618,link6
1763442710.8298798,d4pg_train,FAR,train,6,1,-7.245301134952282,0,244,1,-0.195,-0.508,1.078,1.2974825,-0.106467016,-0.67373973,0.014423417,-1.0748687,0.00047019363,0.0,0.0,0.0,1.3019928932189941,1.3019928932189941,link6
1763442712.2273529,d4pg_train,FAR,train,6,2,-7.6859278389042,0,245,1,-0.32,-0.409,1.171,0.8809962,-0.09631464,-0.585046,0.1732153,-0.55888397,-0.03348447,0.0,0.0,0.0,1.2471375465393066,1.2471375465393066,link6
1763442713.6144276,d4pg_train,FAR,train,6,3,-7.560405169344332,0,246,1,-0.212,0.123,1.236,-0.16762836,0.11464381,-0.47071278,-0.4088432,-1.2461557,-0.050787766,0.0,0.0,0.0,1.4395650625228882,1.4395650625228882,link6
1763442715.0080109,d4pg_train,FAR,train,6,4,-7.743377593258693,0,247,1,-0.005,-0.39,1.23,1.8017777,0.002147815,-0.57056177,-0.11310189,-0.67424405,-0.7773054,0.0,0.0,0.0,0.8312841653823853,0.8312841653823853,link6
1763442716.3938851,d4pg_train,FAR,train,6,5,-7.694543807674397,0,248,1,0.401,-0.381,1.157,2.4688575,-0.12017717,-0.6781043,-0.18791704,-0.396579,-1.073333,0.0,0.0,0.0,1.6029397249221802,1.6029397249221802,link6
1763442717.7755065,d4pg_train,FAR,train,6,6,-7.9314215060229465,0,249,1,-0.248,0.218,1.28,-0.42672938,0.035536792,-0.55721766,-1.1573721,-0.54735845,-0.12354966,0.0,0.0,0.0,1.452264666557312,1.452264666557312,link6
1763442719.177416,d4pg_train,FAR,train,6,7,-8.127736852683341,0,250,1,-0.282,-0.05,1.324,0.61211467,-0.10918175,-0.18108547,-1.2590393,-0.7645998,0.5075704,0.0,0.0,0.0,1.3546675443649292,1.3546675443649292,link6
1763442720.5597434,d4pg_train,FAR,train,6,8,-8.229493477720222,0,251,1,-0.142,0.024,1.364,0.12904315,-0.11199034,0.118771724,-0.038746744,-0.68889254,-0.5396795,0.0,0.0,0.0,1.4022623300552368,1.4022623300552368,link6
1763442721.9490323,d4pg_train,FAR,train,6,9,-7.649237192909078,0,252,1,-0.332,-0.274,1.2,0.89001846,-0.11733771,-0.37994283,-0.33464617,-1.1957293,0.09462321,0.0,0.0,0.0,1.4763799905776978,1.4763799905776978,link6
1763442723.3333516,d4pg_train,FAR,train,6,10,-7.677401850500092,0,253,1,-0.393,-0.341,1.169,0.874696,-0.19043024,-0.4053312,-0.5125645,-0.99987537,0.018303582,0.0,0.0,0.0,1.501334309577942,1.501334309577942,link6
1763442724.718255,d4pg_train,FAR,train,6,11,-6.828509031155288,0,254,1,-0.496,0.145,1.014,-0.13463633,0.0033355781,-0.9226033,-0.35107598,-1.1786088,0.25833634,0.0,0.0,0.0,1.6761448383331299,1.6761448383331299,link6
1763442726.1226478,d4pg_train,FAR,train,6,12,-8.004829395584228,0,255,1,-0.257,-0.116,1.304,0.76200885,0.030910697,-0.40906572,-0.75983745,-0.6298414,-0.3329917,0.0,0.0,0.0,1.327340841293335,1.327340841293335,link6
1763442727.5117655,d4pg_train,FAR,train,6,13,-8.293681535088389,0,256,1,-0.047,0.098,1.378,1.1437949,0.11291187,-0.051099394,-0.779432,-0.5271097,-0.50341636,0.0,0.0,0.0,1.4116090536117554,1.4116090536117554,link6
1763442728.9077916,d4pg_train,FAR,train,6,14,-7.6108926398563765,0,257,1,-0.261,-0.091,1.238,0.7656057,-0.02559501,-0.2476006,-0.68152875,-1.465755,-0.004630948,0.0,0.0,0.0,1.4720959663391113,1.4720959663391113,link6
1763442730.32068,d4pg_train,FAR,train,6,15,-7.529024722555632,0,258,1,-0.439,-0.114,1.17,0.37356707,-0.09152149,-0.5032889,-0.20893812,-1.1203768,-0.1452888,0.0,0.0,0.0,1.7895599603652954,1.7895599603652954,link6
1763442731.7180965,d4pg_train,FAR,train,6,16,-7.6852428218728,0,259,1,-0.08,-0.277,1.248,1.2909673,0.012099304,-0.36148328,0.35288695,-1.1725323,-0.2977329,0.0,0.0,0.0,1.3026131391525269,1.3026131391525269,link6
1763442733.0974553,d4pg_train,FAR,train,6,17,-7.179042783286479,0,260,1,-0.328,-0.314,1.107,0.9269809,-0.070605084,-0.5659115,-0.2811914,-1.4792212,0.03680411,0.0,0.0,0.0,1.5665853023529053,1.5665853023529053,link6
1763442734.480098,d4pg_train,FAR,train,6,18,-6.890960883705197,0,261,1,-0.47,-0.236,1.021,0.5827661,-0.1431436,-0.6401846,-0.20086198,-1.6671515,-0.09935336,0.0,0.0,0.0,1.5755695104599,1.5755695104599,link6
1763442735.8730319,d4pg_train,FAR,train,6,19,-7.273594494735204,0,262,1,-0.404,0.126,1.136,-0.26106575,-0.029346617,-0.5667323,0.16431579,-1.3461077,-0.35087433,0.0,0.0,0.0,1.5919238328933716,1.5919238328933716,link6
1763442737.258108,d4pg_train,FAR,train,6,20,-7.948822451620702,0,263,1,-0.341,-0.161,1.27,0.57439554,-0.13452972,-0.19512615,0.18898845,-0.85151154,-0.5445496,0.0,0.0,0.0,1.3524219989776611,1.3524219989776611,link6
1763442738.6381795,d4pg_train,FAR,train,6,21,-8.26041210302655,0,264,1,-0.13,-0.17,1.36,1.0256801,-0.16351843,0.05507806,0.13744514,-0.57244056,-0.6048732,0.0,0.0,0.0,1.6136246919631958,1.6136246919631958,link6
1763442740.021479,d4pg_train,FAR,train,6,22,-6.900973020168964,0,265,1,-0.681,-0.154,0.914,0.22114442,-0.279166,-0.7853687,0.3519933,-1.182342,0.040596228,0.0,0.0,0.0,1.8519601821899414,1.8519601821899414,link6
1763442741.3658545,d4pg_train,FAR,train,6,23,-7.2223532339029015,0,266,1,-0.763,0.005,0.931,0.025982684,-0.32121158,-0.7481501,0.03674042,-0.67241204,0.46324417,0.0,0.0,0.0,1.6265054941177368,1.6265054941177368,link6
1763442742.7541134,d4pg_train,FAR,train,6,24,-8.033476223280207,0,267,1,-0.454,0.095,1.256,-0.106306225,-0.12920614,-0.4946535,-0.3235748,-0.17774989,0.8083338,0.0,0.0,0.0,1.2293003797531128,1.2293003797531128,link6
1763442744.1462917,d4pg_train,FAR,train,6,25,-7.941791659247965,0,268,1,-0.219,-0.094,1.302,0.3431555,-0.0792667,-0.11848765,0.53484905,-1.0671947,-0.49496928,0.0,0.0,0.0,1.525856614112854,1.525856614112854,link6
1763442745.5397532,d4pg_train,FAR,train,6,26,-7.790750672853832,0,269,1,-0.407,-0.232,1.211,0.45929003,-0.22212693,-0.28958344,0.7676019,-1.0563456,-0.17761172,0.0,0.0,0.0,1.5682252645492554,1.5682252645492554,link6
1763442746.9254596,d4pg_train,FAR,train,6,27,-6.507724071494465,0,270,1,-0.685,0.091,0.836,-0.10500124,-0.13605736,-1.1836053,0.28798214,-0.62715065,-0.11912539,0.0,0.0,0.0,1.8517518043518066,1.8517518043518066,link6
1763442748.3107128,d4pg_train,FAR,train,6,28,-8.134589045033692,0,271,1,-0.293,0.099,1.32,-0.16914651,-0.033367004,-0.37166184,-0.20407982,-0.34761402,-0.3802075,0.0,0.0,0.0,1.0753188133239746,1.0753188133239746,link6
1763442749.7061448,d4pg_train,FAR,train,6,29,-8.286205217096374,0,272,1,0.2,0.036,1.366,-0.06286179,0.12526697,0.15945819,-0.17121744,-0.52537155,-0.23322695,0.0,0.0,0.0,1.340517520904541,1.340517520904541,link6
1763442751.0941153,d4pg_train,FAR,train,6,30,-7.125299006354196,0,273,1,-0.06,-0.536,1.058,1.510195,-0.19619867,-0.52438945,0.1650672,-1.5538352,0.36207163,0.0,0.0,0.0,1.1816576719284058,1.1816576719284058,link6
1763442752.4891195,d4pg_train,FAR,train,6,31,-6.983447225987868,0,274,1,-0.386,-0.414,1.017,0.76930517,-0.27622536,-0.40936288,0.16264538,-1.8703281,0.27559158,0.0,0.0,0.0,1.5108909606933594,1.5108909606933594,link6
1763442753.8696415,d4pg_train,FAR,train,6,32,-7.132288526135076,0,275,1,-0.377,0.028,1.127,-0.028329493,-0.22160797,-0.14905272,0.21796246,-2.091497,0.13002144,0.0,0.0,0.0,1.4764186143875122,1.4764186143875122,link6
1763442755.2552636,d4pg_train,FAR,train,6,33,-5.0337269078753115,0,276,1,-0.464,-0.458,0.528,0.8139803,-0.24508528,-1.576259,0.3462174,-1.3022807,-0.4116216,0.0,0.0,0.0,1.4617055654525757,1.4617055654525757,link6
1763442756.640502,d4pg_train,FAR,train,6,34,-5.647473812028335,0,277,1,-0.693,-0.222,0.597,0.33225164,-0.3290529,-1.2621069,0.19255444,-1.300966,-0.14527981,0.0,0.0,0.0,1.3968615531921387,1.3968615531921387,link6
1763442758.025312,d4pg_train,FAR,train,6,35,-8.146693494698567,0,278,1,-0.248,0.212,1.318,-0.6867732,-0.16036032,-0.121980704,0.45908865,-0.654353,1.1227797,0.0,0.0,0.0,1.5084720849990845,1.5084720849990845,link6
1763442759.4117978,d4pg_train,FAR,train,6,36,-5.956074654012411,0,279,1,-0.58,-0.397,0.701,0.6600014,-0.23263836,-1.2588656,0.3180075,-1.1945337,0.18484263,0.0,0.0,0.0,1.372375726699829,1.372375726699829,link6
1763442760.8059227,d4pg_train,FAR,train,6,37,-5.3191676287828225,0,280,1,-0.5,-0.491,0.543,0.73946905,-0.3029733,-1.3735955,0.37021378,-1.2581289,-0.46139127,0.0,0.0,0.0,1.3626426458358765,1.3626426458358765,link6
1763442762.192957,d4pg_train,FAR,train,6,38,-8.220243420669188,0,281,1,0.187,-0.057,1.356,-0.53899086,0.068519,0.3102723,-0.14639442,-0.6047114,-0.5925023,0.0,0.0,0.0,1.0595248937606812,1.0595248937606812,link6
1763442763.5770977,d4pg_train,FAR,train,6,39,-7.9541681185238735,0,282,1,-0.218,-0.327,1.265,0.9758452,-0.17202693,-0.19715688,0.43508863,-0.9278878,-0.27624035,0.0,0.0,0.0,0.6674652099609375,0.6674652099609375,link6
1763442764.9698763,d4pg_train,FAR,train,6,40,-6.885399822069166,0,283,1,0.389,-0.788,0.738,1.9403257,-0.5675875,-0.75371516,0.79483086,-1.0381671,0.09242719,0.0,0.0,0.0,1.614393711090088,1.614393711090088,link6
1763442766.353086,d4pg_train,FAR,train,6,41,-7.747208682321476,0,284,1,-0.459,0.326,1.162,-0.6568235,-0.30000186,-0.28832358,0.56303036,-1.0361632,0.8582998,0.0,0.0,0.0,1.6314231157302856,1.6314231157302856,link6
1763442767.7326777,d4pg_train,FAR,train,6,42,-7.130911364246475,0,285,1,-0.735,0.136,0.924,-0.20977125,-0.3955021,-0.64551795,0.68606395,-1.168332,0.38670045,0.0,0.0,0.0,1.6496418714523315,1.6496418714523315,link6
1763442769.1136117,d4pg_train,FAR,train,6,43,-7.928102707153979,0,286,1,-0.231,-0.197,1.286,0.5580713,-0.16217391,-0.088503934,0.8754205,-1.0833995,0.64812696,0.0,0.0,0.0,1.459023356437683,1.459023356437683,link6
1763442770.5016758,d4pg_train,FAR,train,6,44,-8.096814240714288,0,287,1,-0.32,-0.379,1.255,0.9520872,-0.19364455,-0.45156178,0.7957574,-0.014937418,0.6044975,0.0,0.0,0.0,1.4996763467788696,1.4996763467788696,link6
1763442771.8842795,d4pg_train,FAR,train,6,45,-7.715463701259515,0,288,1,-0.433,-0.486,1.109,0.8560514,-0.22477254,-0.73041826,0.6892967,-0.17142409,0.5910771,0.0,0.0,0.0,1.6744146347045898,1.6744146347045898,link6
1763442773.2756846,d4pg_train,FAR,train,6,46,-7.935379983019868,0,289,1,-0.287,-0.052,1.29,-0.03334458,-0.18540931,-0.051050253,1.1428069,-1.0959963,1.0160819,0.0,0.0,0.0,1.4876153469085693,1.4876153469085693,link6
1763442774.6638658,d4pg_train,FAR,train,6,47,-7.358821072220167,0,290,1,-0.512,-0.191,1.098,0.22293805,-0.33525756,-0.436653,1.4966309,-1.6009439,0.60834086,0.0,0.0,0.0,1.6840603351593018,1.6840603351593018,link6
1763442776.0484784,d4pg_train,FAR,train,6,48,-6.564002417349776,0,291,1,-0.591,-0.392,0.833,0.5150412,-0.45630968,-0.8926047,1.673496,-1.882607,0.45501947,0.0,0.0,0.0,1.3357856273651123,1.3357856273651123,link6
1763442777.5644572,d4pg_train,FAR,train,6,49,-5.874453607280229,0,292,1,-0.618,0.292,0.701,-0.5785101,-0.29991886,-1.3230959,1.5589651,-1.5863248,0.9129925,0.0,0.0,0.0,1.7719736099243164,1.7719736099243164,link6
1763442778.9672303,d4pg_train,FAR,train,6,50,-5.450441286103632,0,293,1,-0.581,0.429,0.551,-0.74479836,-0.40291113,-1.4094465,1.2939249,-1.5577347,0.58554167,0.0,0.0,0.0,1.701932430267334,1.701932430267334,link6
1763442780.3683896,d4pg_train,FAR,train,6,51,-7.198202859109579,0,294,1,-0.462,-0.339,1.054,0.5287999,-0.16338983,-0.80675125,1.5608282,-1.1594138,-0.5746189,0.0,0.0,0.0,1.5963588953018188,1.5963588953018188,link6
1763442781.7556682,d4pg_train,FAR,train,6,52,-7.517105355272808,0,295,1,-0.477,-0.335,1.109,0.5073482,-0.26627123,-0.50482357,1.107811,-1.1284832,0.25460285,0.0,0.0,0.0,1.5576324462890625,1.5576324462890625,link6
1763442783.1402285,d4pg_train,FAR,train,6,53,-7.643286924948958,0,296,1,-0.471,-0.296,1.146,0.50013477,-0.27287814,-0.39986444,0.770107,-1.1091491,0.8560531,0.0,0.0,0.0,1.6203573942184448,1.6203573942184448,link6
1763442784.529605,d4pg_train,FAR,train,6,54,-7.605364293694137,0,297,1,-0.502,-0.209,1.145,0.33119056,-0.21568447,-0.411271,0.6628326,-1.0514181,0.51108307,0.0,0.0,0.0,1.6348578929901123,1.6348578929901123,link6
1763442785.9168751,d4pg_train,FAR,train,6,55,-7.5675241048274975,0,298,1,-0.475,-0.256,1.14,0.44345036,-0.28579947,-0.2868507,0.5912262,-1.3037183,0.30361637,0.0,0.0,0.0,1.4920004606246948,1.4920004606246948,link6
1763442787.3019612,d4pg_train,FAR,train,6,56,-8.10883553408585,0,299,1,-0.418,0.145,1.277,-0.36474666,-0.19233869,-0.3757771,1.6573459,-0.42574188,0.9560761,0.0,0.0,0.0,1.6467281579971313,1.6467281579971313,link6
1763442788.6903448,d4pg_train,FAR,train,6,57,-6.951402058633497,0,300,1,-0.588,-0.458,0.887,0.68835795,-0.25503385,-1.0775425,1.3701253,-0.6164772,0.24505161,0.0,0.0,0.0,1.513491153717041,1.513491153717041,link6
1763442790.0719497,d4pg_train,FAR,train,6,58,-7.028615539276385,0,301,1,-0.517,-0.587,0.872,0.7650984,-0.3245582,-0.8413665,1.0833797,-0.5976104,0.32227698,0.0,0.0,0.0,1.1482739448547363,1.1482739448547363,link6
1763442791.4512825,d4pg_train,FAR,train,6,59,-7.9696658164037935,0,302,1,0.001,-0.027,1.328,-0.19391264,-0.12090396,0.39561605,0.6460658,-1.0826373,0.28894046,0.0,0.0,0.0,1.2598189115524292,1.2598189115524292,link6
1763442795.1223962,d4pg_train,FAR,train,7,0,-8.253069281081942,0,303,1,-0.062,-0.017,1.374,0.6512805,-0.03983808,0.08999199,0.29501578,-0.67787343,0.12681301,0.0,0.0,0.0,1.150899052619934,1.150899052619934,link6
1763442796.503445,d4pg_train,FAR,train,7,1,-8.030907161223919,0,304,1,-0.011,-0.062,1.337,1.0285766,-0.13943654,0.3180159,0.62962145,-1.0155817,0.64389205,0.0,0.0,0.0,1.269674301147461,1.269674301147461,link6
1763442797.8993998,d4pg_train,FAR,train,7,2,-7.617542642410175,0,305,1,-0.163,-0.355,1.208,1.1026722,-0.26065686,-0.061648432,0.4578122,-1.5726502,0.40744644,0.0,0.0,0.0,1.3930381536483765,1.3930381536483765,link6
1763442799.285526,d4pg_train,FAR,train,7,3,-7.219150437813546,0,306,1,-0.335,-0.522,1.031,0.964893,-0.4030181,-0.27571496,0.48317826,-1.6818249,0.35277787,0.0,0.0,0.0,1.55265212059021,1.55265212059021,link6
1763442800.6738503,d4pg_train,FAR,train,7,4,-7.360134509850214,0,307,1,-0.498,0.011,1.121,-0.18853423,-0.2941111,-0.36618444,1.4022651,-1.6209549,0.21815614,0.0,0.0,0.0,1.6727107763290405,1.6727107763290405,link6
1763442802.0641568,d4pg_train,FAR,train,7,5,-7.158564040856481,0,308,1,-0.596,-0.224,1.009,0.25738612,-0.40966314,-0.43742827,1.2093575,-1.664193,1.0165112,0.0,0.0,0.0,1.5677026510238647,1.5677026510238647,link6
1763442803.450309,d4pg_train,FAR,train,7,6,-7.071480527397181,0,309,1,-0.503,-0.461,0.961,0.6345054,-0.4407988,-0.49992853,1.0458356,-1.6219276,1.6382459,0.0,0.0,0.0,1.8237440586090088,1.8237440586090088,link6
1763442804.8387506,d4pg_train,FAR,train,7,7,-6.505384591500314,0,310,1,-0.235,-0.71,0.785,1.1431069,-0.36451942,-1.0813463,1.559868,-1.3080796,0.6986232,0.0,0.0,0.0,1.2558386325836182,1.2558386325836182,link6
1763442806.2230067,d4pg_train,FAR,train,7,8,-6.912706741642366,0,311,1,-0.645,-0.393,0.87,0.36432353,-0.41956088,-0.7526195,1.3393797,-1.3445488,0.7980021,0.0,0.0,0.0,1.4129563570022583,1.4129563570022583,link6
1763442807.6064389,d4pg_train,FAR,train,7,9,-7.990825215835499,0,312,1,-0.191,-0.126,1.312,0.3710432,-0.20019333,-0.0973872,2.174828,-1.0676141,0.750089,0.0,0.0,0.0,1.4252285957336426,1.4252285957336426,link6
1763442808.9904964,d4pg_train,FAR,train,7,10,-6.993424439517277,0,313,1,-0.268,-0.219,1.113,0.5674614,-0.26443353,-0.16667922,1.3131552,-2.4498253,1.3127477,0.0,0.0,0.0,1.4339996576309204,1.4339996576309204,link6
1763442810.3856902,d4pg_train,FAR,train,7,11,-6.654481995285517,0,314,1,-0.385,-0.303,0.995,0.6634564,-0.3675393,-0.4407908,1.1504984,-2.699119,1.310996,0.0,0.0,0.0,1.6122448444366455,1.6122448444366455,link6
1763442811.7750814,d4pg_train,FAR,train,7,12,-5.839516793736858,0,315,1,-0.716,-0.351,0.558,0.39232904,-0.38999,-1.4523256,1.6572351,-0.7935009,0.86440486,0.0,0.0,0.0,1.8838984966278076,1.8838984966278076,link6
1763442813.177989,d4pg_train,FAR,train,7,13,-7.204288029100035,0,316,1,-0.64,0.352,0.953,-0.63956976,-0.32714176,-0.7585416,1.4289246,-0.97367173,1.5729852,0.0,0.0,0.0,1.3507740497589111,1.3507740497589111,link6
1763442814.5704455,d4pg_train,FAR,train,7,14,-7.8830525147570985,0,317,1,-0.159,0.25,1.28,-1.1499416,-0.14873645,-0.23628335,1.2831104,-1.0892715,1.8150902,0.0,0.0,0.0,1.823366403579712,1.823366403579712,link6
1763442816.0438166,d4pg_train,FAR,train,7,15,-5.612414470437757,0,318,1,-0.063,-0.683,0.636,1.365091,-0.35031953,-1.3228018,1.2870288,-1.7365601,1.4035897,0.0,0.0,0.0,1.10952627658844,1.10952627658844,link6
1763442817.4251454,d4pg_train,FAR,train,7,16,-6.017890281216948,0,319,1,-0.356,-0.67,0.656,0.89803135,-0.46184447,-1.0699189,1.292489,-1.6156251,1.2616019,0.0,0.0,0.0,1.5475999116897583,1.5475999116897583,link6
1763442818.8091109,d4pg_train,FAR,train,7,17,-7.425047943497039,0,320,1,-0.651,-0.133,1.044,0.20513098,-0.19165105,-0.8583345,1.1131532,-0.34032032,1.3685185,0.0,0.0,0.0,1.8160418272018433,1.8160418272018433,link6
1763442820.2044857,d4pg_train,FAR,train,7,18,-7.156564881449826,0,321,1,-0.595,0.118,1.027,-0.3050531,-0.19010775,-0.6703906,0.7507433,-1.2609808,1.0610236,0.0,0.0,0.0,1.5528712272644043,1.5528712272644043,link6
1763442821.5852633,d4pg_train,FAR,train,7,19,-7.163150547872671,0,322,1,-0.404,0.208,1.104,-0.5502935,-0.1778691,-0.39547104,0.6931325,-1.731921,0.6521015,0.0,0.0,0.0,1.3841819763183594,1.3841819763183594,link6
1763442822.9687204,d4pg_train,FAR,train,7,20,-7.086561387748304,0,323,1,-0.721,0.11,0.929,-0.25416037,-0.39170456,-0.8274524,1.6970332,-1.2319052,0.5551194,0.0,0.0,0.0,1.9272547960281372,1.9272547960281372,link6
1763442824.3513296,d4pg_train,FAR,train,7,21,-6.96968922037193,0,324,1,-0.784,0.202,0.833,-0.3533075,-0.431482,-0.8195285,1.4066207,-1.0615225,0.7768237,0.0,0.0,0.0,1.6717175245285034,1.6717175245285034,link6
1763442825.7495067,d4pg_train,FAR,train,7,22,-7.517827708406761,0,325,1,-0.564,0.225,1.096,-0.45709983,-0.2604157,-0.5807788,1.0608526,-0.97964334,0.92987496,0.0,0.0,0.0,1.7761543989181519,1.7761543989181519,link6
1763442827.1544912,d4pg_train,FAR,train,7,23,-7.472960998727722,0,326,1,-0.631,-0.042,1.073,-0.056581087,-0.37625742,-0.48208937,1.6015224,-1.2821914,0.49018034,0.0,0.0,0.0,1.7392938137054443,1.7392938137054443,link6
1763442828.5405304,d4pg_train,FAR,train,7,24,-7.410345965490258,0,327,1,-0.604,-0.218,1.055,0.243931,-0.44987035,-0.3597457,1.552641,-1.482589,0.36885312,0.0,0.0,0.0,1.365129828453064,1.365129828453064,link6
1763442829.9381006,d4pg_train,FAR,train,7,25,-6.070351903532906,0,328,1,-0.484,-0.356,0.814,0.5500349,-0.21547522,-1.0488155,0.8514569,-1.885901,1.5695121,0.0,0.0,0.0,1.6478666067123413,1.6478666067123413,link6
1763442831.319285,d4pg_train,FAR,train,7,26,-6.95037788390124,0,329,1,-0.736,-0.155,0.881,0.12164256,-0.32920194,-0.8952442,1.2038859,-0.9212408,0.6947306,0.0,0.0,0.0,1.837294101715088,1.837294101715088,link6
1763442832.703304,d4pg_train,FAR,train,7,27,-7.690433792255736,0,330,1,-0.691,0.087,1.076,-0.1710317,-0.34553272,-0.5995908,1.439824,-0.6162023,0.19964863,0.0,0.0,0.0,1.1215029954910278,1.1215029954910278,link6
1763442834.1093569,d4pg_train,FAR,train,7,28,-7.573705086095549,0,331,1,-0.334,-0.237,1.194,0.49089134,-0.12359756,-0.48510915,1.1244813,-1.2307644,0.90396017,0.0,0.0,0.0,1.5598726272583008,1.5598726272583008,link6
1763442835.5017154,d4pg_train,FAR,train,7,29,-7.5102704824943,0,332,1,-0.465,-0.331,1.114,0.5173618,-0.29968393,-0.37316716,0.92824566,-1.2771596,0.60088986,0.0,0.0,0.0,1.5762234926223755,1.5762234926223755,link6
1763442836.8506274,d4pg_train,FAR,train,7,30,-7.610550079967724,0,333,1,-0.515,-0.254,1.131,0.37961888,-0.4055947,-0.13155675,0.77059877,-1.3616612,0.23135239,0.0,0.0,0.0,1.8802140951156616,1.8802140951156616,link6
1763442838.2385094,d4pg_train,FAR,train,7,31,-7.746938974292977,0,334,1,-0.426,-0.202,1.202,0.38814998,-0.33941424,0.001004111,0.6023289,-1.317926,0.83078516,0.0,0.0,0.0,1.4489816427230835,1.4489816427230835,link6
1763442839.6425767,d4pg_train,FAR,train,7,32,-7.5056032442133125,0,335,1,-0.325,-0.263,1.179,0.56290156,-0.346401,0.030572828,0.8520013,-1.7189388,0.87952626,0.0,0.0,0.0,1.5135040283203125,1.5135040283203125,link6
1763442841.0403287,d4pg_train,FAR,train,7,33,-7.1977577220857665,0,336,1,-0.197,-0.534,1.056,1.0742905,-0.26802474,-0.595616,1.3702291,-1.5096856,0.37598762,0.0,0.0,0.0,1.3707019090652466,1.3707019090652466,link6
1763442842.4347105,d4pg_train,FAR,train,7,34,-7.02247680399387,0,337,1,-0.521,-0.304,1.003,0.39755708,-0.36897543,-0.5242087,1.3543295,-1.8036952,0.82397944,0.0,0.0,0.0,1.6571472883224487,1.6571472883224487,link6
1763442843.8225114,d4pg_train,FAR,train,7,35,-7.069714461967724,0,338,1,-0.642,-0.007,0.988,-0.1638219,-0.42602274,-0.47869167,1.3146318,-1.6998283,0.9224054,0.0,0.0,0.0,1.5715540647506714,1.5715540647506714,link6
1763442845.2139342,d4pg_train,FAR,train,7,36,-6.407613017466163,0,339,1,-0.514,-0.343,0.871,0.53007346,-0.1254033,-1.1295629,1.0859916,-1.3237891,1.1785601,0.0,0.0,0.0,1.5825961828231812,1.5825961828231812,link6
1763442846.6043663,d4pg_train,FAR,train,7,37,-5.242552335496203,0,340,1,-0.661,0.178,0.543,-0.39454114,-0.28540108,-1.5133665,0.902521,-1.2464237,0.71650785,0.0,0.0,0.0,1.5377880334854126,1.5377880334854126,link6
1763442847.9867864,d4pg_train,FAR,train,7,38,-4.769021557380675,0,341,1,-0.212,0.664,0.382,-1.3153676,-0.4229699,-1.5856853,0.6911877,-1.1349393,0.3184738,0.0,0.0,0.0,1.3543235063552856,1.3543235063552856,link6
1763442849.3802562,d4pg_train,FAR,train,7,39,-6.452834044512173,0,342,1,-0.268,0.404,0.96,-0.9141863,-0.13332756,-0.7338997,0.13524668,-2.2298753,-0.042281512,0.0,0.0,0.0,1.4679176807403564,1.4679176807403564,link6
1763442850.770214,d4pg_train,FAR,train,7,40,-6.142385605263557,0,343,1,-0.452,0.32,0.861,-0.66100883,-0.1980259,-0.95372355,0.785948,-2.066764,-0.20096076,0.0,0.0,0.0,1.801262378692627,1.801262378692627,link6
1763442852.16594,d4pg_train,FAR,train,7,41,-7.099645764994053,0,344,1,-0.15,0.546,1.039,-1.3909161,-0.18165939,-0.6550366,0.7625468,-1.3755141,1.0118128,0.0,0.0,0.0,1.444085955619812,1.444085955619812,link6
1763442853.5532966,d4pg_train,FAR,train,7,42,-6.370598939348683,0,345,1,-0.716,0.006,0.784,-0.047374293,-0.31672025,-1.0253131,0.97214514,-1.4037001,0.6498934,0.0,0.0,0.0,1.6923863887786865,1.6923863887786865,link6
1763442854.9663868,d4pg_train,FAR,train,7,43,-6.391050193678356,0,346,1,-0.744,-0.226,0.728,0.16706783,-0.40131706,-0.99071205,0.9800305,-1.2561293,0.59808093,0.0,0.0,0.0,1.3774617910385132,1.3774617910385132,link6
1763442856.3531697,d4pg_train,FAR,train,7,44,-7.280413091524531,0,347,1,-0.157,0.122,1.197,-1.0352026,-0.33011892,0.26040432,1.8269817,-1.9362955,0.65211356,0.0,0.0,0.0,1.347066044807434,1.347066044807434,link6
1763442857.7429442,d4pg_train,FAR,train,7,45,-7.175371472443436,0,348,1,-0.564,-0.108,1.049,0.17856467,-0.4370068,-0.5145861,2.0685568,-1.8662457,0.80999845,0.0,0.0,0.0,1.3015029430389404,1.3015029430389404,link6
1763442859.123668,d4pg_train,FAR,train,7,46,-7.005385463580386,0,349,1,-0.406,-0.313,1.049,0.5170529,-0.27160504,-0.4990088,1.2411565,-1.9095265,0.7276568,0.0,0.0,0.0,1.5814183950424194,1.5814183950424194,link6
1763442860.508717,d4pg_train,FAR,train,7,47,-6.661919068742773,0,350,1,-0.536,0.267,0.935,-0.6133059,-0.3267743,-0.71372515,1.3501889,-2.026244,1.1583672,0.0,0.0,0.0,1.6277819871902466,1.6277819871902466,link6
1763442861.9087737,d4pg_train,FAR,train,7,48,-6.770612549633867,0,351,1,-0.404,0.47,0.943,-0.9607609,-0.45045048,-0.5211628,1.484229,-2.1766896,0.83603036,0.0,0.0,0.0,1.4036213159561157,1.4036213159561157,link6
1763442863.2900972,d4pg_train,FAR,train,7,49,-4.139713293533535,0,352,1,-0.539,-0.187,0.388,0.21370038,-0.36978388,-1.8892567,1.282908,-1.7944683,1.5638677,0.0,0.0,0.0,1.6772018671035767,1.6772018671035767,link6
1763442864.6964362,d4pg_train,FAR,train,7,50,-6.443787900410262,0,353,1,-0.754,0.228,0.73,-0.39199558,-0.35358515,-1.1078804,1.3052232,-0.93246186,1.1269679,0.0,0.0,0.0,1.7062734365463257,1.7062734365463257,link6
1763442866.1956334,d4pg_train,FAR,train,7,51,-7.29532403905319,0,354,1,-0.619,0.439,0.95,-0.6400045,-0.33408308,-0.8604538,1.2444508,-0.6159713,0.82424396,0.0,0.0,0.0,1.828590750694275,1.828590750694275,link6
1763442867.5789454,d4pg_train,FAR,train,7,52,-7.186700501433793,0,355,1,-0.597,0.16,1.026,-0.39376995,-0.26699904,-0.70797944,1.6320162,-1.3330574,0.6198849,0.0,0.0,0.0,1.6679997444152832,1.6679997444152832,link6
1763442868.966412,d4pg_train,FAR,train,7,53,-7.246452753347613,0,356,1,-0.686,0.003,0.994,-0.0747335,-0.38680485,-0.75367534,2.0221453,-1.3169843,0.7423445,0.0,0.0,0.0,1.768881916999817,1.768881916999817,link6
1763442870.3600721,d4pg_train,FAR,train,7,54,-7.589094768176914,0,357,1,-0.359,0.169,1.201,-0.6063273,-0.1478304,-0.5609112,2.104363,-1.3483528,1.2840614,0.0,0.0,0.0,1.5711162090301514,1.5711162090301514,link6
1763442871.8199155,d4pg_train,FAR,train,7,55,-7.190902025515018,0,358,1,-0.559,-0.049,1.059,-0.022873899,-0.39799452,-0.4655099,1.9443544,-1.8441211,0.7615709,0.0,0.0,0.0,1.6719590425491333,1.6719590425491333,link6
1763442873.2004008,d4pg_train,FAR,train,7,56,-6.890043284255287,0,359,1,-0.706,-0.173,0.889,0.11962204,-0.5576277,-0.5907922,1.6778421,-1.8512343,0.73611957,0.0,0.0,0.0,1.882707118988037,1.882707118988037,link6
1763442874.5797067,d4pg_train,FAR,train,7,57,-7.238784088535389,0,360,1,-0.445,0.223,1.099,-0.6321405,-0.21929976,-0.5926637,1.8360357,-1.6438955,1.3661853,0.0,0.0,0.0,1.5384150743484497,1.5384150743484497,link6
1763442875.9665656,d4pg_train,FAR,train,7,58,-6.862271693743883,0,361,1,-0.658,0.068,0.933,-0.18722011,-0.30371627,-1.0014821,2.0727522,-1.4649624,1.1088672,0.0,0.0,0.0,1.82688307762146,1.82688307762146,link6
1763442877.3613062,d4pg_train,FAR,train,7,59,-5.9956937263298675,0,362,1,-0.737,-0.214,0.64,0.18517591,-0.38987693,-1.428084,2.123822,-1.2242817,0.94351333,0.0,0.0,0.0,1.672742486000061,1.672742486000061,link6
1763442881.00605,d4pg_train,FAR,train,8,0,-7.527758176189058,0,363,1,-0.4,-0.218,1.169,0.5448345,-0.020943359,-0.6725507,0.28450367,-0.84367275,-0.17428206,0.0,0.0,0.0,1.3715935945510864,1.3715935945510864,link6
1763442882.3936205,d4pg_train,FAR,train,8,1,-5.353702330184016,0,364,1,-0.296,-0.492,0.683,0.9404123,-0.13160482,-1.3521645,0.51025695,-1.6937866,-0.2926604,0.0,0.0,0.0,1.3997248411178589,1.3997248411178589,link6
1763442883.7787921,d4pg_train,FAR,train,8,2,-6.519900659832721,0,365,1,-0.328,0.33,0.982,-0.7775152,-0.1774629,-0.65105647,0.4693725,-2.4110882,1.0411313,0.0,0.0,0.0,1.5182703733444214,1.5182703733444214,link6
1763442885.1685739,d4pg_train,FAR,train,8,3,-6.09742611938351,0,366,1,-0.473,0.297,0.849,-0.58809733,-0.25421506,-0.9195781,0.83486265,-2.30541,0.7365479,0.0,0.0,0.0,1.767805576324463,1.767805576324463,link6
1763442886.5516713,d4pg_train,FAR,train,8,4,-6.926822777220399,0,367,1,-0.559,0.264,0.975,-0.36582476,-0.21341744,-0.6902807,-0.0684345,-1.4143368,-0.12213028,0.0,0.0,0.0,1.7472947835922241,1.7472947835922241,link6
1763442887.9286165,d4pg_train,FAR,train,8,5,-6.834182036411954,0,368,1,-0.543,0.371,0.93,-0.59047264,-0.2846354,-0.6801618,0.25986063,-1.512001,0.17923631,0.0,0.0,0.0,1.6627384424209595,1.6627384424209595,link6
1763442889.3173873,d4pg_train,FAR,train,8,6,-6.528193664075131,0,369,1,-0.517,0.406,0.867,-0.6630865,-0.3190723,-0.7524415,0.3428956,-1.8275663,0.3151637,0.0,0.0,0.0,1.5852317810058594,1.5852317810058594,link6
1763442890.7063632,d4pg_train,FAR,train,8,7,-5.54911803896294,0,370,1,-0.45,0.407,0.698,-0.7608738,-0.18660042,-1.2558613,0.44891495,-1.759334,0.5415451,0.0,0.0,0.0,1.6729680299758911,1.6729680299758911,link6
1763442892.090773,d4pg_train,FAR,train,8,8,-6.251960642595705,0,371,1,-0.485,0.45,0.805,-0.84665704,-0.33282712,-0.8881348,1.0715792,-1.9065211,0.61380553,0.0,0.0,0.0,1.5476423501968384,1.5476423501968384,link6
1763442893.4852674,d4pg_train,FAR,train,8,9,-6.876503374941332,0,372,1,-0.422,0.368,1.0,-0.83433104,-0.37704325,-0.49084422,1.4862118,-2.1275134,0.6040065,0.0,0.0,0.0,1.5679184198379517,1.5679184198379517,link6
1763442894.9037323,d4pg_train,FAR,train,8,10,-6.196443790130093,0,373,1,-0.505,-0.418,0.798,0.6078217,-0.33373576,-1.18678,1.9973916,-1.9141423,0.7630783,0.0,0.0,0.0,1.590811848640442,1.590811848640442,link6
1763442896.3153749,d4pg_train,FAR,train,8,11,-6.134119163431971,0,374,1,-0.733,-0.301,0.646,0.23274915,-0.50913733,-1.1886762,1.8568642,-1.5603768,1.0646334,0.0,0.0,0.0,1.7284239530563354,1.7284239530563354,link6
1763442897.7162404,d4pg_train,FAR,train,8,12,-7.808253296336347,0,375,1,-0.095,0.594,1.154,-1.447255,-0.24280235,-0.57253915,1.3274513,-0.50976986,0.31163386,0.0,0.0,0.0,1.4311710596084595,1.4311710596084595,link6
1763442899.1009886,d4pg_train,FAR,train,8,13,-5.690620436444271,0,376,1,-0.709,-0.117,0.619,0.19657914,-0.4090607,-1.2167157,0.8433176,-1.8326918,0.45350254,0.0,0.0,0.0,1.4051326513290405,1.4051326513290405,link6
1763442900.4942238,d4pg_train,FAR,train,8,14,-4.810143214820108,0,377,1,-0.471,-0.444,0.473,0.6132744,-0.50358367,-1.3715765,0.68103737,-2.3126922,0.6044479,0.0,0.0,0.0,1.3565775156021118,1.3565775156021118,link6
1763442901.8895822,d4pg_train,FAR,train,8,15,-5.993018358721581,0,378,1,-0.287,0.677,0.676,-1.1199886,-0.32943404,-1.1205375,0.056859195,-1.3678379,-0.23664638,0.0,0.0,0.0,1.6289703845977783,1.6289703845977783,link6
1763442903.2720227,d4pg_train,FAR,train,8,16,-5.979752472252346,0,379,1,-0.447,0.573,0.682,-0.878895,-0.43253398,-0.94316226,0.15631908,-1.88031,0.09714207,0.0,0.0,0.0,1.5874464511871338,1.5874464511871338,link6
1763442904.6579275,d4pg_train,FAR,train,8,17,-6.4960247375036975,0,380,1,-0.456,0.364,0.912,-0.65307087,-0.35371697,-0.62279475,0.38856345,-2.3177066,0.54557675,0.0,0.0,0.0,1.765979528427124,1.765979528427124,link6
1763442906.038523,d4pg_train,FAR,train,8,18,-4.716374219611376,0,381,1,-0.587,-0.174,0.493,0.30890137,-0.36368075,-1.482912,0.36412698,-2.062779,0.8372067,0.0,0.0,0.0,1.7092851400375366,1.7092851400375366,link6
1763442907.4240897,d4pg_train,FAR,train,8,19,-5.156165246903357,0,382,1,-0.721,0.058,0.464,-0.1379821,-0.49070248,-1.3531402,0.7123002,-1.6833941,0.64727134,0.0,0.0,0.0,1.6358739137649536,1.6358739137649536,link6
1763442908.8218431,d4pg_train,FAR,train,8,20,-7.03014052879707,0,383,1,-0.139,0.68,0.944,-1.4616882,-0.30158323,-0.77697814,1.0776484,-1.1910903,0.17980453,0.0,0.0,0.0,1.4896323680877686,1.4896323680877686,link6
1763442910.222906,d4pg_train,FAR,train,8,21,-6.351802338797888,0,384,1,-0.774,-0.102,0.715,0.1421577,-0.35644573,-1.2390172,1.6819975,-1.0621495,0.17914309,0.0,0.0,0.0,1.5405648946762085,1.5405648946762085,link6
1763442911.6067495,d4pg_train,FAR,train,8,22,-6.210095512925222,0,385,1,-0.686,-0.37,0.681,0.41158855,-0.35877305,-1.3073068,1.7285485,-1.0180523,0.1903486,0.0,0.0,0.0,1.4409719705581665,1.4409719705581665,link6
1763442913.0696096,d4pg_train,FAR,train,8,23,-7.434305581551915,0,386,1,-0.227,0.241,1.194,-0.81922483,-0.028990077,-0.3648301,0.3492835,-1.4860756,0.39834738,0.0,0.0,0.0,1.435190200805664,1.435190200805664,link6
1763442914.4463415,d4pg_train,FAR,train,8,24,-6.340629162744736,0,387,1,-0.575,0.171,0.87,-0.2374711,-0.19833335,-0.93022287,0.22263297,-1.7481844,0.46263343,0.0,0.0,0.0,1.7186001539230347,1.7186001539230347,link6
1763442915.8514721,d4pg_train,FAR,train,8,25,-6.88864031707667,0,388,1,-0.593,0.16,0.97,-0.30411947,-0.3137135,-0.5353975,0.5369515,-1.7669377,0.73144287,0.0,0.0,0.0,1.7698683738708496,1.7698683738708496,link6
1763442917.2350764,d4pg_train,FAR,train,8,26,-6.158236446880287,0,389,1,-0.85,-0.07,0.571,0.06456144,-0.49966544,-1.1487101,0.7085926,-0.9156278,0.58233905,0.0,0.0,0.0,1.993330717086792,1.993330717086792,link6
1763442918.629639,d4pg_train,FAR,train,8,27,-5.89496308213084,0,390,1,-0.871,0.038,0.453,-0.12253219,-0.5693595,-1.2179385,0.8746883,-0.8808882,0.34735766,0.0,0.0,0.0,1.6144789457321167,1.6144789457321167,link6
1763442920.016264,d4pg_train,FAR,train,8,28,-7.326206764516376,0,391,1,-0.427,0.314,1.1,-0.68288916,-0.032977667,-0.8728338,1.0392413,-0.6610003,0.47045976,0.0,0.0,0.0,1.639459490776062,1.639459490776062,link6
1763442921.413508,d4pg_train,FAR,train,8,29,-6.402790077206776,0,392,1,-0.635,0.248,0.821,-0.43412763,-0.19957152,-1.1452328,0.99213004,-1.1290319,0.26625812,0.0,0.0,0.0,1.8232593536376953,1.8232593536376953,link6
1763442922.8204975,d4pg_train,FAR,train,8,30,-5.904780747399917,0,393,1,-0.678,0.296,0.649,-0.54309773,-0.3718378,-1.1828984,0.9424967,-1.3821411,0.1895338,0.0,0.0,0.0,1.190320372581482,1.190320372581482,link6
1763442924.2112603,d4pg_train,FAR,train,8,31,-6.328612328979783,0,394,1,-0.405,0.604,0.764,-1.0600307,-0.27103442,-1.1610286,1.097413,-1.0898479,0.20222057,0.0,0.0,0.0,1.7264785766601562,1.7264785766601562,link6
1763442925.604418,d4pg_train,FAR,train,8,32,-5.6568624300415395,0,395,1,-0.443,0.521,0.649,-0.9699196,-0.32830006,-1.2587966,1.0640041,-1.7570313,0.18389168,0.0,0.0,0.0,1.5044432878494263,1.5044432878494263,link6
1763442926.9899592,d4pg_train,FAR,train,8,33,-4.220185725580105,0,396,1,-0.262,0.454,0.469,-1.023,-0.25608486,-1.7031469,0.24339737,-2.0905983,0.35616368,0.0,0.0,0.0,1.5110563039779663,1.5110563039779663,link6
1763442928.3885217,d4pg_train,FAR,train,8,34,-5.022204822572029,0,397,1,-0.349,0.515,0.56,-1.0054994,-0.4029066,-1.3534439,0.8273814,-2.4434524,-0.45630676,0.0,0.0,0.0,1.6068063974380493,1.6068063974380493,link6
1763442929.7750068,d4pg_train,FAR,train,8,35,-4.743449695987878,0,398,1,-0.294,0.549,0.487,-1.1236584,-0.48090893,-1.5454322,1.0723995,-2.5618446,-0.44822472,0.0,0.0,0.0,1.3079553842544556,1.3079553842544556,link6
1763442931.1554663,d4pg_train,FAR,train,8,36,-5.0599214661585314,0,399,1,-0.51,0.36,0.567,-0.5468408,-0.34368086,-1.3075134,0.117791906,-2.1171315,0.8462423,0.0,0.0,0.0,1.75213623046875,1.75213623046875,link6
1763442932.542648,d4pg_train,FAR,train,8,37,-4.8736003261498,0,400,1,-0.441,0.464,0.5,-0.821734,-0.40089175,-1.4055469,0.36008796,-2.082121,-0.0837976,0.0,0.0,0.0,1.5605255365371704,1.5605255365371704,link6
1763442933.9347856,d4pg_train,FAR,train,8,38,-4.5119020564243,0,401,1,-0.301,0.514,0.459,-1.0655625,-0.37718844,-1.5958945,0.4918428,-2.033967,-0.6175902,0.0,0.0,0.0,1.3670368194580078,1.3670368194580078,link6
1763442935.282628,d4pg_train,FAR,train,8,39,-5.197808978656165,0,402,1,-0.263,0.57,0.597,-0.9863998,-0.32400322,-1.2974486,-0.56960267,-2.1606126,-0.24887195,0.0,0.0,0.0,1.5446045398712158,1.5446045398712158,link6
1763442936.6863077,d4pg_train,FAR,train,8,40,-4.6816846602776945,0,403,1,-0.427,0.445,0.478,-0.6351983,-0.3882113,-1.5281626,-0.33985132,-2.1460505,0.10006652,0.0,0.0,0.0,1.6480554342269897,1.6480554342269897,link6
1763442938.0715559,d4pg_train,FAR,train,8,41,-5.600266894714928,0,404,1,0.059,0.603,0.71,-1.6518267,-0.35639632,-1.1118878,0.510124,-2.643069,-0.28995088,0.0,0.0,0.0,1.2835004329681396,1.2835004329681396,link6
1763442939.4643266,d4pg_train,FAR,train,8,42,-4.507665576578725,0,405,1,-0.543,0.312,0.415,-0.5603543,-0.49172902,-1.5661796,0.76974237,-2.1634488,1.0432384,0.0,0.0,0.0,1.7674881219863892,1.7674881219863892,link6
1763442940.8440971,d4pg_train,FAR,train,8,43,-4.115190177245422,0,406,1,-0.496,0.373,0.292,-0.66811913,-0.6172413,-1.6303034,0.51666266,-2.0727184,1.0265424,0.0,0.0,0.0,1.3340176343917847,1.3340176343917847,link6
1763442942.248592,d4pg_train,FAR,train,8,44,-5.9426417834567165,0,407,1,0.341,0.662,0.653,-2.0058763,-0.3414302,-1.1071346,0.007180207,-1.3548443,0.8254749,0.0,0.0,0.0,1.0679597854614258,1.0679597854614258,link6
1763442943.6582146,d4pg_train,FAR,train,8,45,-4.889075081113048,0,408,1,-0.633,0.149,0.491,0.123563826,-0.42131376,-1.398793,-0.22318201,-2.2637587,0.49130076,0.0,0.0,0.0,1.3108476400375366,1.3108476400375366,link6
1763442945.046331,d4pg_train,FAR,train,8,46,-4.742037943263293,0,409,1,-0.404,-0.437,0.52,0.8425919,-0.42808384,-1.488312,-0.27921662,-2.7013738,0.21417643,0.0,0.0,0.0,1.0144139528274536,1.0144139528274536,link6
1763442946.447956,d4pg_train,FAR,train,8,47,-6.40066755087419,0,410,1,0.067,0.775,0.73,-1.5678693,-0.33585736,-1.0435002,-0.19994034,-0.99157155,0.5022346,0.0,0.0,0.0,1.4258567094802856,1.4258567094802856,link6
1763442947.837057,d4pg_train,FAR,train,8,48,-4.650961024768297,0,411,1,-0.304,0.604,0.379,-0.94634885,-0.41069058,-1.6109661,-0.20780063,-1.4797015,0.3466865,0.0,0.0,0.0,1.530819296836853,1.530819296836853,link6
1763442949.2269115,d4pg_train,FAR,train,8,49,-6.311241572663786,0,412,1,-0.465,0.497,0.802,-0.79240096,-0.19925359,-1.068683,0.18429776,-1.2030586,-0.07319292,0.0,0.0,0.0,1.7177202701568604,1.7177202701568604,link6
1763442950.6306076,d4pg_train,FAR,train,8,50,-5.320340860666444,0,413,1,-0.131,0.505,0.717,-1.186988,-0.13558847,-1.3211828,-0.5350704,-2.4654098,0.1739432,0.0,0.0,0.0,1.2946439981460571,1.2946439981460571,link6
1763442952.0183575,d4pg_train,FAR,train,8,51,-5.292687064798475,0,414,1,-0.183,0.506,0.699,-1.0236111,-0.23252039,-1.316166,-0.6806249,-2.5130358,0.25228378,0.0,0.0,0.0,1.8789857625961304,1.8789857625961304,link6
1763442953.4049125,d4pg_train,FAR,train,8,52,-4.409903210630127,0,415,1,-0.319,0.386,0.538,-0.77950513,-0.13478987,-1.6699103,-0.11508599,-2.0668643,-0.06101321,0.0,0.0,0.0,1.5267174243927002,1.5267174243927002,link6
1763442954.7846167,d4pg_train,FAR,train,8,53,-4.431991618064498,0,416,1,-0.249,0.507,0.476,-0.92490995,-0.25573102,-1.6738307,-0.687254,-1.8710935,0.15648188,0.0,0.0,0.0,1.4989359378814697,1.4989359378814697,link6
1763442956.1713028,d4pg_train,FAR,train,8,54,-4.418710532230633,0,417,1,-0.166,0.581,0.421,-1.0723507,-0.36301056,-1.7274462,-0.914977,-1.8116735,0.3140177,0.0,0.0,0.0,1.2861032485961914,1.2861032485961914,link6
1763442957.560867,d4pg_train,FAR,train,8,55,-4.078417917046608,0,418,1,-0.154,0.535,0.39,-1.1050338,-0.40989453,-1.730671,-0.6202876,-2.18391,-0.20133306,0.0,0.0,0.0,1.470803141593933,1.470803141593933,link6
1763442958.9493392,d4pg_train,FAR,train,8,56,-3.9758963787118615,0,419,1,-0.256,0.488,0.368,-0.9356704,-0.4137889,-1.7520078,-0.3871699,-2.1214485,0.24042456,0.0,0.0,0.0,1.5417124032974243,1.5417124032974243,link6
1763442960.3422956,d4pg_train,FAR,train,8,57,-4.101675776833484,0,420,1,-0.314,0.411,0.447,-0.81535965,-0.26639047,-1.7465163,-0.14461957,-2.0553193,0.6885762,0.0,0.0,0.0,1.5428011417388916,1.5428011417388916,link6
1763442961.7342405,d4pg_train,FAR,train,8,58,-4.646654359048392,0,421,1,-0.534,0.387,0.406,-0.45633394,-0.38032714,-1.6046923,-0.6022797,-1.4697239,0.019161753,0.0,0.0,0.0,1.7965584993362427,1.7965584993362427,link6
1763442963.1169648,d4pg_train,FAR,train,8,59,-5.093933197968412,0,422,1,-0.412,0.577,0.467,-0.85914963,-0.3807769,-1.4320081,-0.46040726,-1.393135,-0.062028453,0.0,0.0,0.0,1.1162141561508179,1.1162141561508179,link6
1763442966.771859,d4pg_train,FAR,train,9,0,-6.21511105506964,0,423,1,-0.616,0.098,0.827,-0.06975647,-0.08570683,-1.1757586,-0.14739053,-1.1511625,0.009346797,0.0,0.0,0.0,1.7589610815048218,1.7589610815048218,link6
1763442968.1534622,d4pg_train,FAR,train,9,1,-5.02942265119411,0,424,1,-0.541,0.314,0.558,-0.44895494,-0.18330133,-1.5065973,-0.20664178,-1.3934743,0.13517585,0.0,0.0,0.0,1.4948121309280396,1.4948121309280396,link6
1763442969.5455813,d4pg_train,FAR,train,9,2,-5.972120865670918,0,425,1,-0.029,0.562,0.821,-1.4525692,-0.075197496,-1.1266375,0.012882299,-1.6309468,0.47761798,0.0,0.0,0.0,1.338739275932312,1.338739275932312,link6
1763442970.9315577,d4pg_train,FAR,train,9,3,-5.187672587956777,0,426,1,-0.372,0.451,0.637,-0.8237142,-0.23110177,-1.3375794,0.2563796,-2.106597,0.3389174,0.0,0.0,0.0,1.670664668083191,1.670664668083191,link6
1763442972.3269773,d4pg_train,FAR,train,9,4,-4.729733339895547,0,427,1,-0.438,0.433,0.492,-0.75285727,-0.40227777,-1.4559869,0.03881118,-2.1686792,0.5368946,0.0,0.0,0.0,1.3223838806152344,1.3223838806152344,link6
1763442973.717019,d4pg_train,FAR,train,9,5,-4.693735825066442,0,428,1,0.144,0.607,0.472,-1.7668029,-0.4554538,-1.4522443,0.1788663,-2.3325438,0.33409885,0.0,0.0,0.0,1.2058535814285278,1.2058535814285278,link6
1763442975.1127853,d4pg_train,FAR,train,9,6,-4.373674977557219,0,429,1,-0.3,0.559,0.359,-0.9636882,-0.5273953,-1.5352197,-0.015980339,-2.051047,0.2969229,0.0,0.0,0.0,1.7805272340774536,1.7805272340774536,link6
1763442976.4963875,d4pg_train,FAR,train,9,7,-4.43261031387016,0,430,1,-0.576,0.279,0.369,-0.38684884,-0.48168913,-1.603118,-0.22420536,-1.7696977,0.26754466,0.0,0.0,0.0,1.4341529607772827,1.4341529607772827,link6
1763442977.895552,d4pg_train,FAR,train,9,8,-4.8546475562737506,0,431,1,0.098,0.546,0.589,-1.6499333,-0.14959356,-1.4765778,-0.2628557,-1.9615926,0.9586002,0.0,0.0,0.0,1.1431024074554443,1.1431024074554443,link6
1763442979.2831342,d4pg_train,FAR,train,9,9,-4.480486725899795,0,432,1,-0.008,0.528,0.528,-1.3511219,-0.24615654,-1.6630207,-0.54439694,-2.32764,0.7233517,0.0,0.0,0.0,1.5387709140777588,1.5387709140777588,link6
1763442980.6772206,d4pg_train,FAR,train,9,10,-5.672027876018164,0,433,1,0.08,0.71,0.619,-1.5015769,-0.4115321,-1.1839844,-0.9058088,-1.8553371,0.13466711,0.0,0.0,0.0,1.3207076787948608,1.3207076787948608,link6
1763442982.0633824,d4pg_train,FAR,train,9,11,-4.02711360930046,0,434,1,-0.384,0.403,0.375,-0.6223989,-0.45808437,-1.7744099,-0.6866212,-2.3075082,-0.21939188,0.0,0.0,0.0,1.611931324005127,1.611931324005127,link6
1763442983.4405465,d4pg_train,FAR,train,9,12,-3.6666360188131737,0,435,1,-0.373,0.328,0.356,-0.5525275,-0.44423562,-1.9381876,-0.7982382,-2.4657304,-0.08030342,0.0,0.0,0.0,1.3397488594055176,1.3397488594055176,link6
1763442984.8511555,d4pg_train,FAR,train,9,13,-2.3504888528501886,0,436,1,0.187,0.19,0.287,-2.005925,-0.26575285,-2.4547248,-0.51223737,-2.1234982,0.118625574,0.0,0.0,0.0,1.00355064868927,1.00355064868927,link6
1763442986.2463183,d4pg_train,FAR,train,9,14,-3.4120963774723143,0,437,1,-0.226,0.368,0.37,-0.70902973,-0.35274518,-2.06768,-0.89396405,-2.5724976,0.4678097,0.0,0.0,0.0,1.6821191310882568,1.6821191310882568,link6
1763442987.6336715,d4pg_train,FAR,train,9,15,-4.382596681166275,0,438,1,-0.559,0.033,0.469,0.018471692,-0.44315594,-1.7177572,-1.0848417,-2.9035995,0.5406559,0.0,0.0,0.0,1.3966878652572632,1.3966878652572632,link6
1763442989.028481,d4pg_train,FAR,train,9,16,-5.890105127488013,0,439,1,0.216,0.572,0.768,-1.8046395,-0.35879907,-1.0755777,-1.7000085,-2.6859193,0.42242068,0.0,0.0,0.0,1.0622848272323608,1.0622848272323608,link6
1763442990.4130406,d4pg_train,FAR,train,9,17,-5.354899273028929,0,440,1,-0.014,0.629,0.633,-1.4035491,-0.41810966,-1.38356,-1.9798605,-2.771345,0.31386214,0.0,0.0,0.0,1.5471341609954834,1.5471341609954834,link6
1763442991.7994547,d4pg_train,FAR,train,9,18,-5.069364562655793,0,441,1,-0.589,0.178,0.579,-0.12777697,-0.34948662,-1.7105178,-2.4320047,-2.3012989,-0.8532447,0.0,0.0,0.0,1.7674484252929688,1.7674484252929688,link6
1763442993.1900086,d4pg_train,FAR,train,9,19,-3.4259180022404867,0,442,1,-0.13,0.345,0.436,-0.997432,-0.19249049,-2.2927542,-1.8906264,-2.8072057,0.2867471,0.0,0.0,0.0,1.2285866737365723,1.2285866737365723,link6
1763442994.5789223,d4pg_train,FAR,train,9,20,-3.085024325301234,0,443,1,0.051,0.306,0.41,-1.4876086,-0.16116557,-2.4098845,-1.4311982,-2.8325315,0.2484374,0.0,0.0,0.0,1.0119268894195557,1.0119268894195557,link6
1763442995.981739,d4pg_train,FAR,train,9,21,-3.762220156383426,0,444,1,-0.127,0.409,0.458,-1.1578593,-0.2660286,-2.0803232,-1.4931359,-3.1247458,1.0759771,0.0,0.0,0.0,1.3845652341842651,1.3845652341842651,link6
1763442997.3691564,d4pg_train,FAR,train,9,22,-3.585753497416385,0,445,1,-0.196,0.412,0.386,-0.9386105,-0.3863703,-2.035881,-0.85601544,-2.712002,0.8217994,0.0,0.0,0.0,1.489820957183838,1.489820957183838,link6
1763442998.757722,d4pg_train,FAR,train,9,23,-3.5987219709021474,0,446,1,-0.198,0.445,0.35,-0.9929764,-0.4284028,-1.9392252,-0.67025435,-2.3825042,0.4735567,0.0,0.0,0.0,1.1078212261199951,1.1078212261199951,link6
1763443000.148937,d4pg_train,FAR,train,9,24,-4.362260242178199,0,447,1,-0.005,0.538,0.489,-1.3525468,-0.23534043,-1.7159462,-0.6886066,-2.040842,0.2297442,0.0,0.0,0.0,1.328135371208191,1.328135371208191,link6
1763443001.5572839,d4pg_train,FAR,train,9,25,-3.9777231539788525,0,448,1,-0.099,0.485,0.441,-1.1938697,-0.3013851,-1.8322365,-0.5415752,-2.4529316,-0.06811866,0.0,0.0,0.0,1.4114763736724854,1.4114763736724854,link6
1763443002.9533222,d4pg_train,FAR,train,9,26,-4.068343923492332,0,449,1,-0.152,0.432,0.5,-1.1163588,-0.2498693,-1.9058287,-0.557517,-2.8542595,-0.40884495,0.0,0.0,0.0,1.041940689086914,1.041940689086914,link6
1763443004.3429465,d4pg_train,FAR,train,9,27,-3.6991092783792814,0,450,1,0.156,0.407,0.436,-1.7038451,-0.23844944,-2.027023,-0.9648133,-2.505928,0.22062145,0.0,0.0,0.0,1.122475028038025,1.122475028038025,link6
1763443005.734359,d4pg_train,FAR,train,9,28,-3.53963153927642,0,451,1,0.007,0.427,0.407,-1.38756,-0.31888026,-2.117664,-1.0704181,-2.764312,0.38884276,0.0,0.0,0.0,1.4415102005004883,1.4415102005004883,link6
1763443007.1208246,d4pg_train,FAR,train,9,29,-4.057427701973232,0,452,1,0.478,0.27,0.394,-2.3384035,-0.28069502,-2.0261137,-1.5603875,-1.6872228,0.18242064,0.0,0.0,0.0,0.7415953874588013,0.7415953874588013,link6
1763443008.5077095,d4pg_train,FAR,train,9,30,-3.108177190457516,0,453,1,-0.057,0.384,0.343,-1.095419,-0.31849918,-2.3986335,-1.7699783,-2.352844,0.16822204,0.0,0.0,0.0,1.4186533689498901,1.4186533689498901,link6
1763443009.8984873,d4pg_train,FAR,train,9,31,-2.904225456842941,0,454,1,-0.213,0.236,0.365,-0.60735154,-0.27743235,-2.485436,-1.8215283,-2.8096097,0.2415878,0.0,0.0,0.0,1.2735694646835327,1.2735694646835327,link6
1763443011.2875679,d4pg_train,FAR,train,9,32,-3.3873132495153,0,455,1,0.088,0.34,0.442,-1.6645812,-0.17349061,-2.252969,-0.9808,-2.9767685,-0.041249163,0.0,0.0,0.0,1.1339062452316284,1.1339062452316284,link6
1763443012.6915572,d4pg_train,FAR,train,9,33,-2.9173990956748064,0,456,1,0.02,0.324,0.362,-1.4576269,-0.31655264,-2.4244108,-1.1004983,-2.9880342,-0.28371468,0.0,0.0,0.0,1.2609102725982666,1.2609102725982666,link6
1763443014.078548,d4pg_train,FAR,train,9,34,-2.7461130081563185,0,457,1,-0.026,0.315,0.331,-1.3076302,-0.3928403,-2.4940343,-1.4031769,-2.995092,-0.3480422,0.0,0.0,0.0,1.0904393196105957,1.0904393196105957,link6
1763443015.4737031,d4pg_train,FAR,train,9,35,-3.8818486153287086,0,458,1,0.037,0.489,0.422,-1.502783,-0.39858052,-1.9779472,-1.5553659,-2.9352944,0.8222,0.0,0.0,0.0,1.3035616874694824,1.3035616874694824,link6
1763443016.8743782,d4pg_train,FAR,train,9,36,-3.9267552796749707,0,459,1,0.065,0.52,0.392,-1.5860924,-0.467679,-1.9262066,-1.4170438,-2.8958142,0.34908193,0.0,0.0,0.0,1.057511568069458,1.057511568069458,link6
1763443018.2536368,d4pg_train,FAR,train,9,37,-4.8276185892713555,0,460,1,-0.36,0.419,0.585,-0.77042544,-0.33398622,-1.5908084,-1.1775472,-3.136996,0.52905893,0.0,0.0,0.0,1.603546380996704,1.603546380996704,link6
1763443019.6315932,d4pg_train,FAR,train,9,38,-4.800584422220724,0,461,1,-0.036,0.607,0.52,-1.4340191,-0.45271292,-1.5611491,-1.6138731,-2.8714821,0.8058877,0.0,0.0,0.0,1.171864628791809,1.171864628791809,link6
1763443021.018085,d4pg_train,FAR,train,9,39,-4.614862330733343,0,462,1,-0.041,0.626,0.445,-1.3477191,-0.5549242,-1.6645701,-1.9484673,-2.8215237,0.70435774,0.0,0.0,0.0,1.6800813674926758,1.6800813674926758,link6
1763443022.4098785,d4pg_train,FAR,train,9,40,-3.548008667110591,0,463,1,-0.162,0.466,0.326,-1.1471747,-0.5642086,-2.0786169,-2.2944052,-3.0886033,-0.085566886,0.0,0.0,0.0,1.4000027179718018,1.4000027179718018,link6
1763443023.8029783,d4pg_train,FAR,train,9,41,-2.8665114738111597,0,464,1,-0.059,0.389,0.271,-1.3213756,-0.59352744,-2.3651602,-2.3697531,-3.1206691,0.11184946,0.0,0.0,0.0,1.2229334115982056,1.2229334115982056,link6
1763443025.1924124,d4pg_train,FAR,train,9,42,-2.6016842302973022,0,465,1,-0.011,0.309,0.304,-1.408792,-0.4782766,-2.539375,-2.4528959,-3.140781,0.45082727,0.0,0.0,0.0,1.2348331212997437,1.2348331212997437,link6
1763443026.5703044,d4pg_train,FAR,train,9,43,-3.499743989140109,0,466,1,-0.093,0.447,0.363,-1.1982007,-0.40836108,-2.2752097,-2.5496888,-2.5927947,0.61076754,0.0,0.0,0.0,1.3787556886672974,1.3787556886672974,link6
1763443027.9554355,d4pg_train,FAR,train,9,44,-3.1804537053180786,0,467,1,-0.123,0.427,0.289,-1.0844579,-0.5132409,-2.399698,-2.4794142,-2.4772663,0.366013,0.0,0.0,0.0,1.3542900085449219,1.3542900085449219,link6
