QuanPM-doosan/DoosanRobot_Reinforcement_Learning/ros2_ws/rl_logs/20251126_035017_ddpg_train.csv
ts,run_tag,mode,phase,ep,step,reward,done,mem_len,learn_flag,ee_x,ee_y,ee_z,j1,j2,j3,j4,j5,j6,sphere_x,sphere_y,sphere_z,dist_out,signed,closest_link
1764103822.3822489,ddpg_train,FAR,train,1,0,-6.399079134218604,0,1,0,0.097,0.083,1.044,0.6951944,0.22366634,-0.14254199,-0.4548658,-0.030262684,-0.5038754,0.0,0.0,0.0,0.4035099744796753,0.4035099744796753,link6
1764103823.7601008,ddpg_train,FAR,train,1,1,-6.353478761193529,0,2,0,0.067,0.069,1.046,0.8068893,0.20489539,-0.1888763,-0.6399022,0.004161342,-0.18071519,0.0,0.0,0.0,0.4585270285606384,0.4585270285606384,link6
1764103825.137266,ddpg_train,FAR,train,1,2,-6.367114591516006,0,3,0,0.073,0.094,1.043,0.91618615,0.24525404,-0.19471677,-0.5530742,-0.008969703,-0.02271645,0.0,0.0,0.0,0.429031103849411,0.429031103849411,link6
1764103826.5141528,ddpg_train,FAR,train,1,3,-6.383088493002262,0,4,0,0.142,0.251,1.008,1.0538747,0.30881384,0.04296271,-0.1158796,-0.043923743,-0.07738772,0.0,0.0,0.0,0.3990620970726013,0.3990620970726013,link6
1764103827.8948805,ddpg_train,FAR,train,1,4,-6.423793979868746,0,5,0,0.205,0.282,0.985,0.9377027,0.37507543,0.046915244,0.016692588,-0.04991503,-0.016647171,0.0,0.0,0.0,0.3476904630661011,0.3476904630661011,link6
1764103829.2734425,ddpg_train,FAR,train,1,5,-6.49280949491828,0,6,0,0.262,0.308,0.959,0.8575863,0.48298785,-0.0108300755,-0.039769266,-0.055256385,-0.11883158,0.0,0.0,0.0,0.300284743309021,0.300284743309021,link6
1764103830.6550753,ddpg_train,FAR,train,1,6,-6.415669460380228,0,7,0,0.236,0.295,0.972,0.8962101,0.46204528,-0.051617533,-0.0455546,-0.008752771,-0.38675085,0.0,0.0,0.0,0.3450435996055603,0.3450435996055603,link6
1764103832.029297,ddpg_train,FAR,train,1,7,-6.278401440095566,0,8,0,0.337,0.422,0.875,0.89720374,0.63357496,0.028561968,0.020043558,-0.028105814,-0.31531754,0.0,0.0,0.0,0.38262125849723816,0.38262125849723816,link6
1764103833.4115741,ddpg_train,FAR,train,1,8,-6.27138361920608,0,9,0,0.402,0.494,0.791,0.88789785,0.7702552,0.03694851,0.097920366,-0.044043634,-0.3370658,0.0,0.0,0.0,0.3334594964981079,0.3334594964981079,link6
1764103834.793996,ddpg_train,FAR,train,1,9,-6.335414699747659,0,10,0,0.357,0.384,0.883,0.82177067,0.71143204,-0.16008548,0.37127697,-0.008691514,-1.308202,0.0,0.0,0.0,0.33592358231544495,0.33592358231544495,link6
1764103836.1773746,ddpg_train,FAR,train,1,10,-6.428275333757429,0,11,0,0.45,0.416,0.814,0.74230677,0.7847526,-0.073996335,0.28278428,0.0018345147,-1.4288902,0.0,0.0,0.0,0.2764967679977417,0.2764967679977417,link6
1764103837.56118,ddpg_train,FAR,train,1,11,-6.302374919640597,0,12,0,0.487,0.409,0.792,0.7014057,0.77272147,0.03271061,0.18203881,0.0064046625,-1.3959683,0.0,0.0,0.0,0.31797727942466736,0.31797727942466736,link6
1764103838.9481778,ddpg_train,FAR,train,1,12,-6.274484272608197,0,13,0,0.433,0.405,0.821,0.75160384,0.5710694,0.27250236,0.13383512,0.012482053,-0.93932533,0.0,0.0,0.0,0.32273975014686584,0.32273975014686584,link6
1764103840.3249311,ddpg_train,FAR,train,1,13,-6.296512273494536,0,14,0,0.515,0.435,0.736,0.6943202,0.68825024,0.30578843,0.075768,-0.029411947,-0.8554066,0.0,0.0,0.0,0.27868160605430603,0.27868160605430603,link6
1764103841.7004461,ddpg_train,FAR,train,1,14,-6.343499009152298,0,15,0,0.55,0.404,0.727,0.6333891,0.7203369,0.31492516,0.049031742,-0.07769189,-0.76860714,0.0,0.0,0.0,0.2628900110721588,0.2628900110721588,link6
1764103845.3454888,ddpg_train,FAR,train,2,0,-6.5152087987094545,0,16,0,0.299,0.123,0.993,0.41779077,0.31040928,0.15764189,0.25002784,-0.046840053,-0.18396293,0.0,0.0,0.0,0.29982900619506836,0.29982900619506836,link6
1764103846.7320473,ddpg_train,FAR,train,2,1,-6.92479073481073,0,17,0,0.498,0.408,0.771,0.68512815,0.6558961,0.3015702,0.40060192,-0.07787096,-0.2631838,0.0,0.0,0.0,0.17168861627578735,0.17168861627578735,link6
1764103848.1144545,ddpg_train,FAR,train,2,2,-6.82342959450727,0,18,0,0.423,0.263,0.9,0.55910736,0.48619705,0.18981414,0.29967916,-0.039006524,-0.0051653245,0.0,0.0,0.0,0.20377682149410248,0.20377682149410248,link6
1764103849.4979994,ddpg_train,FAR,train,2,3,-6.782380664369958,0,19,0,0.448,0.229,0.901,0.46441174,0.53635836,0.081805795,0.2838539,-0.020124346,-0.11197057,0.0,0.0,0.0,0.2136041671037674,0.2136041671037674,link6
1764103850.8737717,ddpg_train,FAR,train,2,4,-7.471788649278734,0,20,0,0.347,0.123,0.976,0.3344939,0.48268536,-0.08573913,0.2517948,-0.00012673266,-0.20780817,0.0,0.0,0.0,0.14163194596767426,0.14163194596767426,link6
1764103852.2507515,ddpg_train,FAR,train,2,5,-6.902985567943414,0,21,0,0.346,0.118,0.977,0.3393121,0.45994753,-0.104809605,-0.20134689,0.036755454,-0.036859628,0.0,0.0,0.0,0.2049393206834793,0.2049393206834793,link6
1764103853.6289098,ddpg_train,FAR,train,2,6,-9.406425927326133,0,22,0,0.445,0.135,0.925,0.2947061,0.5052955,0.06748725,-0.16465554,0.008992498,-0.23465773,0.0,0.0,0.0,0.04479941353201866,0.04479941353201866,link6
1764103855.1245923,ddpg_train,NEAR,train,2,7,-6.860991096178223,0,23,0,0.286,0.027,1.005,0.094417855,0.2293407,0.17697902,-0.052496944,0.0032706873,-0.68107,0.0,0.0,0.0,0.21379454433918,0.21379454433918,link6
1764103856.5027294,ddpg_train,FAR,train,2,8,-6.662861193065877,0,24,0,0.327,0.135,0.982,0.41516772,0.3660948,0.06542066,-0.09141607,-0.0059156762,-0.4424678,0.0,0.0,0.0,0.25252851843833923,0.25252851843833923,link6
1764103857.8813024,ddpg_train,FAR,train,2,9,-6.947931074520723,0,25,0,0.367,0.237,0.942,0.57034385,0.49921283,0.046266057,-0.052460015,-0.020455416,-0.55430967,0.0,0.0,0.0,0.1941165328025818,0.1941165328025818,link6
1764103859.2595284,ddpg_train,FAR,train,2,10,-7.142778467592402,0,26,0,0.472,0.24,0.879,0.47490838,0.5375078,0.18318689,0.25061557,-0.07267844,-1.4081901,0.0,0.0,0.0,0.1623782217502594,0.1623782217502594,link6
1764103860.640905,ddpg_train,FAR,train,2,11,-6.375971916297399,0,27,0,0.509,0.337,0.803,0.5949802,0.57827353,0.32685506,0.1972862,-0.057333317,-1.1004769,0.0,0.0,0.0,0.2737000584602356,0.2737000584602356,link6
1764103862.0212529,ddpg_train,FAR,train,2,12,-6.164308608151922,0,28,0,0.475,0.405,0.782,0.71083546,0.5827311,0.37891027,0.066230014,-0.03932025,-0.8814843,0.0,0.0,0.0,0.34371086955070496,0.34371086955070496,link6
1764103863.3985002,ddpg_train,FAR,train,2,13,-6.555068941600091,0,29,0,0.367,0.32,0.912,0.7120215,0.53021383,0.0739656,-0.30307445,-0.03212347,-0.7226152,0.0,0.0,0.0,0.2653544545173645,0.2653544545173645,link6
1764103864.773268,ddpg_train,FAR,train,2,14,-6.405172764108619,0,30,0,0.351,0.313,0.923,0.72965264,0.570296,-0.061034583,-0.08613367,-0.041809715,-0.5860103,0.0,0.0,0.0,0.3271521329879761,0.3271521329879761,link6
1764103868.4146821,ddpg_train,FAR,train,3,0,-6.405994699894578,0,31,0,0.166,0.153,1.017,0.7656347,0.43035206,-0.30057734,0.05525167,-0.021104585,-0.92138076,0.0,0.0,0.0,0.347078412771225,0.347078412771225,link6
1764103869.7979527,ddpg_train,FAR,train,3,1,-6.317147833803405,0,32,0,0.188,0.169,1.004,0.724919,0.47733513,-0.36070338,0.110938504,-0.007854962,-0.6064032,0.0,0.0,0.0,0.38619881868362427,0.38619881868362427,link6
1764103871.187224,ddpg_train,FAR,train,3,2,-6.362036542838733,0,33,1,0.161,0.125,1.016,0.6582718,0.4363118,-0.37679762,0.12170447,0.008441722,-0.2527351,0.0,0.0,0.0,0.35434192419052124,0.35434192419052124,link6
1764103872.5829728,ddpg_train,FAR,train,3,3,-6.442373769368447,0,34,1,0.205,0.109,1.007,0.48620477,0.48431414,-0.4093427,-0.24606651,0.026371159,-0.1839377,0.0,0.0,0.0,0.30288371443748474,0.30288371443748474,link6
1764103873.9662507,ddpg_train,FAR,train,3,4,-6.640414882065157,0,35,1,0.29,0.135,0.979,0.438892,0.57923734,-0.38915503,-0.3488118,0.028237445,-0.35376012,0.0,0.0,0.0,0.23842178285121918,0.23842178285121918,link6
1764103875.353146,ddpg_train,FAR,train,3,5,-6.343603424894411,0,36,1,0.322,0.135,0.971,0.39901128,0.59943664,-0.35125083,-0.44120014,0.03171277,-0.4507001,0.0,0.0,0.0,0.34906846284866333,0.34906846284866333,link6
1764103876.7373488,ddpg_train,FAR,train,3,6,-6.3796580392509705,0,37,1,0.168,0.088,1.022,0.4917498,0.40216026,-0.34953168,-0.38047776,0.03005778,-0.16465539,0.0,0.0,0.0,0.35545551776885986,0.35545551776885986,link6
1764103878.1270347,ddpg_train,FAR,train,3,7,-6.302186403299298,0,38,1,0.178,0.074,1.019,0.4029697,0.423912,-0.3869982,-0.23423393,0.049623836,-0.22957624,0.0,0.0,0.0,0.4138337969779968,0.4138337969779968,link6
1764103879.5131414,ddpg_train,FAR,train,3,8,-6.3518960323602816,0,39,1,0.147,0.042,1.023,0.2703648,0.39977646,-0.42220485,0.24337952,0.034108914,-0.6357942,0.0,0.0,0.0,0.35354238748550415,0.35354238748550415,link6
1764103880.9462304,ddpg_train,FAR,train,3,9,-6.427859309357839,0,40,1,0.196,0.086,1.017,0.42192215,0.42103386,-0.33043477,-0.08961558,0.0013863024,-0.35544756,0.0,0.0,0.0,0.32587355375289917,0.32587355375289917,link6
1764103882.3328056,ddpg_train,FAR,train,3,10,-6.384728264008168,0,41,1,0.223,0.133,1.008,0.53916353,0.44892326,-0.27799997,-0.18325356,-0.014502291,-0.37999964,0.0,0.0,0.0,0.358055055141449,0.358055055141449,link6
1764103883.711377,ddpg_train,FAR,train,3,11,-6.55320638948064,0,42,1,0.215,0.085,1.019,0.37641633,0.38430607,-0.21070658,0.07694556,-0.06505411,-0.98615706,0.0,0.0,0.0,0.28688502311706543,0.28688502311706543,link6
1764103885.0950618,ddpg_train,FAR,train,3,12,-6.341801915851644,0,43,1,0.155,0.08,1.033,0.49078193,0.3009219,-0.20123059,0.077042684,-0.083547086,-1.1067834,0.0,0.0,0.0,0.4490703344345093,0.4490703344345093,link6
1764103886.4781368,ddpg_train,FAR,train,3,13,-6.359660999251594,0,44,1,0.076,0.044,1.045,0.532785,0.21985719,-0.20225765,0.06849906,-0.084283814,-1.201736,0.0,0.0,0.0,0.43041735887527466,0.43041735887527466,link6
1764103887.8591454,ddpg_train,FAR,train,3,14,-6.649271328239541,0,45,1,0.232,0.07,1.019,0.2943267,0.17809346,0.18280396,0.14463933,-0.02363439,-1.2148576,0.0,0.0,0.0,0.2617948651313782,0.2617948651313782,link6
1764103891.5019104,ddpg_train,FAR,train,4,0,-7.102127330667892,0,46,1,0.09,0.008,1.051,0.10792876,0.08512915,0.06640926,0.13464715,-0.005890401,-0.4982019,0.0,0.0,0.0,0.18670865893363953,0.18670865893363953,link6
1764103892.964231,ddpg_train,FAR,train,4,1,-6.567852828268227,0,47,1,0.251,0.141,0.993,0.5135175,0.13579518,0.36278182,0.13859564,-0.029663779,-1.8316956,0.0,0.0,0.0,0.26186510920524597,0.26186510920524597,link6
1764103894.3454816,ddpg_train,FAR,train,4,2,-6.527103579578257,0,48,1,0.29,0.176,0.962,0.54818094,0.13521649,0.48673445,0.32830882,-0.028064366,-1.6991495,0.0,0.0,0.0,0.2508992850780487,0.2508992850780487,link6
1764103895.7350783,ddpg_train,FAR,train,4,3,-6.197323553839722,0,49,1,0.285,0.183,0.955,0.5773759,0.10718121,0.5316527,0.4067112,-0.023916127,-1.5355918,0.0,0.0,0.0,0.3749600350856781,0.3749600350856781,link6
1764103897.1234016,ddpg_train,FAR,train,4,4,-6.362671701982024,0,50,1,0.148,0.107,1.02,0.62840366,2.9422108e-05,0.38425797,0.09185843,-0.015190127,-0.92078626,0.0,0.0,0.0,0.35380589962005615,0.35380589962005615,link6
1764103898.503611,ddpg_train,FAR,train,4,5,-6.297178764330421,0,51,1,0.075,0.07,1.04,0.77202046,-0.056680772,0.2868657,0.047422092,-0.014873212,-0.9645344,0.0,0.0,0.0,0.5225375890731812,0.5225375890731812,link6
1764103899.8955388,ddpg_train,FAR,train,4,6,-6.347963997207972,0,52,1,-0.028,-0.034,1.052,0.8890169,-0.13632163,0.16200289,0.017599178,-0.009050774,-1.0611264,0.0,0.0,0.0,0.5101629495620728,0.5101629495620728,link6
1764103901.2861192,ddpg_train,FAR,train,4,7,-6.38738125859257,0,53,1,0.06,0.053,1.049,0.7275303,0.0014781476,0.16060258,-0.16564667,0.034639336,-0.9652339,0.0,0.0,0.0,0.4198652505874634,0.4198652505874634,link6
1764103902.6630187,ddpg_train,FAR,train,4,8,-6.37449653849172,0,54,1,0.077,0.06,1.049,0.65578437,0.05570193,0.0948572,-0.1466342,0.0017661233,-0.8710483,0.0,0.0,0.0,0.45411890745162964,0.45411890745162964,link6
1764103904.0480676,ddpg_train,FAR,train,4,9,-6.56695871876484,0,55,1,0.224,0.118,1.012,0.48133293,0.1492073,0.2591269,-0.27837956,-0.019996822,-0.914456,0.0,0.0,0.0,0.278766930103302,0.278766930103302,link6
1764103905.4334843,ddpg_train,FAR,train,4,10,-6.640472264363616,0,56,1,0.389,0.224,0.874,0.5225559,0.17733331,0.7013016,-0.2474626,-0.009294347,-0.8930783,0.0,0.0,0.0,0.19034487009048462,0.19034487009048462,link6
1764103906.8164449,ddpg_train,FAR,train,4,11,-6.165946045496224,0,57,1,0.429,0.253,0.81,0.533677,0.1846949,0.8315902,-0.2719749,0.0064475,-0.6738736,0.0,0.0,0.0,0.23843638598918915,0.23843638598918915,link6
1764103908.1939528,ddpg_train,FAR,train,4,12,-6.643577433910558,0,58,1,0.321,0.153,0.923,0.44496247,0.05085684,0.6965192,-0.29268277,0.012073208,-0.30088264,0.0,0.0,0.0,0.19536270201206207,0.19536270201206207,link6
1764103909.5718088,ddpg_train,FAR,train,4,13,-6.859232197023285,0,59,1,0.38,0.104,0.853,0.2569082,-0.014518763,0.9555033,-0.39741313,0.010396341,-0.47912797,0.0,0.0,0.0,0.14091895520687103,0.14091895520687103,link6
1764103910.9644103,ddpg_train,FAR,train,4,14,-5.9728431682969045,0,60,1,0.377,0.075,0.838,0.20192292,-0.05631312,1.025559,-0.4725912,0.0023213509,-0.50705934,0.0,0.0,0.0,0.2427869439125061,0.2427869439125061,link6
1764103914.6054077,ddpg_train,FAR,train,5,0,-6.411710566558943,0,61,1,0.124,0.052,1.034,0.3931773,-0.022824258,0.32302785,-0.53539217,-0.012791883,-0.02014755,0.0,0.0,0.0,0.34707146883010864,0.34707146883010864,link6
1764103915.9886003,ddpg_train,FAR,train,5,1,-6.287804487961412,0,62,1,0.167,0.105,1.011,0.55889475,-0.020138405,0.45138466,-0.7253801,-0.016665531,0.034442503,0.0,0.0,0.0,0.3840527832508087,0.3840527832508087,link6
1764103917.3737166,ddpg_train,FAR,train,5,2,-6.053931959064608,0,63,1,0.173,0.232,0.944,0.9268302,-0.054514512,0.7464791,-0.5996133,-0.020647462,0.23233794,0.0,0.0,0.0,0.36516305804252625,0.36516305804252625,link6
1764103918.8447828,ddpg_train,FAR,train,5,3,-5.8747984943630485,0,64,1,0.177,0.246,0.91,0.94094145,-0.107711814,0.89800596,-0.5197372,-0.03334911,0.6266576,0.0,0.0,0.0,0.3729929029941559,0.3729929029941559,link6
1764103920.2426004,ddpg_train,FAR,train,5,4,-5.763367528702429,0,65,1,0.159,0.233,0.907,0.96882373,-0.15869701,0.9486396,-0.46379742,-0.037765976,0.8934931,0.0,0.0,0.0,0.43543341755867004,0.43543341755867004,link6
1764103921.624234,ddpg_train,FAR,train,5,5,-5.85664814514249,0,66,1,0.084,0.167,0.946,1.1023397,-0.25658584,0.89007914,0.11195536,0.0041657514,1.4285684,0.0,0.0,0.0,0.42560622096061707,0.42560622096061707,link6
1764103923.0110772,ddpg_train,FAR,train,5,6,-5.735507216911164,0,67,1,0.102,0.181,0.917,1.0544136,-0.287694,1.0046856,0.090397105,0.017267438,1.4111061,0.0,0.0,0.0,0.3973276615142822,0.3973276615142822,link6
1764103924.5003831,ddpg_train,FAR,train,5,7,-6.072036544190239,0,68,1,0.027,0.023,1.004,0.7598381,-0.3270158,0.65790087,-0.23624012,0.06866533,1.4190419,0.0,0.0,0.0,0.4726688265800476,0.4726688265800476,link6
1764103925.8801136,ddpg_train,FAR,train,5,8,-5.953405005614983,0,69,1,-0.023,-0.019,0.988,0.69721335,-0.4689547,0.7665107,-0.01859806,0.06561777,1.2438673,0.0,0.0,0.0,0.5394687652587891,0.5394687652587891,link6
1764103927.2600808,ddpg_train,FAR,train,5,9,-5.890279510529936,0,70,1,-0.036,-0.029,0.964,0.7102799,-0.55202925,0.90328205,0.08823243,0.067994274,1.3496215,0.0,0.0,0.0,0.3915700614452362,0.3915700614452362,link6
1764103928.6476834,ddpg_train,FAR,train,5,10,-5.101559151853495,0,71,1,0.114,0.131,0.815,0.8412443,-0.5340209,1.394354,0.11843952,0.13099506,1.8763672,0.0,0.0,0.0,0.3894340693950653,0.3894340693950653,link6
1764103930.0297348,ddpg_train,FAR,train,5,11,-4.794212321715828,0,72,1,0.112,0.146,0.761,0.9050632,-0.5893122,1.5490917,0.15208434,0.16311285,1.873971,0.0,0.0,0.0,0.3946343958377838,0.3946343958377838,link6
1764103931.412642,ddpg_train,FAR,train,5,12,-4.563874172456439,0,73,1,0.117,0.165,0.711,0.9284973,-0.60998034,1.6700864,0.2166674,0.18979624,1.8121452,0.0,0.0,0.0,0.3660489022731781,0.3660489022731781,link6
1764103932.8367634,ddpg_train,FAR,train,5,13,-4.321943253287935,0,74,1,0.216,0.217,0.611,0.7573461,-0.43992883,1.7798223,0.3027799,0.22360574,1.0750844,0.0,0.0,0.0,0.3117178678512573,0.3117178678512573,link6
1764103934.216445,ddpg_train,FAR,train,5,14,-4.578172869036665,0,75,1,0.256,0.191,0.601,0.62510014,-0.41372216,1.7825674,0.18971853,0.22598155,0.7752884,0.0,0.0,0.0,0.2313513308763504,0.2313513308763504,link6
1764103937.8683803,ddpg_train,FAR,train,6,0,-5.7177633721694505,0,76,1,0.201,0.14,0.881,0.6053077,-0.2920981,1.1052846,0.29963332,0.15992463,0.40820763,0.0,0.0,0.0,0.30736950039863586,0.30736950039863586,link6
1764103939.2491572,ddpg_train,FAR,train,6,1,-5.340578666316108,0,77,1,0.159,0.151,0.847,0.73405606,-0.4035048,1.2283362,0.4215836,0.16594316,0.13045779,0.0,0.0,0.0,0.40059149265289307,0.40059149265289307,link6
1764103940.6714303,ddpg_train,FAR,train,6,2,-5.293298140075763,0,78,1,0.094,0.109,0.854,0.79956865,-0.5230233,1.2755569,0.44866621,0.16599531,-0.060029536,0.0,0.0,0.0,0.394215852022171,0.394215852022171,link6
1764103942.058151,ddpg_train,FAR,train,6,3,-5.159254693088196,0,79,1,0.04,0.045,0.85,0.73326385,-0.67218083,1.3133823,0.24568276,0.20737673,-0.20912279,0.0,0.0,0.0,0.46782445907592773,0.46782445907592773,link6
1764103943.443156,ddpg_train,FAR,train,6,4,-5.08025689793224,0,80,1,0.014,0.026,0.837,0.7594679,-0.74652034,1.373305,0.35210252,0.21396045,-0.29333553,0.0,0.0,0.0,0.45074552297592163,0.45074552297592163,link6
1764103944.83476,ddpg_train,FAR,train,6,5,-5.0108796935056175,0,81,1,0.033,0.05,0.816,0.78659993,-0.7368814,1.4399484,0.4617175,0.21569942,-0.34262365,0.0,0.0,0.0,0.3895140588283539,0.3895140588283539,link6
1764103946.23127,ddpg_train,FAR,train,6,6,-4.8111926826692635,0,82,1,0.129,0.112,0.761,0.67944574,-0.6102254,1.530534,0.19059291,0.25382394,-0.83941144,0.0,0.0,0.0,0.36377739906311035,0.36377739906311035,link6
1764103947.6144478,ddpg_train,FAR,train,6,7,-4.693905579196092,0,83,1,0.117,0.108,0.749,0.7221953,-0.6522523,1.5752875,0.13066293,0.25529823,-0.6338085,0.0,0.0,0.0,0.3917233943939209,0.3917233943939209,link6
1764103949.0011544,ddpg_train,FAR,train,6,8,-4.290476252329826,0,84,1,0.101,0.145,0.678,0.88248736,-0.70080364,1.7632155,0.44424015,0.27624017,-0.3178168,0.0,0.0,0.0,0.4056146740913391,0.4056146740913391,link6
1764103950.3783915,ddpg_train,FAR,train,6,9,-3.816022131211177,0,85,1,0.123,0.15,0.584,0.8015619,-0.7405869,1.9832772,0.42080134,0.3016469,0.047225054,0.0,0.0,0.0,0.3698696196079254,0.3698696196079254,link6
1764103951.7565048,ddpg_train,FAR,train,6,10,-3.4804876400782887,0,86,1,0.125,0.136,0.529,0.7360607,-0.8018658,2.114573,0.43669248,0.32768184,0.1209119,0.0,0.0,0.0,0.37418675422668457,0.37418675422668457,link6
1764103953.1364675,ddpg_train,FAR,train,6,11,-3.036207644660812,0,87,1,0.14,0.182,0.429,0.8164577,-0.66100836,2.247579,0.5006189,0.4013139,-0.0041657384,0.0,0.0,0.0,0.37576088309288025,0.37576088309288025,link6
1764103954.5183058,ddpg_train,FAR,train,6,12,-3.120457260052239,0,88,1,0.13,0.199,0.444,0.8744973,-0.63665456,2.2004874,0.5744441,0.4299171,-0.08797125,0.0,0.0,0.0,0.39249658584594727,0.39249658584594727,link6
1764103955.9009113,ddpg_train,FAR,train,6,13,-3.1987081581649317,0,89,1,0.141,0.202,0.437,0.83484495,-0.60566103,2.1985083,0.6064957,0.44951072,-0.1181952,0.0,0.0,0.0,0.3276502192020416,0.3276502192020416,link6
1764103957.278854,ddpg_train,FAR,train,6,14,-2.5794356332028014,0,90,1,0.12,0.204,0.341,0.8855979,-0.55654657,2.3740249,0.65582806,0.5034643,0.09813345,0.0,0.0,0.0,0.4029510021209717,0.4029510021209717,link6
1764103960.92954,ddpg_train,FAR,train,7,0,-5.955964735898357,0,91,1,0.262,0.124,0.937,0.42507315,-0.06608949,0.7283299,0.23954427,0.16346325,0.019876935,0.0,0.0,0.0,0.42530712485313416,0.42530712485313416,link6
1764103962.3075554,ddpg_train,FAR,train,7,1,-3.3826104076038885,0,92,1,0.175,0.333,0.402,0.98421675,-0.20357306,2.0382514,0.9143611,0.39846414,-0.7545199,0.0,0.0,0.0,0.4144696593284607,0.4144696593284607,link6
1764103963.7231636,ddpg_train,FAR,train,7,2,-2.432695272993558,0,93,1,0.096,0.244,0.297,0.9959756,-0.4097056,2.4418354,1.0998684,0.49648765,-0.100176394,0.0,0.0,0.0,0.4499063193798065,0.4499063193798065,link6
1764103965.124815,ddpg_train,FAR,train,7,3,-2.193887510931629,0,94,1,0.084,0.198,0.268,0.8877085,-0.51723766,2.5676656,1.1602173,0.5204831,0.2530901,0.0,0.0,0.0,0.363373726606369,0.363373726606369,link6
1764103966.5249546,ddpg_train,FAR,train,7,4,-2.504396264114554,0,95,1,0.116,0.174,0.343,0.7039579,-0.67444795,2.4792628,1.2060394,0.5232474,1.6291065,0.0,0.0,0.0,0.39732494950294495,0.39732494950294495,link6
1764103967.922927,ddpg_train,FAR,train,7,5,-2.3859451092826247,0,96,1,0.107,0.166,0.326,0.687066,-0.70229065,2.550915,1.3924996,0.52358216,1.7122548,0.0,0.0,0.0,0.39220690727233887,0.39220690727233887,link6
1764103969.3204813,ddpg_train,FAR,train,7,6,-2.356792028308665,0,97,1,0.106,0.161,0.325,0.6627386,-0.73312116,2.5844324,1.5270762,0.5235901,1.7637576,0.0,0.0,0.0,0.4021818935871124,0.4021818935871124,link6
1764103970.7047637,ddpg_train,FAR,train,7,7,-2.6082854241297664,0,98,1,0.098,0.12,0.39,0.4700438,-0.950524,2.5307653,1.610688,0.5235913,2.4360156,0.0,0.0,0.0,0.4012942314147949,0.4012942314147949,link6
1764103972.082677,ddpg_train,FAR,train,7,8,-2.532745530476201,0,99,1,0.073,0.109,0.389,0.4935701,-1.0616081,2.5764933,1.6874901,0.52356017,2.7584596,0.0,0.0,0.0,0.42745164036750793,0.42745164036750793,link6
1764103973.4642286,ddpg_train,FAR,train,7,9,-2.597545237590299,0,100,1,0.06,0.107,0.404,0.54311275,-1.1109773,2.5747273,1.8110883,0.52354974,3.1005273,0.0,0.0,0.0,0.43542739748954773,0.43542739748954773,link6
1764103974.8455987,ddpg_train,FAR,train,7,10,-2.803235808289976,0,101,1,0.038,0.106,0.445,0.83660626,-1.0808349,2.5366855,2.3706539,0.5235688,3.8275094,0.0,0.0,0.0,0.46237629652023315,0.46237629652023315,link6
1764103976.2227921,ddpg_train,FAR,train,7,11,-2.7228731271960016,0,102,1,0.025,0.095,0.435,0.92295516,-1.1433175,2.5803492,2.4814394,0.5235338,4.065455,0.0,0.0,0.0,0.46638819575309753,0.46638819575309753,link6
1764103977.6058905,ddpg_train,FAR,train,7,12,-2.9310686268727872,0,103,1,0.054,0.101,0.465,0.84929705,-1.0479187,2.5137763,2.7168214,0.52359843,4.5178213,0.0,0.0,0.0,0.44621312618255615,0.44621312618255615,link6
1764103978.989348,ddpg_train,FAR,train,7,13,-2.8464437212014855,0,104,1,0.039,0.097,0.454,0.9129611,-1.0943748,2.5464482,2.6680253,0.5235758,4.6619363,0.0,0.0,0.0,0.45823922753334045,0.45823922753334045,link6
1764103980.3652563,ddpg_train,FAR,train,7,14,-2.7426179475760377,0,105,1,0.027,0.092,0.439,0.9328621,-1.1488214,2.5846093,2.5838482,0.52354807,4.6601133,0.0,0.0,0.0,0.4677150845527649,0.4677150845527649,link6
1764103984.0096807,ddpg_train,FAR,train,8,0,-3.755641971597985,0,106,1,0.07,0.131,0.601,0.7550676,-0.87216383,2.0823634,1.4257962,0.43578875,1.4360285,0.0,0.0,0.0,0.4799908399581909,0.4799908399581909,link6
1764103985.3945749,ddpg_train,FAR,train,8,1,-2.665400525315145,0,107,1,0.012,0.108,0.423,0.9114697,-1.1441847,2.5448408,1.9228156,0.50568265,2.1358242,0.0,0.0,0.0,0.4710671007633209,0.4710671007633209,link6
1764103986.8348541,ddpg_train,FAR,train,8,2,-3.012771992972888,0,108,1,-0.01,0.113,0.484,1.2706445,-1.047829,2.4478128,2.3743804,0.52358955,3.159517,0.0,0.0,0.0,0.5113602876663208,0.5113602876663208,link6
1764103988.218005,ddpg_train,FAR,train,8,3,-2.903734669496184,0,109,1,-0.002,0.097,0.468,1.2915246,-1.1046416,2.5132039,2.659639,0.51319504,3.1995816,0.0,0.0,0.0,0.49328505992889404,0.49328505992889404,link6
1764103989.5980706,ddpg_train,FAR,train,8,4,-2.838696475909732,0,110,1,-0.003,0.088,0.46,1.3219315,-1.1504655,2.5440524,2.7166362,0.5119571,3.2632368,0.0,0.0,0.0,0.5164195895195007,0.5164195895195007,link6
1764103990.9763227,ddpg_train,FAR,train,8,5,-3.0018955678060935,0,111,1,-0.035,0.1,0.485,1.7006885,-1.0579343,2.4773307,2.7830222,0.52342683,3.2498703,0.0,0.0,0.0,0.5369954109191895,0.5369954109191895,link6
1764103992.3565824,ddpg_train,FAR,train,8,6,-2.8293751580018665,0,112,1,-0.041,0.088,0.458,1.7559518,-1.1172606,2.5465102,2.7364435,0.52362627,3.8198678,0.0,0.0,0.0,0.5505702495574951,0.5505702495574951,link6
1764103993.7396626,ddpg_train,FAR,train,8,7,-2.7382994584904097,0,113,1,-0.045,0.083,0.443,1.7681822,-1.147941,2.5837388,2.6830118,0.52366185,4.226391,0.0,0.0,0.0,0.5491702556610107,0.5491702556610107,link6
1764103995.124139,ddpg_train,FAR,train,8,8,-3.2045170527459583,0,114,1,-0.055,0.073,0.523,1.9291736,-1.0654918,2.3891695,2.7037723,0.52361083,4.7247987,0.0,0.0,0.0,0.5574979782104492,0.5574979782104492,link6
1764103996.516534,ddpg_train,FAR,train,8,9,-3.296872432859995,0,115,1,-0.053,0.033,0.543,2.0991936,-1.1301112,2.3404293,2.6340659,0.5211461,4.869345,0.0,0.0,0.0,0.566030740737915,0.566030740737915,link6
1764103997.8952084,ddpg_train,FAR,train,8,10,-3.4382760679093343,0,116,1,-0.049,0.011,0.568,2.2377446,-1.1492608,2.295086,2.6072366,0.51703894,5.028538,0.0,0.0,0.0,0.5685064196586609,0.5685064196586609,link6
1764103999.2862303,ddpg_train,FAR,train,8,11,-3.8098945337588037,0,117,1,-0.03,0.012,0.63,2.559343,-1.0698467,2.141949,3.0386646,0.49329293,5.307977,0.0,0.0,0.0,0.530126690864563,0.530126690864563,link6
1764104000.677889,ddpg_train,FAR,train,8,12,-3.680349373431778,0,118,1,-0.013,-0.0,0.61,2.6177514,-1.1471223,2.2003624,3.0272105,0.4891317,5.100872,0.0,0.0,0.0,0.5545839667320251,0.5545839667320251,link6
1764104002.058195,ddpg_train,FAR,train,8,13,-3.5631835827227785,0,119,1,-0.034,0.007,0.59,2.644818,-1.1384928,2.2543974,2.9726627,0.488166,4.8809786,0.0,0.0,0.0,0.568035364151001,0.568035364151001,link6
1764104003.4366436,ddpg_train,FAR,train,8,14,-3.329231986244729,0,120,1,-0.068,0.034,0.547,2.3366504,-1.0868927,2.3420026,2.72467,0.5219521,5.602868,0.0,0.0,0.0,0.5764588117599487,0.5764588117599487,link6
1764104007.0829387,ddpg_train,FAR,train,9,0,-6.2907342217927,0,121,1,0.008,0.005,1.045,0.2734734,-0.17678493,0.32734656,0.3250518,0.07398139,0.389072,0.0,0.0,0.0,0.5497806668281555,0.5497806668281555,link6
1764104008.4606357,ddpg_train,FAR,train,9,1,-3.7447750585886252,0,122,1,-0.06,0.064,0.615,1.7848799,-0.9917241,2.0853624,1.9077384,0.3927327,2.010572,0.0,0.0,0.0,0.5659422278404236,0.5659422278404236,link6
1764104009.8748293,ddpg_train,FAR,train,9,2,-3.2339735081656205,0,123,1,-0.079,0.059,0.528,2.134686,-1.0611073,2.3450541,2.4017897,0.4354231,3.5683842,0.0,0.0,0.0,0.6100544333457947,0.6100544333457947,link6
1764104011.2631786,ddpg_train,FAR,train,9,3,-3.6964413736646637,0,124,1,-0.052,0.025,0.61,2.4710305,-1.0478072,2.1877298,2.9220724,0.4775467,6.0175877,0.0,0.0,0.0,0.5516189932823181,0.5516189932823181,link6
1764104012.6758177,ddpg_train,FAR,train,9,4,-3.199206832881632,0,125,1,-0.074,0.03,0.525,2.6794434,-1.0948976,2.399966,3.0303528,0.49235395,6.083153,0.0,0.0,0.0,0.5953717827796936,0.5953717827796936,link6
1764104014.0559943,ddpg_train,FAR,train,9,5,-2.897619116814937,0,126,1,-0.078,0.025,0.474,2.7760355,-1.1487811,2.524369,3.0721703,0.5056882,6.0094123,0.0,0.0,0.0,0.6077507734298706,0.6077507734298706,link6
1764104015.4340894,ddpg_train,FAR,train,9,6,-3.006861606534032,0,127,1,-0.13,0.037,0.481,2.797526,-0.9564119,2.4666471,3.004198,0.5235993,5.509776,0.0,0.0,0.0,0.6310851573944092,0.6310851573944092,link6
1764104016.8169255,ddpg_train,FAR,train,9,7,-2.906328070959679,0,128,1,-0.104,0.012,0.471,2.921003,-1.0711471,2.5123413,2.9480731,0.5103162,5.380231,0.0,0.0,0.0,0.6087031960487366,0.6087031960487366,link6
1764104018.2012138,ddpg_train,FAR,train,9,8,-2.8995438509987266,0,129,1,-0.082,0.002,0.474,3.0097787,-1.1503626,2.5153818,2.9919298,0.4968167,5.367374,0.0,0.0,0.0,0.5931259989738464,0.5931259989738464,link6
1764104019.5847683,ddpg_train,FAR,train,9,9,-3.716236979186602,0,130,1,-0.048,-0.009,0.614,3.062762,-1.0589278,2.1769428,2.9193587,0.4828475,4.9804444,0.0,0.0,0.0,0.5491792559623718,0.5491792559623718,link6
1764104020.9734201,ddpg_train,FAR,train,9,10,-3.194659119492509,0,131,1,-0.069,-0.011,0.526,3.103876,-1.1279986,2.3995745,2.897342,0.47382176,4.790648,0.0,0.0,0.0,0.6125062704086304,0.6125062704086304,link6
1764104022.3542538,ddpg_train,FAR,train,9,11,-2.790895387362457,0,132,1,-0.092,-0.012,0.454,3.1343808,-1.1454209,2.561139,2.9319527,0.46555838,4.7351923,0.0,0.0,0.0,0.6156705021858215,0.6156705021858215,link6
1764104023.7363853,ddpg_train,FAR,train,9,12,-3.3603667152654872,0,133,1,-0.075,0.019,0.552,2.8951943,-1.0714748,2.3238382,3.1458972,0.47050193,5.0146685,0.0,0.0,0.0,0.5745083689689636,0.5745083689689636,link6
1764104025.1195815,ddpg_train,FAR,train,9,13,-3.153500458595022,0,134,1,-0.061,0.027,0.519,2.733182,-1.1380614,2.4235544,3.1560006,0.4959214,4.866588,0.0,0.0,0.0,0.5886507630348206,0.5886507630348206,link6
1764104026.4973867,ddpg_train,FAR,train,9,14,-2.9450724306024947,0,135,1,-0.074,0.045,0.481,2.6007216,-1.1319296,2.515534,3.1563694,0.51761436,4.733903,0.0,0.0,0.0,0.5978602170944214,0.5978602170944214,link6
1764104030.1481075,ddpg_train,FAR,train,10,0,-5.526958905594193,0,136,1,-0.004,0.049,0.915,1.0503404,-0.56258744,1.1269888,1.6818212,0.22254378,0.17463186,0.0,0.0,0.0,0.5148518085479736,0.5148518085479736,link6
1764104031.5316565,ddpg_train,FAR,train,10,1,-3.6993487101191396,0,137,1,-0.005,0.013,0.613,1.992922,-1.1499029,2.1871498,3.1488743,0.42598557,0.68420947,0.0,0.0,0.0,0.5501687526702881,0.5501687526702881,link6
1764104032.929923,ddpg_train,FAR,train,10,2,-3.272931292375791,0,138,1,-0.057,0.053,0.537,2.404226,-1.0770222,2.3714464,3.1464446,0.5201256,4.793646,0.0,0.0,0.0,0.5668591856956482,0.5668591856956482,link6
1764104034.3134074,ddpg_train,FAR,train,10,3,-3.023436284962255,0,139,1,-0.058,0.047,0.496,2.4736314,-1.1424018,2.478955,3.1574657,0.52359754,5.60498,0.0,0.0,0.0,0.588405430316925,0.588405430316925,link6
1764104035.6923277,ddpg_train,FAR,train,10,4,-2.9159464464559854,0,140,1,-0.098,0.052,0.471,2.6582527,-1.047775,2.5136802,3.141695,0.5235988,6.2831874,0.0,0.0,0.0,0.5982723236083984,0.5982723236083984,link6
1764104037.076792,ddpg_train,FAR,train,10,5,-2.839256248374803,0,141,1,-0.088,0.059,0.459,2.5589118,-1.0749973,2.5449357,3.1494877,0.5236005,6.283189,0.0,0.0,0.0,0.5964451432228088,0.5964451432228088,link6
1764104038.4618065,ddpg_train,FAR,train,10,6,-2.747080261599659,0,142,1,-0.077,0.053,0.446,2.5564742,-1.1315749,2.5855434,3.1596177,0.52360266,6.2831883,0.0,0.0,0.0,0.5957167148590088,0.5957167148590088,link6
1764104039.8979602,ddpg_train,FAR,train,10,7,-3.0831643391441506,0,143,1,-0.095,0.043,0.501,2.720404,-1.0378051,2.4438627,3.1424017,0.52359897,6.283183,0.0,0.0,0.0,0.5972374677658081,0.5972374677658081,link6
1764104041.3023384,ddpg_train,FAR,train,10,8,-2.9740640349698477,0,144,1,-0.082,0.027,0.486,2.8410704,-1.1117848,2.4928522,3.1497362,0.5236007,6.2831936,0.0,0.0,0.0,0.5998274087905884,0.5998274087905884,link6
1764104042.6826508,ddpg_train,FAR,train,10,9,-2.971807332716508,0,145,1,-0.075,0.015,0.487,2.9562018,-1.1482825,2.4992898,3.1498046,0.5236012,6.2832003,0.0,0.0,0.0,0.5878857970237732,0.5878857970237732,link6
1764104044.071512,ddpg_train,FAR,train,10,10,-3.050811075341891,0,146,1,-0.097,0.011,0.497,3.0210776,-1.0661918,2.4549525,3.1430392,0.49208903,5.5432277,0.0,0.0,0.0,0.6046527028083801,0.6046527028083801,link6
1764104045.4600203,ddpg_train,FAR,train,10,11,-2.837184547240521,0,147,1,-0.09,0.018,0.462,2.9564815,-1.1314187,2.540673,3.1562703,0.47530144,5.454532,0.0,0.0,0.0,0.6118155121803284,0.6118155121803284,link6
1764104046.8424428,ddpg_train,FAR,train,10,12,-2.7470366713732095,0,148,1,-0.093,0.021,0.446,2.9307194,-1.1375898,2.575083,3.157643,0.46156678,5.3576713,0.0,0.0,0.0,0.6158588528633118,0.6158588528633118,link6
1764104048.2225041,ddpg_train,FAR,train,10,13,-2.8163911095284297,0,149,1,-0.108,0.001,0.455,3.1362803,-1.0830568,2.5388644,3.147965,0.44801313,4.604724,0.0,0.0,0.0,0.6162684559822083,0.6162684559822083,link6
1764104049.6220846,ddpg_train,FAR,train,10,14,-2.704247051473665,0,150,1,-0.099,0.001,0.438,3.1412132,-1.1368526,2.5772767,3.1575265,0.40192592,4.662739,0.0,0.0,0.0,0.6219982504844666,0.6219982504844666,link6
1764104053.2919703,ddpg_train,FAR,train,11,0,-3.593245135278875,0,151,1,-0.128,0.072,0.579,2.5950649,-0.89856815,2.2512963,2.813758,0.34513223,2.191988,0.0,0.0,0.0,0.6294122338294983,0.6294122338294983,link6
1764104054.725642,ddpg_train,FAR,train,11,1,-2.6823291801924722,0,152,1,-0.11,0.038,0.43,2.814048,-1.0765558,2.5756965,3.1571245,0.38946047,3.2021742,0.0,0.0,0.0,0.6265274882316589,0.6265274882316589,link6
1764104056.1052558,ddpg_train,FAR,train,11,2,-2.856255750255747,0,153,1,-0.111,0.043,0.459,2.768417,-1.0477685,2.513678,3.1416943,0.40730935,4.7282124,0.0,0.0,0.0,0.6105899810791016,0.6105899810791016,link6
1764104057.507895,ddpg_train,FAR,train,11,3,-2.764634435653286,0,154,1,-0.104,0.031,0.446,2.859203,-1.0917293,2.5451002,3.1495104,0.39145914,5.2061257,0.0,0.0,0.0,0.6160498261451721,0.6160498261451721,link6
1764104058.8911614,ddpg_train,FAR,train,11,4,-2.684959478604474,0,155,1,-0.095,0.021,0.435,2.9343414,-1.145178,2.5833478,3.159017,0.40069675,5.338228,0.0,0.0,0.0,0.6168358325958252,0.6168358325958252,link6
1764104060.2728314,ddpg_train,FAR,train,11,5,-2.865338558544766,0,156,1,-0.114,0.029,0.461,2.8904195,-1.0436943,2.5138288,3.1417317,0.43602306,6.074774,0.0,0.0,0.0,0.6145750284194946,0.6145750284194946,link6
1764104061.6521034,ddpg_train,FAR,train,11,6,-2.8019857569076265,0,157,1,-0.101,0.009,0.454,2.9436376,-1.0966104,2.549524,2.9261382,0.49743134,6.086996,0.0,0.0,0.0,0.6131200194358826,0.6131200194358826,link6
1764104063.0352407,ddpg_train,FAR,train,11,7,-2.7359326270283733,0,158,1,-0.09,0.007,0.445,2.8759146,-1.1489748,2.585112,2.8691905,0.5201446,6.1517854,0.0,0.0,0.0,0.6070560216903687,0.6070560216903687,link6
1764104064.428508,ddpg_train,FAR,train,11,8,-2.8963032568604357,0,159,1,-0.104,0.036,0.468,2.6836553,-1.0524055,2.5169492,2.9176667,0.52360207,6.283188,0.0,0.0,0.0,0.6057012677192688,0.6057012677192688,link6
1764104065.8087423,ddpg_train,FAR,train,11,9,-2.7781612905643622,0,160,1,-0.12,0.028,0.445,2.7732708,-1.0253913,2.5575006,2.862967,0.52363354,6.090507,0.0,0.0,0.0,0.647757351398468,0.647757351398468,link6
1764104067.1989355,ddpg_train,FAR,train,11,10,-2.692237990257628,0,161,1,-0.129,0.02,0.428,2.8120172,-1.0119985,2.5869625,2.7574365,0.52367586,6.0247855,0.0,0.0,0.0,0.6509315371513367,0.6509315371513367,link6
1764104068.5791993,ddpg_train,FAR,train,11,11,-2.859144706629094,0,162,1,-0.121,0.013,0.459,2.8353107,-1.0263128,2.52359,2.7386906,0.5236186,6.110351,0.0,0.0,0.0,0.6215493679046631,0.6215493679046631,link6
1764104069.9698038,ddpg_train,FAR,train,11,12,-2.730123674875054,0,163,1,-0.118,0.012,0.438,2.8458297,-1.0430613,2.569727,2.754403,0.51457304,6.206914,0.0,0.0,0.0,0.6506026983261108,0.6506026983261108,link6
1764104071.3503418,ddpg_train,FAR,train,11,13,-2.6915349408545532,0,164,1,-0.133,0.016,0.427,2.8653424,-0.997703,2.5841267,2.7805352,0.51008934,6.2832003,0.0,0.0,0.0,0.6658406257629395,0.6658406257629395,link6
1764104072.7643118,ddpg_train,FAR,train,11,14,-2.8428045925819307,0,165,1,-0.137,0.009,0.452,3.019846,-0.96691084,2.5295863,3.019959,0.52360946,6.283198,0.0,0.0,0.0,0.638256847858429,0.638256847858429,link6
1764104076.4259484,ddpg_train,FAR,train,12,0,-6.186653932801536,0,166,1,0.078,0.051,1.026,0.5689219,-0.16351219,0.48970664,0.5339348,0.11127989,0.38438642,0.0,0.0,0.0,0.6847345232963562,0.6847345232963562,link6
1764104077.8137095,ddpg_train,FAR,train,12,1,-3.5330871430601225,0,167,1,-0.204,0.027,0.551,2.8086572,-0.7054994,2.1893806,2.4000583,0.5236234,1.886795,0.0,0.0,0.0,0.7116827964782715,0.7116827964782715,link6
1764104079.1990502,ddpg_train,FAR,train,12,2,-3.278131670994407,0,168,1,-0.191,0.005,0.511,2.9261506,-0.7715405,2.3181858,2.5098965,0.52372086,3.778873,0.0,0.0,0.0,0.6944504976272583,0.6944504976272583,link6
1764104080.588215,ddpg_train,FAR,train,12,3,-3.0682051629573555,0,169,1,-0.179,-0.009,0.478,3.020501,-0.8227124,2.4152737,2.6343887,0.523693,5.492817,0.0,0.0,0.0,0.6862755417823792,0.6862755417823792,link6
1764104081.97872,ddpg_train,FAR,train,12,4,-3.13990909346293,0,170,1,-0.17,0.03,0.493,2.8528872,-0.8254689,2.3887317,2.85227,0.5236319,5.883224,0.0,0.0,0.0,0.6757252216339111,0.6757252216339111,link6
1764104083.3590727,ddpg_train,FAR,train,12,5,-3.127171071482516,0,171,1,-0.147,0.025,0.498,2.8645518,-0.9062918,2.4108586,2.8736694,0.5236584,6.040921,0.0,0.0,0.0,0.6424610018730164,0.6424610018730164,link6
1764104084.739523,ddpg_train,FAR,train,12,6,-3.6015750698903917,0,172,1,-0.111,0.005,0.588,2.7657366,-0.9441033,2.2030144,2.5230253,0.5235999,5.8085194,0.0,0.0,0.0,0.6106851100921631,0.6106851100921631,link6
1764104086.1197665,ddpg_train,FAR,train,12,7,-3.4750051191100573,0,173,1,-0.071,-0.01,0.572,2.8799036,-1.067773,2.2753608,2.66766,0.5236661,5.233963,0.0,0.0,0.0,0.5735463500022888,0.5735463500022888,link6
1764104087.5038314,ddpg_train,FAR,train,12,8,-3.383071062508885,0,174,1,-0.049,-0.022,0.559,2.9133766,-1.1458828,2.312067,2.5778809,0.52369785,5.07942,0.0,0.0,0.0,0.590538740158081,0.590538740158081,link6
1764104088.8934364,ddpg_train,FAR,train,12,9,-3.428376596683648,0,175,1,-0.093,-0.042,0.56,3.1176975,-1.0090249,2.2680452,2.3404617,0.52360874,4.9477053,0.0,0.0,0.0,0.5948542356491089,0.5948542356491089,link6
1764104090.2761595,ddpg_train,FAR,train,12,10,-3.7150422404282395,0,176,1,-0.045,-0.034,0.613,3.1343691,-1.051399,2.1521277,2.5702038,0.5237034,4.361446,0.0,0.0,0.0,0.5448798537254333,0.5448798537254333,link6
1764104091.660665,ddpg_train,FAR,train,12,11,-3.999201625148649,0,177,1,-0.003,-0.022,0.661,3.1411035,-1.0771871,2.0560024,2.7862923,0.5236826,4.004841,0.0,0.0,0.0,0.5084344148635864,0.5084344148635864,link6
1764104093.0672352,ddpg_train,FAR,train,12,12,-3.9954558981078896,0,178,1,-0.01,-0.013,0.661,3.141518,-1.0589997,2.064315,2.9210315,0.52360004,4.009011,0.0,0.0,0.0,0.5176623463630676,0.5176623463630676,link6
1764104094.4516008,ddpg_train,FAR,train,12,13,-3.561325747269911,0,179,1,-0.06,-0.012,0.589,3.1412377,-1.0543312,2.253296,2.9477606,0.52363354,4.205459,0.0,0.0,0.0,0.6400057077407837,0.6400057077407837,link6
1764104095.829977,ddpg_train,FAR,train,12,14,-3.243992376876716,0,180,1,-0.115,-0.007,0.526,3.11044,-0.98917925,2.379049,2.9786966,0.52363336,4.267955,0.0,0.0,0.0,0.5939096212387085,0.5939096212387085,link6
1764104099.4812286,ddpg_train,FAR,train,13,0,-5.456541987060337,0,181,1,-0.061,0.1,0.9,1.8701199,-0.5040138,1.1943381,1.5542104,0.3310329,-0.72837764,0.0,0.0,0.0,0.6119535565376282,0.6119535565376282,link6
1764104100.8648365,ddpg_train,FAR,train,13,1,-3.965887034300652,0,182,1,-0.089,-0.019,0.653,2.9779935,-0.9189666,2.0643497,2.585739,0.5237233,-0.8324995,0.0,0.0,0.0,0.6212509274482727,0.6212509274482727,link6
1764104102.2418942,ddpg_train,FAR,train,13,2,-2.8887772583015314,0,183,1,-0.134,0.03,0.46,2.9124975,-0.9588998,2.5145915,3.1331944,0.5236039,1.2722645,0.0,0.0,0.0,0.6385719180107117,0.6385719180107117,link6
1764104103.6313815,ddpg_train,FAR,train,13,3,-2.7527418334609526,0,184,1,-0.123,0.037,0.439,2.8357015,-1.0053058,2.5698636,3.1124837,0.5235985,1.6574998,0.0,0.0,0.0,0.639924943447113,0.639924943447113,link6
1764104105.0263066,ddpg_train,FAR,train,13,4,-2.72030690859249,0,185,1,-0.125,0.039,0.433,2.8016312,-0.99894935,2.5812688,3.0586278,0.5236175,1.952056,0.0,0.0,0.0,0.6707119941711426,0.6707119941711426,link6
1764104106.4121373,ddpg_train,FAR,train,13,5,-2.798775362505632,0,186,1,-0.168,-0.009,0.434,3.1131737,-0.862659,2.5332055,2.9159985,0.5236139,2.1352868,0.0,0.0,0.0,0.6731472611427307,0.6731472611427307,link6
1764104107.7912931,ddpg_train,FAR,train,13,6,-2.986844256842218,0,187,1,-0.158,-0.007,0.471,3.141127,-0.88397455,2.4588053,3.0310435,0.52364016,2.1902652,0.0,0.0,0.0,0.6762786507606506,0.6762786507606506,link6
1764104109.17669,ddpg_train,FAR,train,13,7,-3.7095857833634307,0,188,1,-0.146,0.023,0.599,2.9852433,-0.82490903,2.170482,3.1416912,0.5235988,2.715584,0.0,0.0,0.0,0.6463727951049805,0.6463727951049805,link6
1764104110.566185,ddpg_train,FAR,train,13,8,-3.327329433883449,0,189,1,-0.14,0.018,0.535,3.0189111,-0.8978605,2.3375058,3.149266,0.523598,2.6682951,0.0,0.0,0.0,0.6504230499267578,0.6504230499267578,link6
1764104111.9515326,ddpg_train,FAR,train,13,9,-3.2264195822407413,0,190,1,-0.132,0.012,0.52,3.065398,-0.9338158,2.3722858,3.159512,0.52359676,2.6818647,0.0,0.0,0.0,0.6620985865592957,0.6620985865592957,link6
1764104113.333074,ddpg_train,FAR,train,13,10,-3.63909744412571,0,191,1,-0.174,0.0,0.58,3.1415765,-0.77376103,2.194481,3.1421716,0.52359873,2.5629578,0.0,0.0,0.0,0.6747205853462219,0.6747205853462219,link6
1764104114.767834,ddpg_train,FAR,train,13,11,-3.5184523550431597,0,192,1,-0.164,0.001,0.562,3.141317,-0.8103911,2.243773,3.1516142,0.5235975,2.5697997,0.0,0.0,0.0,0.6758095026016235,0.6758095026016235,link6
1764104116.1459548,ddpg_train,FAR,train,13,12,-3.373360848916922,0,193,1,-0.147,0.001,0.541,3.1410978,-0.88347197,2.3201573,3.1596344,0.5235965,2.559733,0.0,0.0,0.0,0.6249085664749146,0.6249085664749146,link6
1764104117.5246015,ddpg_train,FAR,train,13,13,-3.420655708388107,0,194,1,-0.153,0.001,0.548,3.138094,-0.8575239,2.294026,3.1441288,0.5235986,2.2153776,0.0,0.0,0.0,0.6585161685943604,0.6585161685943604,link6
1764104118.9141052,ddpg_train,FAR,train,13,14,-3.52024364776657,0,195,1,-0.104,0.01,0.575,3.0544066,-0.9654133,2.2633364,3.1534455,0.5235975,2.0003057,0.0,0.0,0.0,0.5895929336547852,0.5895929336547852,link6
1764104122.569796,ddpg_train,FAR,train,14,0,-4.571087923046848,0,196,1,-0.042,0.003,0.757,2.9897444,-0.8474191,1.7820418,3.0897918,0.4882577,-0.32486874,0.0,0.0,0.0,0.5423113107681274,0.5423113107681274,link6
1764104123.9667459,ddpg_train,FAR,train,14,1,-4.241528657533426,0,197,1,-0.033,0.002,0.703,3.0895982,-0.9455686,1.9482012,3.1429698,0.51498437,0.5542525,0.0,0.0,0.0,0.5579782128334045,0.5579782128334045,link6
1764104125.3483934,ddpg_train,FAR,train,14,2,-4.070564513957361,0,198,1,-0.019,0.001,0.674,3.1232104,-1.0231827,2.0308115,3.156367,0.5235952,0.8462978,0.0,0.0,0.0,0.5300176739692688,0.5300176739692688,link6
1764104126.7285795,ddpg_train,FAR,train,14,3,-3.8354491661173253,0,199,1,-0.05,0.0,0.634,3.141547,-1.020905,2.1362393,3.1429117,0.5235984,0.38261127,0.0,0.0,0.0,0.5539734363555908,0.5539734363555908,link6
1764104128.1212032,ddpg_train,FAR,train,14,4,-3.640870237425078,0,200,1,-0.057,0.007,0.602,3.0259905,-1.0432899,2.2112365,3.152499,0.4988888,0.6148209,0.0,0.0,0.0,0.5993687510490417,0.5993687510490417,link6
1764104129.5089889,ddpg_train,FAR,train,14,5,-3.486729450237572,0,201,1,-0.09,0.017,0.573,2.970472,-1.005025,2.2732558,3.1578684,0.48487034,0.7725891,0.0,0.0,0.0,0.6890895962715149,0.6890895962715149,link6
1764104130.8930595,ddpg_train,FAR,train,14,6,-3.334253391915982,0,202,1,-0.191,0.002,0.521,3.1341052,-0.76732165,2.3086562,3.1448247,0.4767994,1.4040579,0.0,0.0,0.0,0.6950961351394653,0.6950961351394653,link6
1764104132.350615,ddpg_train,FAR,train,14,7,-3.1200510909196884,0,203,1,-0.165,0.001,0.492,3.141196,-0.8608758,2.403876,3.156143,0.4800597,1.313458,0.0,0.0,0.0,0.6651328206062317,0.6651328206062317,link6
1764104133.7379584,ddpg_train,FAR,train,14,8,-2.8617124710578987,0,204,1,-0.145,0.0,0.453,3.1415899,-0.945019,2.5136807,3.141695,0.47874296,1.0640154,0.0,0.0,0.0,0.6454294323921204,0.6454294323921204,link6
1764104135.1256025,ddpg_train,FAR,train,14,9,-2.799836442433674,0,205,1,-0.136,0.001,0.445,3.141394,-0.97992307,2.543596,3.149148,0.49728632,1.195066,0.0,0.0,0.0,0.6447679400444031,0.6447679400444031,link6
1764104136.5172486,ddpg_train,FAR,train,14,10,-2.7026460569405923,0,206,1,-0.134,0.001,0.429,3.1411343,-0.99010706,2.583021,3.1589763,0.50376725,1.1738652,0.0,0.0,0.0,0.6726300716400146,0.6726300716400146,link6
1764104137.8991163,ddpg_train,FAR,train,14,11,-2.8561396165567245,0,207,1,-0.166,0.0,0.445,3.1415865,-0.8685958,2.5141494,3.1418114,0.51895815,0.6422166,0.0,0.0,0.0,0.665816068649292,0.665816068649292,link6
1764104139.2912297,ddpg_train,FAR,train,14,12,-2.747871265971415,0,208,1,-0.163,0.001,0.427,3.1413326,-0.8705942,2.5507576,3.1509159,0.5223831,0.34309816,0.0,0.0,0.0,0.6804646849632263,0.6804646849632263,link6
1764104140.671694,ddpg_train,FAR,train,14,13,-2.6926327710556976,0,209,1,-0.151,0.001,0.421,3.1410742,-0.9360464,2.5863376,3.1597135,0.52330416,0.25026554,0.0,0.0,0.0,0.6313019394874573,0.6313019394874573,link6
1764104142.0537932,ddpg_train,FAR,train,14,14,-2.901455802372894,0,210,1,-0.11,0.0,0.469,3.1415732,-1.0501556,2.516367,3.1423652,0.52165955,0.28831926,0.0,0.0,0.0,0.6110861301422119,0.6110861301422119,link6
1764104145.7173767,ddpg_train,FAR,train,15,0,-5.934274878018478,0,211,1,0.05,0.133,0.978,1.2362399,-0.2767435,0.82157,0.93955976,0.18502851,-0.46890694,0.0,0.0,0.0,0.6976286768913269,0.6976286768913269,link6
1764104147.0972214,ddpg_train,FAR,train,15,1,-3.319480407460904,0,212,1,-0.138,-0.018,0.534,3.1415825,-0.90904903,2.3359704,2.855867,0.523228,-0.49278274,0.0,0.0,0.0,0.6381984353065491,0.6381984353065491,link6
1764104148.4740255,ddpg_train,FAR,train,15,2,-2.932561228892039,0,213,1,-0.129,-0.005,0.47,3.1413445,-0.98080677,2.5033228,3.0753288,0.5236291,-0.65455425,0.0,0.0,0.0,0.6423273682594299,0.6423273682594299,link6
1764104149.8526604,ddpg_train,FAR,train,15,3,-2.7996168054812283,0,214,1,-0.122,0.006,0.449,3.0948477,-1.0210006,2.552448,3.159752,0.5235971,-0.9730747,0.0,0.0,0.0,0.6474962830543518,0.6474962830543518,link6
1764104151.2343795,ddpg_train,FAR,train,15,4,-3.2721597826239,0,215,1,-0.168,0.028,0.517,2.9790268,-0.8248513,2.3461027,3.1422472,0.51467764,-1.5429631,0.0,0.0,0.0,0.6697562336921692,0.6697562336921692,link6
1764104152.6205726,ddpg_train,FAR,train,15,5,-2.912960423910305,0,216,1,-0.135,0.041,0.463,2.8385332,-0.9522233,2.5021985,3.1529026,0.4982902,-1.3115122,0.0,0.0,0.0,0.6337605714797974,0.6337605714797974,link6
1764104154.0013876,ddpg_train,FAR,train,15,6,-2.8292333000143643,0,217,1,-0.109,0.038,0.455,2.8219893,-1.0537131,2.53934,3.1599402,0.49197954,-1.1741842,0.0,0.0,0.0,0.5971965789794922,0.5971965789794922,link6
1764104155.4684277,ddpg_train,FAR,train,15,7,-3.196901478616318,0,218,1,-0.096,0.003,0.522,3.11299,-1.0482141,2.3914247,3.143614,0.47667092,-1.0933355,0.0,0.0,0.0,0.6005520820617676,0.6005520820617676,link6
1764104156.8578084,ddpg_train,FAR,train,15,8,-2.894098340848985,0,219,1,-0.112,0.005,0.468,3.1076574,-1.0540376,2.5100496,3.1566772,0.46093753,-0.8759031,0.0,0.0,0.0,0.6622318029403687,0.6622318029403687,link6
1764104158.2398472,ddpg_train,FAR,train,15,9,-2.6839329810640047,0,220,1,-0.145,0.007,0.422,3.0996082,-0.96117693,2.5749466,3.156931,0.44418305,-0.72791857,0.0,0.0,0.0,0.6675743460655212,0.6675743460655212,link6
1764104159.6293547,ddpg_train,FAR,train,15,10,-2.78690365337193,0,221,1,-0.157,0.0,0.436,3.141404,-0.9132285,2.5265455,3.1484048,0.4296334,-1.7323724,0.0,0.0,0.0,0.6650258898735046,0.6650258898735046,link6
1764104161.027345,ddpg_train,FAR,train,15,11,-2.785640146588623,0,222,1,-0.148,0.001,0.439,3.1411266,-0.94148743,2.5287857,3.1486583,0.45099512,-1.7167236,0.0,0.0,0.0,0.6729539036750793,0.6729539036750793,link6
1764104162.41269,ddpg_train,FAR,train,15,12,-2.891082586561204,0,223,1,-0.199,0.0,0.438,3.1415868,-0.7480156,2.4848895,3.141736,0.5234864,-2.0227208,0.0,0.0,0.0,0.7000150084495544,0.7000150084495544,link6
1764104163.7978501,ddpg_train,FAR,train,15,13,-2.7676324157652448,0,224,1,-0.169,-0.009,0.428,3.1413288,-0.8574944,2.5427299,2.990794,0.5220474,-2.0190265,0.0,0.0,0.0,0.669929563999176,0.669929563999176,link6
1764104165.1784883,ddpg_train,FAR,train,15,14,-2.6930641958636414,0,225,1,-0.138,-0.015,0.425,3.1410792,-0.98484653,2.5866616,2.8746214,0.5156853,-1.9247941,0.0,0.0,0.0,0.6166409850120544,0.6166409850120544,link6
1764104168.82265,ddpg_train,FAR,train,16,0,-4.211685787816863,0,226,1,-0.21,0.121,0.658,2.5725918,-0.5918481,1.8582036,1.2142475,0.42876485,-0.27545384,0.0,0.0,0.0,0.7039005756378174,0.7039005756378174,link6
1764104170.2239337,ddpg_train,FAR,train,16,1,-2.992921653677711,0,227,1,-0.155,-0.062,0.468,3.1410875,-0.88897914,2.3520594,1.6603259,0.523696,-0.7389875,0.0,0.0,0.0,0.6064298748970032,0.6064298748970032,link6
1764104171.606398,ddpg_train,FAR,train,16,2,-3.2767104668013842,0,228,1,-0.088,-0.053,0.534,3.1415856,-1.0486013,2.3119762,2.120497,0.5236009,-1.2749516,0.0,0.0,0.0,0.5880814790725708,0.5880814790725708,link6
1764104172.9930444,ddpg_train,FAR,train,16,3,-3.1265716361152784,0,229,1,-0.095,-0.041,0.509,3.141341,-1.0596288,2.4003954,2.4215126,0.5237026,-1.5452977,0.0,0.0,0.0,0.6203650236129761,0.6203650236129761,link6
1764104174.37767,ddpg_train,FAR,train,16,4,-3.2031426165745227,0,230,1,-0.082,-0.033,0.523,3.1411204,-1.0859816,2.3879201,2.5797336,0.5237234,-1.7711933,0.0,0.0,0.0,0.5489879250526428,0.5489879250526428,link6
1764104175.7589679,ddpg_train,FAR,train,16,5,-3.6488420346344164,0,231,1,-0.054,-0.026,0.602,3.1415455,-1.0572938,2.2065609,2.7058723,0.5236091,-2.4331825,0.0,0.0,0.0,0.5573499798774719,0.5573499798774719,link6
1764104177.1426272,ddpg_train,FAR,train,16,6,-3.681394069128673,0,232,1,-0.042,-0.023,0.609,3.1412702,-1.0749983,2.1931818,2.761468,0.52366394,-2.602142,0.0,0.0,0.0,0.5737386345863342,0.5737386345863342,link6
1764104178.5455246,ddpg_train,FAR,train,16,7,-3.6393896496925198,0,233,1,-0.06,-0.021,0.602,3.1411247,-1.0423458,2.2123914,2.7964802,0.5236671,-2.6856015,0.0,0.0,0.0,0.652827799320221,0.652827799320221,link6
1764104179.9266675,ddpg_train,FAR,train,16,8,-3.7406628293846618,0,234,1,-0.09,-0.024,0.614,3.1414754,-0.9527448,2.156061,2.740271,0.5236163,-2.2717094,0.0,0.0,0.0,0.5842143297195435,0.5842143297195435,link6
1764104181.3302286,ddpg_train,FAR,train,16,9,-3.936813993862691,0,235,1,-0.046,-0.024,0.651,3.1411607,-0.994094,2.0643244,2.7454817,0.52366996,-2.262203,0.0,0.0,0.0,0.5603316426277161,0.5603316426277161,link6
1764104182.7172363,ddpg_train,FAR,train,16,10,-4.4852978113649495,0,236,1,0.021,-0.022,0.74,3.1415899,-0.97864056,1.8290195,2.7761178,0.52359915,-2.9646573,0.0,0.0,0.0,0.4790310263633728,0.4790310263633728,link6
1764104184.101039,ddpg_train,FAR,train,16,11,-4.484642547278726,0,237,1,0.018,-0.022,0.742,3.14137,-0.9661285,1.8225108,2.7720525,0.5236272,-2.4394755,0.0,0.0,0.0,0.5136984586715698,0.5136984586715698,link6
1764104185.5063124,ddpg_train,FAR,train,16,12,-4.292980234385666,0,238,1,-0.008,-0.023,0.713,3.14108,-0.9776865,1.9108725,2.769167,0.52366173,-2.157438,0.0,0.0,0.0,0.5992595553398132,0.5992595553398132,link6
1764104186.9027793,ddpg_train,FAR,train,16,13,-4.555576882691619,0,239,1,-0.044,-0.024,0.754,3.141575,-0.84080714,1.7799716,2.7442176,0.5236013,-2.1137295,0.0,0.0,0.0,0.5444814562797546,0.5444814562797546,link6
1764104188.2928562,ddpg_train,FAR,train,16,14,-4.40861295061768,0,240,1,-0.006,-0.014,0.73,3.1412933,-0.95104885,1.8662734,2.923552,0.52363884,-2.3421586,0.0,0.0,0.0,0.5197219252586365,0.5197219252586365,link6
1764104191.9506207,ddpg_train,FAR,train,17,0,-5.6865697815003,0,241,1,-0.196,-0.052,0.925,3.099686,-0.24940014,0.9010124,1.4425639,0.50615096,-0.2246236,0.0,0.0,0.0,0.695431649684906,0.695431649684906,link6
1764104193.3323174,ddpg_train,FAR,train,17,1,-5.188671633720913,0,242,1,-0.125,-0.051,0.852,3.1336532,-0.5373347,1.3623093,2.0463414,0.48707098,-1.6163124,0.0,0.0,0.0,0.5960475206375122,0.5960475206375122,link6
1764104194.712241,ddpg_train,FAR,train,17,2,-4.868860301883662,0,243,1,-0.05,-0.037,0.805,3.1411135,-0.7520744,1.5918849,2.45169,0.46922812,-1.974936,0.0,0.0,0.0,0.5320026278495789,0.5320026278495789,link6
1764104196.0929701,ddpg_train,FAR,train,17,3,-4.360822380154969,0,244,1,-0.139,-0.008,0.712,3.1415598,-0.72431296,1.8646988,3.001247,0.4665915,-1.9976381,0.0,0.0,0.0,0.6449033617973328,0.6449033617973328,link6
1764104197.478652,ddpg_train,FAR,train,17,4,-4.117402316767516,0,245,1,-0.138,-0.003,0.671,3.114651,-0.77433723,1.9846168,3.027072,0.4926644,-2.5814366,0.0,0.0,0.0,0.6557078957557678,0.6557078957557678,link6
1764104198.8683472,ddpg_train,FAR,train,17,5,-3.954705882418743,0,246,1,-0.14,0.003,0.643,3.0884168,-0.8032511,2.0608287,3.0681996,0.50272816,-2.8529532,0.0,0.0,0.0,0.6680247783660889,0.6680247783660889,link6
1764104200.264809,ddpg_train,FAR,train,17,6,-4.2624705455008955,0,247,1,-0.122,0.015,0.698,3.0174906,-0.7708513,1.9201231,3.1431434,0.5222336,-3.3365548,0.0,0.0,0.0,0.6211816668510437,0.6211816668510437,link6
1764104201.6486337,ddpg_train,FAR,train,17,7,-3.8341132952393084,0,248,1,-0.138,0.033,0.622,2.9137475,-0.8168149,2.1158638,3.1531475,0.5235963,-3.5389423,0.0,0.0,0.0,0.6686171889305115,0.6686171889305115,link6
1764104203.0327046,ddpg_train,FAR,train,17,8,-3.439777488590808,0,249,1,-0.161,0.052,0.547,2.8324466,-0.81180936,2.2958295,3.1586225,0.51998436,-3.5806043,0.0,0.0,0.0,0.7042409777641296,0.7042409777641296,link6
1764104204.414377,ddpg_train,FAR,train,17,9,-3.107875199683532,0,250,1,-0.176,0.055,0.483,2.8416593,-0.7972627,2.4073653,3.1455233,0.5115658,-3.4187188,0.0,0.0,0.0,0.6747441291809082,0.6747441291809082,link6
1764104205.8131988,ddpg_train,FAR,train,17,10,-3.1090739703817145,0,251,1,-0.17,0.025,0.488,3.0029805,-0.83657855,2.4114275,3.1565669,0.5073157,-3.7599652,0.0,0.0,0.0,0.6934155821800232,0.6934155821800232,link6
1764104207.1983159,ddpg_train,FAR,train,17,11,-3.1618926935778076,0,252,1,-0.178,0.002,0.495,3.1310544,-0.8224764,2.3933895,3.157619,0.5013678,-3.989844,0.0,0.0,0.0,0.6779947280883789,0.6779947280883789,link6
1764104208.6153395,ddpg_train,FAR,train,17,12,-3.291382482071094,0,253,1,-0.155,0.003,0.525,3.1238348,-0.86991775,2.3407104,3.1484604,0.49545538,-3.0623717,0.0,0.0,0.0,0.6583442091941833,0.6583442091941833,link6
1764104210.015467,ddpg_train,FAR,train,17,13,-3.0951465233582316,0,254,1,-0.133,-0.002,0.497,3.141111,-0.95961416,2.4301982,3.105117,0.497187,-2.921581,0.0,0.0,0.0,0.6413714289665222,0.6413714289665222,link6
1764104211.4010985,ddpg_train,FAR,train,17,14,-3.060116696053938,0,255,1,-0.135,-0.018,0.49,3.1415787,-0.950084,2.4394932,2.8508785,0.52334994,-3.3285153,0.0,0.0,0.0,0.6358025074005127,0.6358025074005127,link6
1764104215.053041,ddpg_train,FAR,train,18,0,-6.022098966846936,0,256,1,0.101,0.241,0.969,1.3079565,-0.0381443,0.6523951,0.0951443,0.21772826,-0.11814198,0.0,0.0,0.0,0.9410815834999084,0.9410815834999084,link6
1764104216.4345639,ddpg_train,FAR,train,18,1,-3.5222561341045404,0,257,1,-0.289,-0.025,0.51,3.065259,-0.48752207,1.9882541,0.86453605,0.52358305,-0.6324161,0.0,0.0,0.0,0.7871510982513428,0.7871510982513428,link6
1764104217.8224852,ddpg_train,FAR,train,18,2,-3.1009140655926166,0,258,1,-0.166,-0.029,0.487,2.9429755,-0.87504524,2.3279743,1.8025758,0.523656,-1.2834584,0.0,0.0,0.0,0.6327967643737793,0.6327967643737793,link6
1764104219.2091687,ddpg_train,FAR,train,18,3,-2.815134386977647,0,259,1,-0.118,-0.028,0.452,2.930237,-1.0568441,2.497588,2.1399834,0.52379805,-1.6410837,0.0,0.0,0.0,0.6541542410850525,0.6541542410850525,link6
1764104220.6027982,ddpg_train,FAR,train,18,4,-2.7718856420347335,0,260,1,-0.166,0.003,0.43,2.8923633,-0.877244,2.5161912,2.4568553,0.5022835,-2.037907,0.0,0.0,0.0,0.6684597134590149,0.6684597134590149,link6
1764104222.0063486,ddpg_train,FAR,train,18,5,-2.7050986980181864,0,261,1,-0.155,0.014,0.422,2.8993647,-0.92373747,2.5587559,2.7130792,0.47119915,-2.230901,0.0,0.0,0.0,0.6661049723625183,0.6661049723625183,link6
1764104223.41097,ddpg_train,FAR,train,18,6,-2.6521396725948874,0,262,1,-0.144,0.022,0.416,2.8787653,-0.9654871,2.5868087,2.854325,0.4556215,-2.196902,0.0,0.0,0.0,0.6497687697410583,0.6497687697410583,link6
1764104224.8390465,ddpg_train,FAR,train,18,7,-2.817861444639663,0,263,1,-0.139,0.061,0.443,2.7099202,-0.9253813,2.5251138,3.09235,0.4701339,-1.3832345,0.0,0.0,0.0,0.6419122815132141,0.6419122815132141,link6
1764104226.221335,ddpg_train,FAR,train,18,8,-2.7324772327016,0,264,1,-0.118,0.044,0.436,2.7236857,-1.020802,2.5755303,3.0145195,0.49751025,-1.6466601,0.0,0.0,0.0,0.626225471496582,0.626225471496582,link6
1764104227.6048167,ddpg_train,FAR,train,18,9,-2.745852390276026,0,265,1,-0.108,0.03,0.442,2.7429523,-1.0701096,2.5783029,2.918868,0.5236547,-1.9424005,0.0,0.0,0.0,0.6224151253700256,0.6224151253700256,link6
1764104228.9864068,ddpg_train,FAR,train,18,10,-2.8073429912918746,0,266,1,-0.153,0.03,0.44,2.8342202,-0.9060784,2.5322409,2.848642,0.5179167,-1.3481523,0.0,0.0,0.0,0.6645460724830627,0.6645460724830627,link6
1764104230.37198,ddpg_train,FAR,train,18,11,-2.672451561231184,0,267,1,-0.148,0.029,0.418,2.8352013,-0.93265015,2.580411,2.8465948,0.4955087,-1.3543705,0.0,0.0,0.0,0.6692239046096802,0.6692239046096802,link6
1764104231.75299,ddpg_train,FAR,train,18,12,-2.792521481709244,0,268,1,-0.189,0.045,0.422,2.82829,-0.771165,2.5137162,2.87628,0.48581582,-1.2099282,0.0,0.0,0.0,0.6893648505210876,0.6893648505210876,link6
1764104233.1404383,ddpg_train,FAR,train,18,13,-2.7178364105551567,0,269,1,-0.183,0.067,0.408,2.738813,-0.7586906,2.545062,2.9744449,0.5075086,-1.5763441,0.0,0.0,0.0,0.6923755407333374,0.6923755407333374,link6
1764104234.5262604,ddpg_train,FAR,train,18,14,-2.6368745091832437,0,270,1,-0.164,0.082,0.398,2.6072485,-0.80361074,2.5846064,2.9573112,0.515139,-1.7072222,0.0,0.0,0.0,0.6483544111251831,0.6483544111251831,link6
1764104238.179015,ddpg_train,FAR,train,19,0,-3.500965730382419,0,271,1,-0.183,0.235,0.501,2.0630734,-0.47253227,2.0882232,1.628204,0.4155783,-0.583541,0.0,0.0,0.0,0.7166211605072021,0.7166211605072021,link6
1764104239.5656235,ddpg_train,FAR,train,19,1,-2.4456682935457343,0,272,1,-0.2,0.076,0.346,2.5539277,-0.6625964,2.5826495,2.2170925,0.5091515,-1.1358151,0.0,0.0,0.0,0.69432133436203,0.69432133436203,link6
1764104240.9432871,ddpg_train,FAR,train,19,2,-2.862148864293059,0,273,1,-0.14,0.077,0.448,2.6327012,-0.8870714,2.5143652,3.1319532,0.52359974,-2.882133,0.0,0.0,0.0,0.6399559378623962,0.6399559378623962,link6
1764104242.3289788,ddpg_train,FAR,train,19,3,-2.8014899460457365,0,274,1,-0.104,0.08,0.446,2.4831178,-0.9902183,2.5505075,3.1488252,0.52360207,-2.755357,0.0,0.0,0.0,0.6024813652038574,0.6024813652038574,link6
1764104243.7169917,ddpg_train,FAR,train,19,4,-2.72151450593935,0,275,1,-0.09,0.083,0.435,2.4061513,-1.0314521,2.5866382,3.1524522,0.5227288,-2.660407,0.0,0.0,0.0,0.6203478574752808,0.6203478574752808,link6
1764104245.1019282,ddpg_train,FAR,train,19,5,-2.860655664552458,0,276,1,-0.12,0.089,0.451,2.4854455,-0.926129,2.517157,3.091008,0.5133831,-2.4007998,0.0,0.0,0.0,0.6210307478904724,0.6210307478904724,link6
1764104246.486154,ddpg_train,FAR,train,19,6,-2.7553980219354535,0,277,1,-0.117,0.076,0.436,2.5588446,-0.9663404,2.5607631,3.1194193,0.50041676,-2.5459342,0.0,0.0,0.0,0.6350652575492859,0.6350652575492859,link6
1764104247.8718596,ddpg_train,FAR,train,19,7,-2.7036856016776394,0,278,1,-0.116,0.064,0.429,2.6396677,-1.0031811,2.5861692,3.1405387,0.49978435,-2.6437702,0.0,0.0,0.0,0.624104917049408,0.624104917049408,link6
1764104249.2562296,ddpg_train,FAR,train,19,8,-2.8644224235587536,0,279,1,-0.107,0.035,0.462,2.8297176,-1.0562711,2.5234723,3.1441376,0.47477987,-2.5675218,0.0,0.0,0.0,0.6091467142105103,0.6091467142105103,link6
1764104250.64639,ddpg_train,FAR,train,19,9,-2.745296609260502,0,280,1,-0.094,0.029,0.445,2.8522835,-1.1260056,2.5694897,3.1555948,0.44445175,-2.2963357,0.0,0.0,0.0,0.6134271621704102,0.6134271621704102,link6
1764104252.0355043,ddpg_train,FAR,train,19,10,-2.7099266820177266,0,281,1,-0.094,0.028,0.439,2.8631918,-1.1441013,2.5825057,3.1588202,0.42382342,-2.0859492,0.0,0.0,0.0,0.6120490431785583,0.6120490431785583,link6
1764104253.4341586,ddpg_train,FAR,train,19,11,-2.827608546653767,0,282,1,-0.111,0.014,0.456,3.0209506,-1.071402,2.5305598,3.1458952,0.4273453,-1.0904486,0.0,0.0,0.0,0.6169330477714539,0.6169330477714539,link6
1764104254.8222845,ddpg_train,FAR,train,19,12,-2.726114749443327,0,283,1,-0.096,0.015,0.442,2.9946215,-1.1340001,2.575278,3.1570225,0.4385065,-1.3843037,0.0,0.0,0.0,0.6138428449630737,0.6138428449630737,link6
1764104256.2273593,ddpg_train,FAR,train,19,13,-2.751375872432534,0,284,1,-0.096,0.02,0.446,2.940148,-1.1350573,2.5759935,3.1572077,0.45701775,-1.78206,0.0,0.0,0.0,0.6078537702560425,0.6078537702560425,link6
1764104257.6135414,ddpg_train,FAR,train,19,14,-2.849693965663159,0,285,1,-0.101,0.013,0.462,2.9823487,-1.0865257,2.5412736,3.0883396,0.5235991,-1.4215041,0.0,0.0,0.0,0.6105313897132874,0.6105313897132874,link6
1764104261.2771814,ddpg_train,FAR,train,20,0,-6.229986398621163,0,286,1,0.116,0.047,1.03,0.37529895,-0.06940715,0.36841393,0.09102733,0.0700549,0.018716536,0.0,0.0,0.0,0.7007049918174744,0.7007049918174744,link6
1764104262.6717181,ddpg_train,FAR,train,20,1,-1.9002242906727527,0,287,1,-0.189,0.114,0.226,2.5322556,-0.36283895,2.5292277,0.26674208,0.45783895,0.008945463,0.0,0.0,0.0,0.6943903565406799,0.6943903565406799,link6
1764104264.0568779,ddpg_train,FAR,train,20,2,-2.125641227449628,0,288,1,-0.196,0.046,0.29,2.6629841,-0.63308585,2.5662055,1.101411,0.47676098,0.4351529,0.0,0.0,0.0,0.6509547233581543,0.6509547233581543,link6
1764104265.4501235,ddpg_train,FAR,train,20,3,-2.6038311195924773,0,289,1,-0.134,-0.011,0.411,2.8434043,-1.0346221,2.5758862,2.1211524,0.5031817,0.8280112,0.0,0.0,0.0,0.6294171214103699,0.6294171214103699,link6
1764104266.8436875,ddpg_train,FAR,train,20,4,-2.7420930799988383,0,290,1,-0.116,-0.035,0.439,3.0671027,-1.0492142,2.5416667,2.385457,0.5211487,-0.32923695,0.0,0.0,0.0,0.6254545450210571,0.6254545450210571,link6
1764104268.2350595,ddpg_train,FAR,train,20,5,-2.6654106384985274,0,291,1,-0.115,-0.029,0.427,3.086219,-1.0581279,2.5832891,2.525508,0.50860894,-0.48286384,0.0,0.0,0.0,0.6657446622848511,0.6657446622848511,link6
1764104269.6146767,ddpg_train,FAR,train,20,6,-2.819341723560917,0,292,1,-0.164,-0.013,0.439,3.141579,-0.8802349,2.5152323,2.9032922,0.4718755,-0.49889767,0.0,0.0,0.0,0.6651355028152466,0.6651355028152466,link6
1764104271.0077653,ddpg_train,FAR,train,20,7,-2.7527171112283053,0,293,1,-0.154,0.004,0.431,3.047406,-0.92106485,2.553678,2.9668734,0.48778576,-0.76015466,0.0,0.0,0.0,0.664650022983551,0.664650022983551,link6
1764104272.4484885,ddpg_train,FAR,train,20,8,-2.689093039519392,0,294,1,-0.141,0.009,0.424,3.0309732,-0.96892124,2.5870185,3.0372305,0.5016477,-0.8037534,0.0,0.0,0.0,0.6493054032325745,0.6493054032325745,link6
1764104273.8463914,ddpg_train,FAR,train,20,9,-2.8841589970573214,0,295,1,-0.114,0.011,0.465,2.9758816,-1.0426956,2.5244145,3.0107317,0.5235987,-0.97672486,0.0,0.0,0.0,0.6139583587646484,0.6139583587646484,link6
1764104275.2473032,ddpg_train,FAR,train,20,10,-2.761225115546749,0,296,1,-0.1,0.022,0.447,2.8822818,-1.0911535,2.572639,3.0878747,0.5236271,-1.3041202,0.0,0.0,0.0,0.6238672137260437,0.6238672137260437,link6
1764104276.6350768,ddpg_train,FAR,train,20,11,-2.7717316547224327,0,297,1,-0.105,0.039,0.446,2.789346,-1.0733035,2.5779352,3.1577246,0.523421,-1.5093511,0.0,0.0,0.0,0.598097562789917,0.598097562789917,link6
1764104278.0258987,ddpg_train,FAR,train,20,12,-2.8369776534370383,0,298,1,-0.104,0.047,0.457,2.7108223,-1.0501112,2.5362766,3.1250176,0.4936543,-1.6822875,0.0,0.0,0.0,0.6140663623809814,0.6140663623809814,link6
1764104279.4139953,ddpg_train,FAR,train,20,13,-2.7401788493117523,0,299,1,-0.096,0.024,0.444,2.8274915,-1.1175675,2.5803123,3.0304604,0.49522102,-1.6775749,0.0,0.0,0.0,0.6135936975479126,0.6135936975479126,link6
1764104280.7938359,ddpg_train,FAR,train,20,14,-2.8802919588603704,0,300,1,-0.116,-0.002,0.464,3.0067127,-1.0477711,2.513675,2.8267827,0.47901756,-2.0202878,0.0,0.0,0.0,0.6157721877098083,0.6157721877098083,link6
1764104284.4456573,ddpg_train,FAR,train,21,0,-5.5090336204754955,0,301,1,0.025,0.238,0.886,1.5718514,-0.30151132,1.1077639,-0.03282504,0.22398385,-0.42252094,0.0,0.0,0.0,0.758746325969696,0.758746325969696,link6
1764104285.8315997,ddpg_train,FAR,train,21,1,-3.110385915771701,0,302,1,-0.238,0.045,0.457,2.9346707,-0.6391923,2.1711717,0.18082324,0.42470264,-0.632566,0.0,0.0,0.0,0.6563119292259216,0.6563119292259216,link6
1764104287.2218354,ddpg_train,FAR,train,21,2,-2.975206944344344,0,303,1,-0.122,-0.043,0.477,3.141458,-0.9996465,2.443906,2.3508215,0.5037837,0.65498656,0.0,0.0,0.0,0.6231266856193542,0.6231266856193542,link6
1764104288.6031168,ddpg_train,FAR,train,21,3,-3.003621131008049,0,304,1,-0.123,-0.014,0.484,3.051485,-0.9976282,2.4535646,2.7371526,0.49268863,-0.12295094,0.0,0.0,0.0,0.6702989935874939,0.6702989935874939,link6
1764104290.0029538,ddpg_train,FAR,train,21,4,-3.1076333885628302,0,305,1,-0.154,0.023,0.493,2.959543,-0.8902499,2.4109626,3.0498888,0.47465205,-1.06334,0.0,0.0,0.0,0.6793645620346069,0.6793645620346069,link6
1764104291.393118,ddpg_train,FAR,train,21,5,-3.119799842472585,0,306,1,-0.171,0.032,0.489,2.9597988,-0.84102434,2.3870108,3.1482182,0.40555632,-0.43245035,0.0,0.0,0.0,0.6784593462944031,0.6784593462944031,link6
1764104292.7829854,ddpg_train,FAR,train,21,6,-3.211429543505126,0,307,1,-0.144,0.027,0.513,2.9238586,-0.91880345,2.3511124,3.0460007,0.41031677,-0.31184697,0.0,0.0,0.0,0.6178905963897705,0.6178905963897705,link6
1764104294.165035,ddpg_train,FAR,train,21,7,-3.9241250373986767,0,308,1,-0.108,-0.012,0.643,3.1408093,-0.880975,2.074005,2.9270508,0.47211966,0.13227941,0.0,0.0,0.0,0.6081729531288147,0.6081729531288147,link6
1764104295.5426805,ddpg_train,FAR,train,21,8,-3.7977044796062214,0,309,1,-0.084,-0.013,0.625,3.1413329,-0.96312785,2.1298337,2.898905,0.44559938,0.14930026,0.0,0.0,0.0,0.5938236713409424,0.5938236713409424,link6
1764104296.9262938,ddpg_train,FAR,train,21,9,-3.736539358785407,0,310,1,-0.055,-0.013,0.617,3.1011586,-1.0443442,2.1621225,2.8673015,0.45370734,0.17976575,0.0,0.0,0.0,0.5570555925369263,0.5570555925369263,link6
1764104298.309377,ddpg_train,FAR,train,21,10,-3.4225994570256772,0,311,1,-0.117,0.025,0.556,2.8124955,-0.9449666,2.2994394,2.917461,0.52303743,0.34051257,0.0,0.0,0.0,0.6190933585166931,0.6190933585166931,link6
1764104299.6863148,ddpg_train,FAR,train,21,11,-3.2065931699909345,0,312,1,-0.112,0.003,0.521,3.0145378,-0.9974234,2.389612,2.9349966,0.5236329,0.2506675,0.0,0.0,0.0,0.6305854916572571,0.6305854916572571,link6
1764104301.0758405,ddpg_train,FAR,train,21,12,-3.0817946368597458,0,313,1,-0.103,-0.004,0.501,3.0705435,-1.0551839,2.4517763,2.9926689,0.5236453,0.11664468,0.0,0.0,0.0,0.5965306162834167,0.5965306162834167,link6
1764104302.4601514,ddpg_train,FAR,train,21,13,-3.105019249400882,0,314,1,-0.094,0.027,0.506,2.8617043,-1.054593,2.4372852,3.1428752,0.52359885,-0.10795308,0.0,0.0,0.0,0.5965427756309509,0.5965427756309509,link6
1764104303.8549602,ddpg_train,FAR,train,21,14,-2.8628199139832566,0,315,1,-0.093,0.013,0.466,2.9530952,-1.1188158,2.5322957,3.0535464,0.48552704,-0.69929904,0.0,0.0,0.0,0.6154778599739075,0.6154778599739075,link6
1764104307.511441,ddpg_train,FAR,train,22,0,-3.290979029464098,0,316,1,-0.159,0.028,0.523,2.66235,-0.87771595,2.213084,1.4484911,0.4052082,-1.0825747,0.0,0.0,0.0,0.6590292453765869,0.6590292453765869,link6
1764104308.902316,ddpg_train,FAR,train,22,1,-3.0872449799272363,0,317,1,-0.11,-0.023,0.5,2.920644,-1.0496151,2.3904505,2.2064955,0.48525816,-0.55148184,0.0,0.0,0.0,0.5999134182929993,0.5999134182929993,link6
1764104310.2925737,ddpg_train,FAR,train,22,2,-3.04309629273539,0,318,1,-0.073,-0.023,0.499,3.0424607,-1.1513786,2.454045,2.6360466,0.5237221,-0.40437034,0.0,0.0,0.0,0.5872253775596619,0.5872253775596619,link6
1764104311.6768596,ddpg_train,FAR,train,22,3,-3.0962018052201152,0,319,1,-0.094,-0.018,0.505,3.1361353,-1.0667459,2.4375474,2.8385415,0.52361506,-0.78203166,0.0,0.0,0.0,0.6010361313819885,0.6010361313819885,link6
1764104313.0566597,ddpg_train,FAR,train,22,4,-2.906543070166571,0,320,1,-0.084,-0.012,0.475,3.1412401,-1.1313637,2.5199308,2.947548,0.52365255,-0.92887753,0.0,0.0,0.0,0.6081258654594421,0.6081258654594421,link6
1764104314.4417417,ddpg_train,FAR,train,22,5,-2.844005435495369,0,321,1,-0.086,-0.004,0.464,3.115066,-1.1412172,2.5480402,3.0469553,0.5236245,-1.0743731,0.0,0.0,0.0,0.5992382764816284,0.5992382764816284,link6
1764104315.8392625,ddpg_train,FAR,train,22,6,-3.1472205874923094,0,322,1,-0.099,0.013,0.513,2.9584517,-1.0413116,2.4169235,3.0566573,0.523599,-1.1439469,0.0,0.0,0.0,0.6078463196754456,0.6078463196754456,link6
1764104317.2224617,ddpg_train,FAR,train,22,7,-2.9358020693922944,0,323,1,-0.097,0.011,0.478,2.9227686,-1.0798537,2.5095522,2.9755442,0.52362156,-1.06424,0.0,0.0,0.0,0.6365272998809814,0.6365272998809814,link6
1764104318.607909,ddpg_train,FAR,train,22,8,-2.9012724425200305,0,324,1,-0.106,0.041,0.468,2.6092124,-1.0448866,2.5137372,2.8366356,0.52359927,-0.34227708,0.0,0.0,0.0,0.6061265468597412,0.6061265468597412,link6
1764104319.9897742,ddpg_train,FAR,train,22,9,-2.7955502775968935,0,325,1,-0.112,0.025,0.45,2.725807,-1.0502467,2.5487869,2.766245,0.5236351,-0.74952143,0.0,0.0,0.0,0.6304567456245422,0.6304567456245422,link6
1764104321.3785045,ddpg_train,FAR,train,22,10,-2.7002315140626156,0,326,1,-0.117,0.017,0.433,2.7886324,-1.0552984,2.5857997,2.7263181,0.5236959,-0.8618762,0.0,0.0,0.0,0.65533047914505,0.65533047914505,link6
1764104322.759649,ddpg_train,FAR,train,22,11,-2.8351665007290894,0,327,1,-0.161,0.009,0.443,2.9790618,-0.88195485,2.5182326,2.8611927,0.52360594,-0.40877444,0.0,0.0,0.0,0.6636775732040405,0.6636775732040405,link6
1764104324.1425188,ddpg_train,FAR,train,22,12,-2.764728515281454,0,328,1,-0.133,0.024,0.439,2.9054837,-0.97916144,2.5601254,3.0381763,0.5236383,-0.13401712,0.0,0.0,0.0,0.6349766850471497,0.6349766850471497,link6
1764104325.5243046,ddpg_train,FAR,train,22,13,-2.731741738524393,0,329,1,-0.111,0.024,0.439,2.9097562,-1.0662674,2.586514,3.0964694,0.52360636,0.16833548,0.0,0.0,0.0,0.611616849899292,0.611616849899292,link6
1764104326.920588,ddpg_train,FAR,train,22,14,-2.956991893957298,0,330,1,-0.102,0.013,0.48,2.9705026,-1.0640028,2.4956667,3.0750751,0.5236055,0.85684943,0.0,0.0,0.0,0.6061728596687317,0.6061728596687317,link6
1764104330.577502,ddpg_train,FAR,train,23,0,-6.136519358175303,0,331,1,0.141,0.082,1.009,0.58034253,-0.10908485,0.5576123,0.10294249,0.10862468,0.07944654,0.0,0.0,0.0,0.7149462103843689,0.7149462103843689,link6
1764104331.9595006,ddpg_train,FAR,train,23,1,-2.769940622916852,0,332,1,-0.202,0.125,0.395,2.5208473,-0.60157484,2.2460043,0.2614082,0.5197522,-0.3475656,0.0,0.0,0.0,0.7040905952453613,0.7040905952453613,link6
1764104333.3546264,ddpg_train,FAR,train,23,2,-2.9528449650171367,0,333,1,-0.166,0.004,0.461,2.7372296,-0.8898371,2.3636167,1.6065217,0.52363247,0.70691675,0.0,0.0,0.0,0.5960910320281982,0.5960910320281982,link6
1764104334.7626085,ddpg_train,FAR,train,23,3,-3.105541688630181,0,334,1,-0.074,-0.008,0.51,2.8720546,-1.1417334,2.4338987,2.6869922,0.52370286,1.4232057,0.0,0.0,0.0,0.5942662358283997,0.5942662358283997,link6
1764104336.1660826,ddpg_train,FAR,train,23,4,-3.1898352768886977,0,335,1,-0.078,0.023,0.523,2.6955202,-1.0841571,2.398559,2.926215,0.5236238,0.2634341,0.0,0.0,0.0,0.5868982076644897,0.5868982076644897,link6
1764104337.5599496,ddpg_train,FAR,train,23,5,-3.258266977228483,0,336,1,-0.054,0.018,0.537,2.7046442,-1.1427017,2.3826566,3.0303502,0.52364904,-0.27588016,0.0,0.0,0.0,0.5614839196205139,0.5614839196205139,link6
1764104338.9630852,ddpg_train,FAR,train,23,6,-3.7528155737636344,0,337,1,-0.038,0.025,0.62,2.5671482,-1.048519,2.1711602,3.1417959,0.52359873,-0.9164309,0.0,0.0,0.0,0.5389655828475952,0.5389655828475952,link6
1764104340.344839,ddpg_train,FAR,train,23,7,-3.739343553314398,0,338,1,-0.024,0.015,0.619,2.6102693,-1.0828023,2.1741452,3.1504323,0.5235958,-1.1784854,0.0,0.0,0.0,0.5450838804244995,0.5450838804244995,link6
1764104341.7291114,ddpg_train,FAR,train,23,8,-3.714924910644159,0,339,1,-0.015,0.009,0.615,2.639921,-1.1254187,2.1926887,3.139224,0.5235941,-1.2144432,0.0,0.0,0.0,0.5363067984580994,0.5363067984580994,link6
1764104343.1119072,ddpg_train,FAR,train,23,9,-3.8935404456257747,0,340,1,-0.019,0.014,0.644,2.5127163,-1.059116,2.1110613,3.1399217,0.5236,-1.2381538,0.0,0.0,0.0,0.5223336219787598,0.5223336219787598,link6
1764104344.5115242,ddpg_train,FAR,train,23,10,-3.6704960114335443,0,341,1,-0.016,0.011,0.608,2.576858,-1.1237072,2.2120225,3.1517832,0.5235936,-0.8043405,0.0,0.0,0.0,0.5490142107009888,0.5490142107009888,link6
1764104345.896154,ddpg_train,FAR,train,23,11,-3.5288812277848205,0,342,1,-0.024,0.015,0.584,2.6061707,-1.1504117,2.2749352,3.1569993,0.52359515,-0.41295463,0.0,0.0,0.0,0.5483735799789429,0.5483735799789429,link6
1764104347.278767,ddpg_train,FAR,train,23,12,-3.6673859693503763,0,343,1,-0.035,0.025,0.606,2.5238843,-1.0728494,2.2073038,3.1454558,0.5235976,0.7440721,0.0,0.0,0.0,0.5415343046188354,0.5415343046188354,link6
1764104348.6708333,ddpg_train,FAR,train,23,13,-3.5517328064069558,0,344,1,-0.025,0.017,0.588,2.5554595,-1.1367881,2.261383,3.1557865,0.5235937,0.46903387,0.0,0.0,0.0,0.5568939447402954,0.5568939447402954,link6
1764104350.0526507,ddpg_train,FAR,train,23,14,-3.1872420933191044,0,345,1,-0.092,0.055,0.518,2.5495744,-1.0168247,2.4034543,3.0497322,0.5235989,0.01710542,0.0,0.0,0.0,0.592187225818634,0.592187225818634,link6
1764104353.729694,ddpg_train,FAR,train,24,0,-5.550626143604144,0,346,1,0.22,0.312,0.842,1.053173,-0.057888456,1.0727115,-0.019427406,0.18827003,-0.094649844,0.0,0.0,0.0,0.723598301410675,0.723598301410675,link6
1764104355.1118698,ddpg_train,FAR,train,24,1,-2.4185224052460317,0,347,1,-0.24,0.028,0.322,2.86871,-0.51379454,2.3971817,0.70541966,0.4930268,-1.0418813,0.0,0.0,0.0,0.7398059368133545,0.7398059368133545,link6
1764104356.4938524,ddpg_train,FAR,train,24,2,-2.7778287602139553,0,348,1,-0.168,-0.028,0.429,3.0835185,-0.87418973,2.5189404,2.4974537,0.51715726,0.5897287,0.0,0.0,0.0,0.6389570832252502,0.6389570832252502,link6
1764104357.8841405,ddpg_train,FAR,train,24,3,-2.7369665193282757,0,349,1,-0.109,-0.006,0.441,3.141125,-1.0780731,2.5850828,3.0471528,0.5236312,0.7144509,0.0,0.0,0.0,0.6109912991523743,0.6109912991523743,link6
1764104359.2929006,ddpg_train,FAR,train,24,4,-2.8776313868319536,0,350,1,-0.134,0.004,0.459,3.085115,-0.97002906,2.5166214,3.0844243,0.5235991,-0.3030544,0.0,0.0,0.0,0.6368818879127502,0.6368818879127502,link6
1764104360.631396,ddpg_train,FAR,train,24,5,-2.7972961440312605,0,351,1,-0.106,0.009,0.452,3.048074,-1.0785013,2.5616393,3.1325936,0.52360654,-0.053119212,0.0,0.0,0.0,0.6101668477058411,0.6101668477058411,link6
1764104362.0615876,ddpg_train,FAR,train,24,6,-2.7523243599092386,0,352,1,-0.087,0.017,0.448,2.9513597,-1.1498051,2.5863385,3.1598098,0.52359766,0.10395972,0.0,0.0,0.0,0.6015017032623291,0.6015017032623291,link6
1764104363.4452753,ddpg_train,FAR,train,24,7,-2.8743671291171826,0,353,1,-0.101,0.035,0.465,2.7865689,-1.0634141,2.5248163,3.0936935,0.50655544,0.7914575,0.0,0.0,0.0,0.6066193580627441,0.6066193580627441,link6
1764104364.8407779,ddpg_train,FAR,train,24,8,-2.7627700173283425,0,354,1,-0.1,0.028,0.447,2.7838118,-1.0946728,2.5709877,2.9903743,0.50666726,1.3370694,0.0,0.0,0.0,0.6282325983047485,0.6282325983047485,link6
1764104366.2241938,ddpg_train,FAR,train,24,9,-2.7411522044506165,0,355,1,-0.11,0.026,0.441,2.7912667,-1.072321,2.5787678,2.9185662,0.5067531,1.7597933,0.0,0.0,0.0,0.625304102897644,0.625304102897644,link6
1764104367.615907,ddpg_train,FAR,train,24,10,-3.1924182143960236,0,356,1,-0.088,0.02,0.522,2.9088402,-1.0699681,2.3973815,3.1338935,0.48257354,1.658683,0.0,0.0,0.0,0.5881125330924988,0.5881125330924988,link6
1764104369.010543,ddpg_train,FAR,train,24,11,-2.993042072385663,0,357,1,-0.076,0.015,0.491,2.9589963,-1.1457572,2.481272,3.1579647,0.46648076,1.9472481,0.0,0.0,0.0,0.6156201362609863,0.6156201362609863,link6
1764104370.392711,ddpg_train,FAR,train,24,12,-2.9017378729614114,0,358,1,-0.113,0.019,0.468,2.9707592,-1.0488386,2.4983087,3.139609,0.43293786,1.9686893,0.0,0.0,0.0,0.6138002872467041,0.6138002872467041,link6
1764104371.7812662,ddpg_train,FAR,train,24,13,-2.735942942342371,0,359,1,-0.126,0.028,0.436,2.9062996,-1.0290881,2.5477562,3.1022928,0.367343,2.042198,0.0,0.0,0.0,0.6473748683929443,0.6473748683929443,link6
1764104373.1910675,ddpg_train,FAR,train,24,14,-2.651629221569068,0,360,1,-0.122,0.03,0.422,2.8905597,-1.0570167,2.5734901,3.0925562,0.33450028,2.032922,0.0,0.0,0.0,0.623454749584198,0.623454749584198,link6
1764104376.8642094,ddpg_train,FAR,train,25,0,-4.374513439360355,0,361,1,-0.044,0.142,0.712,1.7802861,-0.74053276,1.7796572,1.3872404,0.14391285,-0.058616783,0.0,0.0,0.0,0.6176466345787048,0.6176466345787048,link6
1764104378.2489803,ddpg_train,FAR,train,25,1,-2.9711628172397964,0,362,1,-0.094,0.046,0.481,2.5133722,-1.1035359,2.3815792,2.0283852,0.17079008,0.057612088,0.0,0.0,0.0,0.5646745562553406,0.5646745562553406,link6
1764104379.6368132,ddpg_train,FAR,train,25,2,-3.636691719972651,0,363,1,-0.068,0.025,0.599,2.7565835,-1.051761,2.117113,2.4600875,0.028514512,2.0995276,0.0,0.0,0.0,0.5713932514190674,0.5713932514190674,link6
1764104381.0202315,ddpg_train,FAR,train,25,3,-3.689132402345252,0,364,1,-0.052,0.014,0.61,2.5189674,-1.0792673,2.1003919,2.0065646,0.16997492,2.1556337,0.0,0.0,0.0,0.5815980434417725,0.5815980434417725,link6
1764104382.4024906,ddpg_train,FAR,train,25,4,-3.7864256360064728,0,365,1,-0.055,0.012,0.625,2.2824955,-1.0726613,2.0441964,1.596849,0.26925457,2.3470862,0.0,0.0,0.0,0.5461063981056213,0.5461063981056213,link6
1764104383.7863998,ddpg_train,FAR,train,25,5,-3.3683553573770424,0,366,1,0.015,0.118,0.541,1.4633425,-0.9742337,2.1423974,-0.1340985,0.34502825,3.5701156,0.0,0.0,0.0,0.47145143151283264,0.47145143151283264,link6
1764104385.1715095,ddpg_train,FAR,train,25,6,-3.3648982888157906,0,367,1,0.077,0.116,0.535,1.3608278,-0.9292665,2.232553,-1.7953116,0.44171038,3.4756737,0.0,0.0,0.0,0.46464499831199646,0.46464499831199646,link6
1764104386.555527,ddpg_train,FAR,train,25,7,-3.550349851999916,0,368,1,0.033,0.158,0.567,1.3855689,-0.82035995,2.241575,-3.126093,0.52359545,3.3687894,0.0,0.0,0.0,0.5937864780426025,0.5937864780426025,link6
1764104387.9457211,ddpg_train,FAR,train,25,8,-3.7518269182457065,0,369,1,-0.16,0.19,0.573,2.2770174,-0.57530844,2.1209123,-3.1351268,0.523597,3.9204142,0.0,0.0,0.0,0.6972014307975769,0.6972014307975769,link6
1764104389.3267865,ddpg_train,FAR,train,25,9,-3.4614527089443072,0,370,1,-0.177,0.182,0.517,2.3482878,-0.58495224,2.2493038,-3.1242454,0.5236004,4.0853696,0.0,0.0,0.0,0.6789119839668274,0.6789119839668274,link6
1764104390.7858183,ddpg_train,FAR,train,25,10,-3.229593084812054,0,371,1,-0.152,0.168,0.487,2.3067167,-0.66226894,2.34389,-3.141295,0.52359885,4.750398,0.0,0.0,0.0,0.6588853597640991,0.6588853597640991,link6
1764104392.1696603,ddpg_train,FAR,train,25,11,-3.448650597547528,0,372,1,-0.137,0.147,0.537,2.3246396,-0.7277383,2.2688236,-3.1297615,0.5236003,4.9111295,0.0,0.0,0.0,0.6381511688232422,0.6381511688232422,link6
1764104393.5614572,ddpg_train,FAR,train,25,12,-3.550045248667839,0,373,1,-0.128,0.133,0.561,2.342626,-0.7597045,2.231416,-3.1235843,0.5174857,4.8589406,0.0,0.0,0.0,0.6642596125602722,0.6642596125602722,link6
1764104394.9492452,ddpg_train,FAR,train,25,13,-3.353650472077297,0,374,1,-0.19,0.054,0.522,2.8751595,-0.7435068,2.3061516,-3.1388943,0.5187535,4.8817725,0.0,0.0,0.0,0.6924012899398804,0.6924012899398804,link6
1764104396.3435981,ddpg_train,FAR,train,25,14,-3.189839448331352,0,375,1,-0.156,0.029,0.506,2.9696183,-0.874574,2.385357,-3.126467,0.51451445,5.0076714,0.0,0.0,0.0,0.6429257392883301,0.6429257392883301,link6
1764104399.99756,ddpg_train,FAR,train,26,0,-2.897180674682188,0,376,1,-0.199,0.256,0.357,2.2911508,-0.28809282,2.3808613,-2.8035872,0.48536947,1.3972144,0.0,0.0,0.0,0.725012481212616,0.725012481212616,link6
1764104401.3792264,ddpg_train,FAR,train,26,1,-2.4915800716818124,0,377,1,-0.25,0.119,0.309,2.7175,-0.3581601,2.5568833,-3.0520787,0.51868933,3.2124314,0.0,0.0,0.0,0.7737802267074585,0.7737802267074585,link6
1764104402.7674441,ddpg_train,FAR,train,26,2,-2.5249263562235105,0,378,1,-0.251,0.042,0.334,2.9779494,-0.47198686,2.5719516,-3.1280344,0.52359694,4.5735474,0.0,0.0,0.0,0.6814136505126953,0.6814136505126953,link6
1764104404.156145,ddpg_train,FAR,train,26,3,-2.799006742546681,0,379,1,-0.163,0.029,0.435,2.960689,-0.8655538,2.5321317,-3.1369152,0.5235981,5.070765,0.0,0.0,0.0,0.6666719317436218,0.6666719317436218,link6
1764104405.5427022,ddpg_train,FAR,train,26,4,-2.703917468841907,0,380,1,-0.148,0.036,0.423,2.9121552,-0.9196457,2.5793111,-3.1251783,0.523597,5.4979954,0.0,0.0,0.0,0.6662155985832214,0.6662155985832214,link6
1764104406.9215152,ddpg_train,FAR,train,26,5,-2.8997394086405466,0,381,1,-0.123,0.025,0.465,2.9407716,-1.0026515,2.513684,-3.1414895,0.5235988,5.623653,0.0,0.0,0.0,0.6225920915603638,0.6225920915603638,link6
1764104408.2991421,ddpg_train,FAR,train,26,6,-2.829388920865734,0,382,1,-0.1,0.028,0.458,2.8687053,-1.0781605,2.5436502,-3.1340141,0.52359855,5.34823,0.0,0.0,0.0,0.6063035726547241,0.6063035726547241,link6
1764104409.693289,ddpg_train,FAR,train,26,7,-2.7541837340204105,0,383,1,-0.082,0.035,0.448,2.7404084,-1.1467248,2.5841463,-3.123921,0.5236002,5.268953,0.0,0.0,0.0,0.5916677117347717,0.5916677117347717,link6
1764104411.0816698,ddpg_train,FAR,train,26,8,-2.9066202487351274,0,384,1,-0.087,0.07,0.469,2.4631133,-1.0438117,2.5159307,-3.1409292,0.5235989,4.6492014,0.0,0.0,0.0,0.5880956053733826,0.5880956053733826,link6
1764104412.4745421,ddpg_train,FAR,train,26,9,-2.769584002449592,0,385,1,-0.099,0.075,0.443,2.505276,-1.0042499,2.5598311,-3.1299813,0.52360094,4.4953303,0.0,0.0,0.0,0.6309477686882019,0.6309477686882019,link6
1764104413.871526,ddpg_train,FAR,train,26,10,-2.7198260992014514,0,386,1,-0.103,0.082,0.431,2.4716256,-1.0054003,2.5867326,-3.1233037,0.5236045,4.318348,0.0,0.0,0.0,0.5752825736999512,0.5752825736999512,link6
1764104415.2627704,ddpg_train,FAR,train,26,11,-2.8834790880520593,0,387,1,-0.077,0.08,0.465,2.3411572,-1.047892,2.523535,-3.1390326,0.52359897,3.9090478,0.0,0.0,0.0,0.5806493759155273,0.5806493759155273,link6
1764104416.6744015,ddpg_train,FAR,train,26,12,-2.7540595133164905,0,388,1,-0.094,0.078,0.441,2.4757886,-1.0301056,2.5725458,-3.0896692,0.51703805,3.7242758,0.0,0.0,0.0,0.6384415626525879,0.6384415626525879,link6
1764104418.059017,ddpg_train,FAR,train,26,13,-2.7132860272255606,0,389,1,-0.128,0.082,0.425,2.6038992,-0.92657804,2.57768,-3.0629258,0.51120085,3.6051817,0.0,0.0,0.0,0.6892176866531372,0.6892176866531372,link6
1764104419.4414725,ddpg_train,FAR,train,26,14,-2.6633652368387266,0,390,1,-0.192,0.126,0.379,2.5841618,-0.62516475,2.5395644,-3.0498905,0.47131097,4.03861,0.0,0.0,0.0,0.7019473314285278,0.7019473314285278,link6
1764104423.094901,ddpg_train,FAR,train,27,0,-6.24567862468943,0,391,1,0.177,0.047,1.023,0.2970334,0.023401512,0.3709005,-0.23748407,0.045408588,-0.0154188275,0.0,0.0,0.0,0.6204429268836975,0.6204429268836975,link6
1764104424.478153,ddpg_train,FAR,train,27,1,-1.708914819261679,0,392,1,-0.155,0.207,0.117,2.3102596,0.14437653,2.5201502,-0.75042653,0.29852176,0.56135446,0.0,0.0,0.0,0.674266517162323,0.674266517162323,link6
1764104425.86699,ddpg_train,FAR,train,27,2,-1.8453672994263126,0,393,1,0.004,0.132,0.277,2.6713557,-0.8836053,2.7925146,-1.5638741,1.1808026,2.1122966,0.0,0.0,0.0,0.7094271779060364,0.7094271779060364,link6
1764104427.2586074,ddpg_train,FAR,train,27,3,-2.4321127925968935,0,394,1,-0.194,0.099,0.341,2.8623571,-0.6525482,2.5769844,-2.2572625,0.41584596,3.2477822,0.0,0.0,0.0,0.7038335204124451,0.7038335204124451,link6
1764104428.6436527,ddpg_train,FAR,train,27,4,-2.6817118184609763,0,395,1,-0.226,0.055,0.381,2.9037998,-0.61954445,2.5210257,-3.1396818,0.42386422,4.179706,0.0,0.0,0.0,0.7297698855400085,0.7297698855400085,link6
1764104430.0251791,ddpg_train,FAR,train,27,5,-2.571837023292124,0,396,1,-0.217,0.047,0.366,2.9355364,-0.644278,2.5643013,-3.1292143,0.4364335,4.2496905,0.0,0.0,0.0,0.7309303283691406,0.7309303283691406,link6
1764104431.40844,ddpg_train,FAR,train,27,6,-2.554464158059101,0,397,1,-0.21,0.043,0.367,2.9513097,-0.67543066,2.5806217,-3.0919914,0.43499377,4.283158,0.0,0.0,0.0,0.7041882276535034,0.7041882276535034,link6
1764104432.7951217,ddpg_train,FAR,train,27,7,-2.8812671199355884,0,398,1,-0.191,0.025,0.439,3.0202618,-0.7867071,2.4724038,-3.1146498,0.42250112,4.3549647,0.0,0.0,0.0,0.6938090920448303,0.6938090920448303,link6
1764104434.180453,ddpg_train,FAR,train,27,8,-2.743941304750925,0,399,1,-0.16,0.011,0.427,3.0826056,-0.9063673,2.5430136,-3.1252906,0.42997885,4.3223577,0.0,0.0,0.0,0.654430627822876,0.654430627822876,link6
1764104435.556921,ddpg_train,FAR,train,27,9,-2.792493678816902,0,400,1,-0.173,0.0,0.431,3.1415875,-0.8597961,2.5137076,-3.1414833,0.40631554,4.900912,0.0,0.0,0.0,0.6734234094619751,0.6734234094619751,link6
1764104436.9450202,ddpg_train,FAR,train,27,10,-2.7352064948684305,0,401,1,-0.156,0.012,0.427,3.14118,-0.9211803,2.5473793,-2.915312,0.43672585,4.8288794,0.0,0.0,0.0,0.6625431180000305,0.6625431180000305,link6
1764104438.329924,ddpg_train,FAR,train,27,11,-2.6586014767885877,0,402,1,-0.138,0.024,0.419,3.0707705,-0.9832842,2.5859065,-2.8563635,0.46257475,4.671562,0.0,0.0,0.0,0.6457463502883911,0.6457463502883911,link6
1764104439.7155013,ddpg_train,FAR,train,27,12,-2.8380139179935475,0,403,1,-0.138,0.042,0.449,2.9727883,-0.95507276,2.5180254,-2.8073866,0.47382325,4.046501,0.0,0.0,0.0,0.6389152407646179,0.6389152407646179,link6
1764104441.1037753,ddpg_train,FAR,train,27,13,-2.711330356752691,0,404,1,-0.129,0.039,0.43,2.9808266,-0.99286735,2.5621982,-2.8068142,0.45828104,3.9047024,0.0,0.0,0.0,0.6490851044654846,0.6490851044654846,link6
1764104442.4986107,ddpg_train,FAR,train,27,14,-2.6635441638450224,0,405,1,-0.128,0.038,0.422,2.965175,-1.0094748,2.5855281,-2.854021,0.44922006,3.8597543,0.0,0.0,0.0,0.6459574103355408,0.6459574103355408,link6
1764104446.1624405,ddpg_train,FAR,train,28,0,-4.460719023251788,0,406,1,0.121,0.452,0.576,1.389889,-0.053247098,1.6160214,-0.6678054,0.20367366,0.13440497,0.0,0.0,0.0,0.6427269577980042,0.6427269577980042,link6
1764104447.5441988,ddpg_train,FAR,train,28,1,-1.882170376192832,0,407,1,-0.125,0.225,0.178,2.2233777,-0.09745839,2.5481975,-1.137599,0.34058782,0.2657256,0.0,0.0,0.0,0.7011812329292297,0.7011812329292297,link6
1764104448.9279928,ddpg_train,FAR,train,28,2,-2.5012927615431866,0,408,1,-0.2,0.168,0.324,2.6274614,-0.45620602,2.5230107,-2.2418172,0.49443606,2.5475051,0.0,0.0,0.0,0.7069212198257446,0.7069212198257446,link6
1764104450.3140626,ddpg_train,FAR,train,28,3,-2.543705055362123,0,409,1,-0.201,0.116,0.354,2.728509,-0.592548,2.5663373,-2.7064364,0.47783607,3.299368,0.0,0.0,0.0,0.7137131094932556,0.7137131094932556,link6
1764104451.6910987,ddpg_train,FAR,train,28,4,-2.6193502665583406,0,410,1,-0.2,0.069,0.381,2.809489,-0.6961487,2.5720131,-3.121523,0.46736506,3.9315345,0.0,0.0,0.0,0.7002552151679993,0.7002552151679993,link6
1764104453.0756881,ddpg_train,FAR,train,28,5,-2.7292553162568334,0,411,1,-0.192,0.067,0.406,2.840111,-0.7313997,2.5386312,-3.0257294,0.50334466,4.8845468,0.0,0.0,0.0,0.6954222321510315,0.6954222321510315,link6
1764104454.4677591,ddpg_train,FAR,train,28,6,-2.658346022100776,0,412,1,-0.16,0.062,0.407,2.8057888,-0.85241234,2.582699,-3.0453403,0.5035061,5.094905,0.0,0.0,0.0,0.6414764523506165,0.6414764523506165,link6
1764104455.8544307,ddpg_train,FAR,train,28,7,-2.8399217440296933,0,413,1,-0.124,0.1,0.444,2.510778,-0.8971845,2.5147738,-2.9988494,0.47274885,5.694807,0.0,0.0,0.0,0.6250122785568237,0.6250122785568237,link6
1764104457.2422748,ddpg_train,FAR,train,28,8,-2.737872492340281,0,414,1,-0.116,0.082,0.432,2.568336,-0.966942,2.5563648,-3.0465305,0.4571868,5.429231,0.0,0.0,0.0,0.6283955574035645,0.6283955574035645,link6
1764104458.6293747,ddpg_train,FAR,train,28,9,-2.674121688272237,0,415,1,-0.114,0.069,0.424,2.651913,-1.0083148,2.5870109,-3.0227659,0.44370085,5.40172,0.0,0.0,0.0,0.6510241031646729,0.6510241031646729,link6
1764104460.016139,ddpg_train,FAR,train,28,10,-2.789526996701736,0,416,1,-0.123,0.071,0.441,2.7371304,-0.97083163,2.5232096,-2.7938015,0.41662365,5.9406085,0.0,0.0,0.0,0.6245027780532837,0.6245027780532837,link6
1764104461.4119549,ddpg_train,FAR,train,28,11,-2.718138000639543,0,417,1,-0.104,0.052,0.436,2.79833,-1.0675222,2.570019,-2.9091473,0.45447746,6.0449276,0.0,0.0,0.0,0.6146181225776672,0.6146181225776672,link6
1764104462.7955742,ddpg_train,FAR,train,28,12,-2.7257003009760292,0,418,1,-0.099,0.042,0.44,2.8386486,-1.0922314,2.5806503,-2.9635556,0.49231136,6.1335373,0.0,0.0,0.0,0.6438788771629333,0.6438788771629333,link6
1764104464.1887844,ddpg_train,FAR,train,28,13,-2.7292861693720054,0,419,1,-0.157,0.076,0.419,2.892148,-0.83568865,2.5347426,-2.57104,0.522241,5.772807,0.0,0.0,0.0,0.6701499819755554,0.6701499819755554,link6
1764104465.5681515,ddpg_train,FAR,train,28,14,-2.6121137840825908,0,420,1,-0.18,0.055,0.392,2.993183,-0.78028286,2.5804727,-2.6793282,0.51907307,5.9334564,0.0,0.0,0.0,0.7401434183120728,0.7401434183120728,link6
1764104469.215554,ddpg_train,FAR,train,29,0,-3.063181064351761,0,421,1,-0.261,0.35,0.264,2.3115497,0.1404457,2.2000713,-2.4524393,0.45827964,2.9918532,0.0,0.0,0.0,0.7872784733772278,0.7872784733772278,link6
1764104470.6108785,ddpg_train,FAR,train,29,1,-2.2525885052734043,0,422,1,-0.317,0.073,0.187,2.9710405,0.068073496,2.5297596,-2.893013,0.5244285,4.477828,0.0,0.0,0.0,0.8260322213172913,0.8260322213172913,link6
1764104471.9989386,ddpg_train,FAR,train,29,2,-2.3107688886179107,0,423,1,-0.308,0.015,0.23,3.1431413,-0.09987594,2.5535023,-2.8928463,0.52339226,5.15671,0.0,0.0,0.0,0.7558386325836182,0.7558386325836182,link6
1764104473.3802097,ddpg_train,FAR,train,29,3,-2.7249377583989975,0,424,1,-0.208,0.027,0.402,3.1413004,-0.7108985,2.5251567,-2.6965272,0.523204,5.2835917,0.0,0.0,0.0,0.7042559385299683,0.7042559385299683,link6
1764104474.7745774,ddpg_train,FAR,train,29,4,-2.679811274307906,0,425,1,-0.171,0.019,0.411,3.1405702,-0.8512464,2.5713441,-2.8465273,0.5214251,5.5389023,0.0,0.0,0.0,0.6652171015739441,0.6652171015739441,link6
1764104476.160492,ddpg_train,FAR,train,29,5,-2.719938991613301,0,426,1,-0.149,0.009,0.427,3.138316,-0.93892443,2.5786247,-3.0082707,0.51817614,5.8357162,0.0,0.0,0.0,0.6741877198219299,0.6741877198219299,link6
1764104477.5483732,ddpg_train,FAR,train,29,6,-2.768751304446943,0,427,1,-0.17,0.002,0.428,3.1373692,-0.85181683,2.5398805,-3.1166844,0.51009387,5.953784,0.0,0.0,0.0,0.6799703240394592,0.6799703240394592,link6
1764104478.9377673,ddpg_train,FAR,train,29,7,-2.7274666170911117,0,428,1,-0.149,0.007,0.428,3.1406364,-0.93286973,2.5713022,-3.0288715,0.5184663,5.860976,0.0,0.0,0.0,0.6440635919570923,0.6440635919570923,link6
1764104480.324189,ddpg_train,FAR,train,29,8,-2.8809687547883223,0,429,1,-0.136,0.003,0.459,3.1415756,-0.96786845,2.514815,-3.0888999,0.5127112,5.5126014,0.0,0.0,0.0,0.6369360089302063,0.6369360089302063,link6
1764104481.7114716,ddpg_train,FAR,train,29,9,-2.9662238772090124,0,430,1,-0.136,0.009,0.474,3.1411996,-0.96130306,2.4772086,-2.9966698,0.5030136,5.48456,0.0,0.0,0.0,0.657374918460846,0.657374918460846,link6
1764104483.0961251,ddpg_train,FAR,train,29,10,-2.9217957088816893,0,431,1,-0.137,0.01,0.466,3.1409342,-0.96459574,2.4978747,-2.9777741,0.4972819,5.3184586,0.0,0.0,0.0,0.6592732071876526,0.6592732071876526,link6
1764104484.4852304,ddpg_train,FAR,train,29,11,-2.9724203959419406,0,432,1,-0.156,0.003,0.469,3.141464,-0.900896,2.4603047,-3.0869923,0.45984048,5.2785506,0.0,0.0,0.0,0.6603043079376221,0.6603043079376221,link6
1764104485.8723168,ddpg_train,FAR,train,29,12,-2.838140577660503,0,433,1,-0.145,0.011,0.449,3.0891426,-0.94423544,2.5133147,-3.0595884,0.45244607,5.5354986,0.0,0.0,0.0,0.6664690375328064,0.6664690375328064,link6
1764104487.265045,ddpg_train,FAR,train,29,13,-2.8038802142319423,0,434,1,-0.146,0.02,0.442,3.0365129,-0.94884014,2.5305617,-3.0493352,0.4483024,5.716665,0.0,0.0,0.0,0.6392595767974854,0.6392595767974854,link6
1764104488.6542745,ddpg_train,FAR,train,29,14,-2.8234853873954724,0,435,1,-0.125,0.01,0.452,3.1117728,-1.0188942,2.5353365,-3.028576,0.47069696,5.4423666,0.0,0.0,0.0,0.6314378380775452,0.6314378380775452,link6
1764104492.3290842,ddpg_train,FAR,train,30,0,-6.248334405621864,0,436,1,0.171,0.052,1.025,0.34940848,0.025113123,0.37284046,-0.23067638,0.05580585,0.21797441,0.0,0.0,0.0,0.6805748343467712,0.6805748343467712,link6
1764104493.7233212,ddpg_train,FAR,train,30,1,-1.6934745152664206,0,437,1,-0.222,0.098,0.143,2.7941802,0.019429836,2.526996,-0.35283294,0.37748772,1.4788643,0.0,0.0,0.0,0.7274466753005981,0.7274466753005981,link6
1764104495.1000936,ddpg_train,FAR,train,30,2,-1.8239292288612128,0,438,1,-0.137,0.025,0.269,3.3078752,-0.86246985,2.623399,-0.7183749,0.67206264,2.9018352,0.0,0.0,0.0,0.6650950908660889,0.6650950908660889,link6
1764104496.4793293,ddpg_train,FAR,train,30,3,-2.444210364934927,0,439,1,-0.135,0.058,0.378,3.1404448,-0.9951723,2.5835724,-1.8387095,0.4961784,3.7721004,0.0,0.0,0.0,0.6128970980644226,0.6128970980644226,link6
1764104497.8588898,ddpg_train,FAR,train,30,4,-2.945846578989024,0,440,1,-0.108,0.004,0.477,3.1056716,-1.0502626,2.5005615,-3.1398704,0.52358013,4.348791,0.0,0.0,0.0,0.6091793179512024,0.6091793179512024,link6
1764104499.240017,ddpg_train,FAR,train,30,5,-2.984170800644327,0,441,1,-0.11,0.022,0.483,2.9839122,-1.0250388,2.477515,-3.0592117,0.5235646,4.2118697,0.0,0.0,0.0,0.6315993666648865,0.6315993666648865,link6
1764104500.6322157,ddpg_train,FAR,train,30,6,-3.0468604513526425,0,442,1,-0.112,0.031,0.493,2.9181538,-1.0089672,2.4473608,-3.0502305,0.51153135,4.2460833,0.0,0.0,0.0,0.6464242339134216,0.6464242339134216,link6
1764104502.019576,ddpg_train,FAR,train,30,7,-2.8783532442306554,0,443,1,-0.152,0.026,0.453,3.0335844,-0.90904784,2.5090744,-2.989213,0.50517255,4.9627466,0.0,0.0,0.0,0.6545122861862183,0.6545122861862183,link6
1764104503.4433115,ddpg_train,FAR,train,30,8,-2.934539950841387,0,444,1,-0.109,0.021,0.474,2.9932308,-1.0507462,2.492758,-3.060651,0.5152552,4.840904,0.0,0.0,0.0,0.5907599329948425,0.5907599329948425,link6
1764104504.8356867,ddpg_train,FAR,train,30,9,-3.133927892568051,0,445,1,-0.068,0.015,0.515,2.937708,-1.1412228,2.437377,-3.1258643,0.52360207,4.7364407,0.0,0.0,0.0,0.5756599307060242,0.5756599307060242,link6
1764104506.2199504,ddpg_train,FAR,train,30,10,-3.713729277209692,0,446,1,-0.033,0.012,0.614,2.8139017,-1.0777887,2.180732,-3.1366704,0.52363014,3.9584448,0.0,0.0,0.0,0.5351306200027466,0.5351306200027466,link6
1764104507.6017892,ddpg_train,FAR,train,30,11,-3.8260270037032513,0,447,1,0.01,-0.001,0.632,2.8659432,-1.1505437,2.1446176,-3.1073427,0.52366966,3.5939927,0.0,0.0,0.0,0.5004227757453918,0.5004227757453918,link6
1764104508.998461,ddpg_train,FAR,train,30,12,-3.75281680469172,0,448,1,-0.047,0.015,0.62,3.1414618,-1.047967,2.1698215,-2.8918607,0.5235885,2.6099038,0.0,0.0,0.0,0.5469914078712463,0.5469914078712463,link6
1764104510.389494,ddpg_train,FAR,train,30,13,-3.5856682971604963,0,449,1,-0.091,0.015,0.589,3.08982,-0.96762675,2.2298164,-2.9772644,0.51857615,2.3519723,0.0,0.0,0.0,0.6364690065383911,0.6364690065383911,link6
1764104511.784131,ddpg_train,FAR,train,30,14,-3.4741568814944017,0,450,1,-0.121,0.014,0.565,3.0838907,-0.92751735,2.2763047,-3.0330544,0.51842916,2.0294487,0.0,0.0,0.0,0.6681246161460876,0.6681246161460876,link6
