QuanPM-doosan/DoosanRobot_Reinforcement_Learning/ros2_ws/rl_logs/20251126_031342_ddpg_train.csv
ts,run_tag,mode,phase,ep,step,reward,done,mem_len,learn_flag,ee_x,ee_y,ee_z,j1,j2,j3,j4,j5,j6,sphere_x,sphere_y,sphere_z,dist_out,signed,closest_link
1764101626.4754014,ddpg_train,FAR,train,1,0,-6.370821459941905,0,1,0,0.005,0.0,1.055,-0.002294656,0.005833882,-0.0050400887,-0.014222251,0.014881142,0.03970637,0.0,0.0,0.0,0.4809728264808655,0.4809728264808655,link6
1764101627.8586345,ddpg_train,FAR,train,1,1,-6.331238434744664,0,2,0,-0.091,-0.023,1.049,0.25441098,-0.03447156,-0.1428857,0.052978408,0.02729589,0.39967296,0.0,0.0,0.0,0.602454662322998,0.602454662322998,link6
1764101629.2370703,ddpg_train,FAR,train,1,2,-6.3281517485868335,0,3,0,-0.102,-0.026,1.047,0.25180912,-0.028630221,-0.1627542,0.22627296,0.014391151,0.21432585,0.0,0.0,0.0,0.5844168066978455,0.5844168066978455,link6
1764101630.6241572,ddpg_train,FAR,train,1,3,-6.33657630252773,0,4,0,-0.088,-0.017,1.049,0.18694393,-0.018517716,-0.14609767,0.38019446,-0.01415185,0.09259937,0.0,0.0,0.0,0.5539382100105286,0.5539382100105286,link6
1764101632.0082262,ddpg_train,FAR,train,1,4,-6.321417271740821,0,5,0,-0.061,0.039,1.048,-0.30076942,-0.07384109,-0.07924044,0.52247417,0.32690153,0.14097096,0.0,0.0,0.0,0.5603245496749878,0.5603245496749878,link6
1764101633.403862,ddpg_train,FAR,train,1,5,-6.403491954576951,0,6,0,0.062,0.009,1.039,-0.22382274,-0.042416584,0.10189229,0.42611554,0.45901623,0.08802949,0.0,0.0,0.0,0.34535276889801025,0.34535276889801025,link6
1764101634.7956192,ddpg_train,FAR,train,1,6,-6.268974615887835,0,7,0,0.143,0.0,1.022,-0.14185871,-0.0042447024,0.19161297,0.3544654,0.4943002,0.021567326,0.0,0.0,0.0,0.41702866554260254,0.41702866554260254,link6
1764101636.1843047,ddpg_train,FAR,train,1,7,-6.3438300840301,0,8,0,-0.003,0.001,1.052,-0.19261898,-0.009904268,-0.061896816,-0.0043516266,0.27650988,-0.03883989,0.0,0.0,0.0,0.5057677626609802,0.5057677626609802,link6
1764101637.5723345,ddpg_train,FAR,train,1,8,-6.32972276400374,0,9,0,-0.011,-0.001,1.05,-0.31700164,-0.016695255,-0.07779523,-0.10849559,0.34903973,-0.0047686202,0.0,0.0,0.0,0.5137076377868652,0.5137076377868652,link6
1764101638.9555566,ddpg_train,FAR,train,1,9,-6.334292795868828,0,10,0,-0.01,-0.001,1.05,-0.40139833,-0.01708836,-0.06838768,-0.11692134,0.33452445,0.007604016,0.0,0.0,0.0,0.49907082319259644,0.49907082319259644,link6
1764101640.3417757,ddpg_train,FAR,train,1,10,-6.30760894415627,0,11,0,0.021,0.017,1.044,-0.33905375,0.034379672,-0.14597143,0.4038225,0.4858672,0.09487459,0.0,0.0,0.0,0.4791220426559448,0.4791220426559448,link6
1764101641.720487,ddpg_train,FAR,train,1,11,-6.354737555229523,0,12,0,0.01,0.009,1.053,-0.42523652,0.034177937,-0.10323852,0.4468739,0.2219198,0.25877234,0.0,0.0,0.0,0.49275290966033936,0.49275290966033936,link6
1764101643.0954626,ddpg_train,FAR,train,1,12,-6.387238879527805,0,13,0,0.021,-0.005,1.055,-0.4677097,0.03301427,-0.032809265,0.4471348,0.08574267,0.30732587,0.0,0.0,0.0,0.44933801889419556,0.44933801889419556,link6
1764101644.476448,ddpg_train,FAR,train,1,13,-6.661330595062675,0,14,0,0.058,-0.031,1.053,-0.49531272,0.03489463,0.07141962,0.42587987,-0.0048015355,0.30836064,0.0,0.0,0.0,0.27150124311447144,0.27150124311447144,link6
1764101645.8606262,ddpg_train,FAR,train,1,14,-6.331944145630061,0,15,0,0.165,-0.08,1.018,-0.5103013,0.019372214,0.25328943,0.23946269,0.3388154,0.2532817,0.0,0.0,0.0,0.368374228477478,0.368374228477478,link6
1764101647.2379768,ddpg_train,FAR,train,1,15,-6.288294485377699,0,16,0,0.059,-0.034,1.041,-0.67590237,-0.033720445,0.09925955,0.20262846,0.39974636,0.28997672,0.0,0.0,0.0,0.5151773691177368,0.5151773691177368,link6
1764101648.620704,ddpg_train,FAR,train,1,16,-6.2939807198182285,0,17,0,-0.027,0.048,1.045,-0.8400334,-0.07871113,-0.07098367,0.23155755,0.42376578,0.31190008,0.0,0.0,0.0,0.579067587852478,0.579067587852478,link6
1764101650.009576,ddpg_train,FAR,train,1,17,-6.361259601987283,0,18,0,-0.013,0.027,1.054,-0.7559173,-0.04039398,-0.010584587,0.53608555,0.16689126,0.046066225,0.0,0.0,0.0,0.49703341722488403,0.49703341722488403,link6
1764101651.3855107,ddpg_train,FAR,train,1,18,-6.360772890705097,0,19,0,0.017,0.004,1.052,-0.68975043,-0.03299056,0.03932806,0.5541733,0.22297207,0.00076863926,0.0,0.0,0.0,0.4648011326789856,0.4648011326789856,link6
1764101652.7759497,ddpg_train,FAR,train,1,19,-6.363472280566097,0,20,0,0.039,-0.007,1.05,-0.62874675,-0.02375303,0.064754546,0.5910822,0.24706256,0.028803738,0.0,0.0,0.0,0.44398564100265503,0.44398564100265503,link6
1764101656.4286034,ddpg_train,FAR,train,2,0,-6.381730072160764,0,21,0,0.054,-0.018,1.052,-0.4975996,0.025554158,0.038590968,0.5810116,0.14200242,0.5060138,0.0,0.0,0.0,0.4414594769477844,0.4414594769477844,link6
1764101657.8065836,ddpg_train,FAR,train,2,1,-6.400781603192824,0,22,0,0.107,-0.056,1.039,-0.6305179,0.023074208,0.15047382,0.5774016,0.26621062,0.5524484,0.0,0.0,0.0,0.3690398335456848,0.3690398335456848,link6
1764101659.185423,ddpg_train,FAR,train,2,2,-6.319605299969219,0,23,0,0.124,-0.072,1.031,-0.6566755,0.014286375,0.19298637,0.49868813,0.3219679,0.5741487,0.0,0.0,0.0,0.42122310400009155,0.42122310400009155,link6
1764101660.5686255,ddpg_train,FAR,train,2,3,-6.374146756446645,0,24,0,0.143,-0.046,1.028,-0.3914775,0.013711324,0.20535438,0.28163323,0.34199977,0.7360767,0.0,0.0,0.0,0.3570965528488159,0.3570965528488159,link6
1764101661.9573324,ddpg_train,FAR,train,2,4,-6.297259930812373,0,25,0,0.055,0.004,1.041,-0.44446194,-0.027263332,0.045851316,0.50446725,0.46442986,0.7569425,0.0,0.0,0.0,0.4767633080482483,0.4767633080482483,link6
1764101663.3475716,ddpg_train,FAR,train,2,5,-6.32483902911432,0,26,0,-0.007,0.026,1.05,-0.38516808,-0.049867947,-0.0046789334,0.60672987,0.29510096,0.81658334,0.0,0.0,0.0,0.5391839742660522,0.5391839742660522,link6
1764101664.7344458,ddpg_train,FAR,train,2,6,-6.347830554069265,0,27,0,-0.048,0.014,1.054,-0.27810657,-0.053461965,-0.0072576064,0.6494911,-0.00057863985,0.8998329,0.0,0.0,0.0,0.5700659155845642,0.5700659155845642,link6
1764101666.1105766,ddpg_train,FAR,train,2,7,-6.2641301044868865,0,28,0,-0.157,0.012,1.031,-0.08155704,-0.012511333,-0.2924718,0.18512355,-0.05059963,0.7311799,0.0,0.0,0.0,0.6660370230674744,0.6660370230674744,link6
1764101667.500174,ddpg_train,FAR,train,2,8,-6.262975078909429,0,29,0,-0.173,-0.006,1.028,0.042948447,-0.02962961,-0.2883682,0.13147025,-0.040893752,0.594735,0.0,0.0,0.0,0.6420423984527588,0.6420423984527588,link6
1764101668.879173,ddpg_train,FAR,train,2,9,-6.281652961258336,0,30,0,-0.161,-0.024,1.033,0.15303512,-0.041501258,-0.2581949,0.09339234,-0.015155927,0.44957364,0.0,0.0,0.0,0.6546838283538818,0.6546838283538818,link6
1764101670.2655761,ddpg_train,FAR,train,2,10,-6.137719533415047,0,31,0,-0.223,-0.039,0.997,0.16791241,0.014527455,-0.5242197,-0.08689322,0.051687405,0.45508188,0.0,0.0,0.0,0.728026807308197,0.728026807308197,link6
1764101671.6512027,ddpg_train,FAR,train,2,11,-6.139065168462297,0,32,0,-0.254,-0.035,0.99,0.10850199,-0.0378071,-0.5194218,-0.3544129,0.18068814,0.3454508,0.0,0.0,0.0,0.7391259074211121,0.7391259074211121,link6
1764101673.1696947,ddpg_train,FAR,train,2,12,-6.119820556051296,0,33,1,-0.287,-0.033,0.978,0.05386784,-0.08314062,-0.54010403,-0.51289105,0.2758164,0.28576112,0.0,0.0,0.0,0.836210310459137,0.836210310459137,link6
1764101674.5702271,ddpg_train,FAR,train,2,13,-6.075363431877364,0,34,1,-0.26,-0.006,0.978,-0.0026460397,-0.008754478,-0.6183531,-0.17181663,0.34220502,0.3028634,0.0,0.0,0.0,0.7283298969268799,0.7283298969268799,link6
1764101675.9538608,ddpg_train,FAR,train,2,14,-6.110275682705298,0,35,1,-0.233,-0.025,0.99,0.10033168,-0.011883874,-0.5679434,-0.11320562,0.4024597,0.38349718,0.0,0.0,0.0,0.6702789664268494,0.6702789664268494,link6
1764101677.3548434,ddpg_train,FAR,train,2,15,-6.15860861503283,0,36,1,-0.194,-0.045,1.006,0.21849161,-0.015811319,-0.5076584,-0.049619295,0.4332553,0.43212193,0.0,0.0,0.0,0.6817575693130493,0.6817575693130493,link6
1764101678.7359438,ddpg_train,FAR,train,2,16,-6.19474105105737,0,37,1,-0.218,-0.071,1.006,0.32540107,-0.069968276,-0.44202095,0.06635974,0.34661686,-0.053601947,0.0,0.0,0.0,0.7138219475746155,0.7138219475746155,link6
1764101680.1356792,ddpg_train,FAR,train,2,17,-6.190533911036805,0,38,1,-0.222,-0.121,0.999,0.51956534,-0.13530976,-0.39925233,0.0095366035,0.46949586,-0.097021654,0.0,0.0,0.0,0.6496137976646423,0.6496137976646423,link6
1764101681.52195,ddpg_train,FAR,train,2,18,-6.176166205939487,0,39,1,-0.193,-0.177,0.995,0.73943925,-0.18645976,-0.36546606,-0.01888456,0.57735133,-0.115846656,0.0,0.0,0.0,0.7466328740119934,0.7466328740119934,link6
1764101682.9634225,ddpg_train,FAR,train,2,19,-5.873164111994537,0,40,1,-0.319,-0.336,0.862,0.81734586,-0.21111152,-0.75896037,0.048687268,0.32218727,-0.04009542,0.0,0.0,0.0,0.8158002495765686,0.8158002495765686,link6
1764101686.5824842,ddpg_train,FAR,train,3,0,-6.315770225884924,0,41,1,-0.104,-0.019,1.047,0.22156413,-0.058163434,-0.17222208,0.031194625,0.066007115,0.042303678,0.0,0.0,0.0,0.7915252447128296,0.7915252447128296,link6
1764101687.9707878,ddpg_train,FAR,train,3,1,-6.177874290040814,0,42,1,-0.237,-0.186,0.984,0.68218094,-0.14824568,-0.4375514,0.11826928,0.30890274,0.10871317,0.0,0.0,0.0,0.7308372855186462,0.7308372855186462,link6
1764101689.3584993,ddpg_train,FAR,train,3,2,-6.231317190070328,0,43,1,-0.231,-0.14,1.002,0.5213485,-0.15216126,-0.33737305,-0.24924992,0.22080705,0.32595846,0.0,0.0,0.0,0.6969261169433594,0.6969261169433594,link6
1764101690.7506084,ddpg_train,FAR,train,3,3,-6.279636804580058,0,44,1,-0.198,-0.12,1.018,0.5287982,-0.12918149,-0.26301596,-0.34506455,0.12961939,0.37480912,0.0,0.0,0.0,0.5766096711158752,0.5766096711158752,link6
1764101692.1305761,ddpg_train,FAR,train,3,4,-6.2666551713432215,0,45,1,-0.111,-0.059,1.035,0.5201629,0.018484792,-0.24368162,-0.16203296,-0.20921966,-0.027430562,0.0,0.0,0.0,0.6117485761642456,0.6117485761642456,link6
1764101693.5366023,ddpg_train,FAR,train,3,5,-6.292294378185664,0,46,1,-0.11,-0.045,1.04,0.39577237,0.011204396,-0.24901243,-0.07794482,-0.059316296,-0.14966844,0.0,0.0,0.0,0.6059199571609497,0.6059199571609497,link6
1764101694.9234774,ddpg_train,FAR,train,3,6,-6.242005226300796,0,47,1,-0.15,-0.062,1.027,0.3995748,0.0076921205,-0.36778963,-0.16302633,-0.0030746271,-0.08961144,0.0,0.0,0.0,0.7257141470909119,0.7257141470909119,link6
1764101696.3969443,ddpg_train,FAR,train,3,7,-6.008517874872332,0,48,1,-0.213,-0.131,0.969,0.5711399,0.067434505,-0.6460551,-0.42008728,-0.09013803,-0.17952643,0.0,0.0,0.0,0.7119330763816833,0.7119330763816833,link6
1764101697.7956223,ddpg_train,FAR,train,3,8,-6.13508610044294,0,49,1,-0.176,-0.098,1.001,0.50712526,0.055483446,-0.5221387,-0.3197623,0.0057383752,-0.28585583,0.0,0.0,0.0,0.6356776356697083,0.6356776356697083,link6
1764101699.1778507,ddpg_train,FAR,train,3,9,-6.202621521140743,0,50,1,-0.143,-0.068,1.02,0.4473177,0.058395963,-0.42529678,-0.27830294,-0.045381874,-0.35870525,0.0,0.0,0.0,0.6285414099693298,0.6285414099693298,link6
1764101700.5695996,ddpg_train,FAR,train,3,10,-6.258035121515547,0,51,1,-0.097,0.026,1.036,-0.23532228,0.0722879,-0.31800467,-0.27163768,-0.09227148,-0.23132822,0.0,0.0,0.0,0.5959986448287964,0.5959986448287964,link6
1764101701.9509149,ddpg_train,FAR,train,3,11,-6.2620752869343415,0,52,1,-0.088,0.03,1.037,-0.18847424,0.06335098,-0.24480082,-0.40495932,-0.27207342,-0.34970692,0.0,0.0,0.0,0.5801268219947815,0.5801268219947815,link6
1764101703.3392012,ddpg_train,FAR,train,3,12,-6.261035144576544,0,53,1,-0.096,0.032,1.037,-0.2060691,0.053895917,-0.25829655,-0.44777894,-0.2230482,-0.27707312,0.0,0.0,0.0,0.626785933971405,0.626785933971405,link6
1764101704.7603908,ddpg_train,FAR,train,3,13,-6.043438854138387,0,54,1,-0.264,-0.056,0.97,0.20576274,0.014478959,-0.62611455,-0.13971129,0.054677844,0.30141038,0.0,0.0,0.0,0.7648699879646301,0.7648699879646301,link6
1764101706.145038,ddpg_train,FAR,train,3,14,-6.11419948114241,0,55,1,-0.218,-0.051,0.993,0.24992014,0.033979297,-0.4850423,-0.18931876,-0.1728105,-0.0073881615,0.0,0.0,0.0,0.6623849272727966,0.6623849272727966,link6
1764101707.5251334,ddpg_train,FAR,train,3,15,-6.142549837653919,0,56,1,-0.181,-0.043,1.006,0.27419245,0.048026957,-0.42767185,-0.23325178,-0.24822932,-0.15533108,0.0,0.0,0.0,0.708050549030304,0.708050549030304,link6
1764101708.9075174,ddpg_train,FAR,train,3,16,-5.976682105419812,0,57,1,-0.297,-0.069,0.948,0.23617068,0.0043505207,-0.66518295,-0.23910525,-0.066411234,-0.3750645,0.0,0.0,0.0,0.7979347109794617,0.7979347109794617,link6
1764101710.3048677,ddpg_train,FAR,train,3,17,-6.092134726537456,0,58,1,-0.234,-0.063,0.985,0.28910366,0.0272717,-0.53029853,-0.37500355,-0.11603618,-0.5190963,0.0,0.0,0.0,0.6741501092910767,0.6741501092910767,link6
1764101711.7081945,ddpg_train,FAR,train,3,18,-6.135058284103522,0,59,1,-0.195,-0.064,1.001,0.36505574,0.039064292,-0.46508846,-0.4477494,-0.18695793,-0.6072432,0.0,0.0,0.0,0.7101097702980042,0.7101097702980042,link6
1764101713.1365132,ddpg_train,FAR,train,3,19,-6.009878491405326,0,60,1,-0.195,-0.057,0.98,0.42514703,0.038919955,-0.36047024,-0.3699779,-0.68767446,-0.72124404,0.0,0.0,0.0,0.6936444640159607,0.6936444640159607,link6
1764101716.7892857,ddpg_train,FAR,train,4,0,-6.291188107331811,0,61,1,-0.059,-0.003,1.045,0.15293978,0.039525673,-0.117621504,-0.15643378,-0.32117337,-0.32011938,0.0,0.0,0.0,0.6103338599205017,0.6103338599205017,link6
1764101718.1764014,ddpg_train,FAR,train,4,1,-6.118718019396773,0,62,1,-0.115,-0.012,1.012,0.28611907,0.07903246,-0.24498546,-0.2858507,-0.6337462,-0.6005775,0.0,0.0,0.0,0.6541017889976501,0.6541017889976501,link6
1764101719.5584435,ddpg_train,FAR,train,4,2,-5.972424627408355,0,63,1,-0.14,0.01,0.984,0.2519953,0.09794423,-0.3036972,-0.5069688,-0.85788083,-0.81414425,0.0,0.0,0.0,0.6357776522636414,0.6357776522636414,link6
1764101720.9457383,ddpg_train,FAR,train,4,3,-5.94280216118901,0,64,1,-0.131,0.045,0.979,0.21706884,0.056688126,-0.2071022,-0.760638,-1.0228925,-0.92406034,0.0,0.0,0.0,0.618496835231781,0.618496835231781,link6
1764101722.462629,ddpg_train,FAR,train,4,4,-5.919957612908664,0,65,1,-0.116,0.07,0.975,0.18472798,0.032381933,-0.1472223,-0.9407723,-1.1093459,-1.038146,0.0,0.0,0.0,0.5896324515342712,0.5896324515342712,link6
1764101723.8458378,ddpg_train,FAR,train,4,5,-5.836700126320462,0,66,1,-0.128,0.042,0.962,0.37805063,0.12487494,-0.33346623,-0.8999916,-1.0895472,-1.3879063,0.0,0.0,0.0,0.6391309499740601,0.6391309499740601,link6
1764101725.331635,ddpg_train,FAR,train,4,6,-5.836094741647678,0,67,1,-0.123,0.043,0.962,0.4045719,0.14965601,-0.37200782,-0.9485395,-1.0546256,-1.4634188,0.0,0.0,0.0,0.6084507703781128,0.6084507703781128,link6
1764101726.731261,ddpg_train,FAR,train,4,7,-6.100941254415516,0,68,1,-0.041,0.081,1.009,0.72904694,0.18243198,-0.28315458,-1.5167369,-0.78673106,-1.4028952,0.0,0.0,0.0,0.5404335856437683,0.5404335856437683,link6
1764101728.129566,ddpg_train,FAR,train,4,8,-6.131024937988946,0,69,1,-0.016,0.112,1.011,0.80873644,0.175192,-0.20931381,-1.730422,-0.81007105,-1.5059599,0.0,0.0,0.0,0.52154141664505,0.52154141664505,link6
1764101729.511474,ddpg_train,FAR,train,4,9,-6.146426730115425,0,70,1,-0.006,0.116,1.014,0.8289552,0.18156977,-0.23039094,-1.9023483,-0.7609869,-1.5814257,0.0,0.0,0.0,0.5397489666938782,0.5397489666938782,link6
1764101730.911711,ddpg_train,FAR,train,4,10,-6.198615702733694,0,71,1,0.009,0.166,1.014,1.1397328,0.2362559,-0.21329136,-2.2453735,-0.70455813,-1.4566051,0.0,0.0,0.0,0.5008888244628906,0.5008888244628906,link6
1764101732.292053,ddpg_train,FAR,train,4,11,-6.164913349535601,0,72,1,0.036,0.246,0.991,1.1895909,0.26490274,-0.104245566,-2.3933756,-0.7606241,-1.5110227,0.0,0.0,0.0,0.4971940815448761,0.4971940815448761,link6
1764101733.6751175,ddpg_train,FAR,train,4,12,-6.098593533409811,0,73,1,0.068,0.326,0.954,1.18476,0.2949739,0.047922965,-2.4206936,-0.80527306,-1.5804446,0.0,0.0,0.0,0.49371984601020813,0.49371984601020813,link6
1764101735.059047,ddpg_train,FAR,train,4,13,-5.97027368703222,0,74,1,0.054,0.385,0.912,1.2712234,0.23067254,0.31235397,-2.3084655,-0.7671604,-1.7329938,0.0,0.0,0.0,0.543343722820282,0.543343722820282,link6
1764101736.4461586,ddpg_train,FAR,train,4,14,-5.971275993454099,0,75,1,0.063,0.429,0.892,1.2779573,0.31079158,0.2749842,-2.3058133,-0.7577721,-1.5147165,0.0,0.0,0.0,0.5498939156532288,0.5498939156532288,link6
1764101737.8293133,ddpg_train,FAR,train,4,15,-5.965551692129545,0,76,1,0.059,0.479,0.867,1.3276716,0.3837146,0.27693832,-2.3209271,-0.6914151,-1.5438925,0.0,0.0,0.0,0.6040849089622498,0.6040849089622498,link6
1764101739.2214155,ddpg_train,FAR,train,4,16,-5.917073749132134,0,77,1,0.157,0.482,0.841,1.1622422,0.3445401,0.4398905,-2.3643386,-0.5630522,-1.7554436,0.0,0.0,0.0,0.5286878943443298,0.5286878943443298,link6
1764101740.6083517,ddpg_train,FAR,train,4,17,-5.760657488454525,0,78,1,0.124,0.561,0.767,1.2801515,0.39429802,0.5708781,-2.3682594,-0.5144253,-1.8906616,0.0,0.0,0.0,0.6146014332771301,0.6146014332771301,link6
1764101741.9996333,ddpg_train,FAR,train,4,18,-5.766030837704449,0,79,1,0.078,0.59,0.752,1.3839672,0.42605636,0.5681651,-2.4340143,-0.43730962,-1.9226321,0.0,0.0,0.0,0.603154182434082,0.603154182434082,link6
1764101743.3821132,ddpg_train,FAR,train,4,19,-5.892452967029549,0,80,1,0.035,0.489,0.849,1.4601809,0.29127625,0.47519413,-2.8141997,-0.50580645,-2.3182297,0.0,0.0,0.0,0.619807779788971,0.619807779788971,link6
1764101747.039454,ddpg_train,FAR,train,5,0,-6.435936342125122,0,81,1,0.077,0.038,1.049,0.29683238,0.051387906,0.109439984,-0.7449992,-0.16632116,-0.63697267,0.0,0.0,0.0,0.3722347319126129,0.3722347319126129,link6
1764101748.4238625,ddpg_train,FAR,train,5,1,-5.970792794142598,0,82,1,0.146,0.379,0.9,1.0901247,0.15345712,0.60334235,-1.8731351,-0.40509593,-2.252695,0.0,0.0,0.0,0.4679933786392212,0.4679933786392212,link6
1764101749.8238587,ddpg_train,FAR,train,5,2,-5.598961673395207,0,83,1,-0.057,0.538,0.76,1.6450411,0.28139195,0.7254837,-2.4984703,-0.5572172,-2.7040067,0.0,0.0,0.0,0.8052243590354919,0.8052243590354919,link6
1764101751.2013943,ddpg_train,FAR,train,5,3,-5.255973201669982,0,84,1,-0.256,0.56,0.623,1.9738595,0.3835409,0.8540625,-2.822994,-0.6639236,-2.9382842,0.0,0.0,0.0,0.9557482600212097,0.9557482600212097,link6
1764101752.5879016,ddpg_train,FAR,train,5,4,-4.890299784011656,0,85,1,-0.513,0.314,0.55,2.5954597,0.38024184,0.9247691,-3.139567,-0.96900356,-3.1417303,0.0,0.0,0.0,1.0397475957870483,1.0397475957870483,link6
1764101753.9689696,ddpg_train,FAR,train,5,5,-4.749730362463968,0,86,1,-0.564,0.252,0.495,2.7315927,0.43886808,0.92304254,-3.1290581,-1.0820397,-3.140796,0.0,0.0,0.0,1.0404800176620483,1.0404800176620483,link6
1764101755.39049,ddpg_train,FAR,train,5,6,-4.686965426303714,0,87,1,-0.555,0.226,0.501,2.748496,0.43663096,0.91562146,-3.1240232,-1.2112894,-3.1404638,0.0,0.0,0.0,0.9375582337379456,0.9375582337379456,link6
1764101756.773956,ddpg_train,FAR,train,5,7,-4.275355504244007,0,88,1,-0.408,0.324,0.486,2.4661949,0.2853439,1.1348287,-3.1386876,-1.3800049,-3.1416874,0.0,0.0,0.0,0.9336429238319397,0.9336429238319397,link6
1764101758.1889546,ddpg_train,FAR,train,5,8,-4.1596708676759935,0,89,1,-0.384,0.36,0.451,2.383084,0.3523276,1.116106,-3.126816,-1.5195687,-3.1407256,0.0,0.0,0.0,0.8777866959571838,0.8777866959571838,link6
1764101759.5852919,ddpg_train,FAR,train,5,9,-4.194214834824702,0,90,1,-0.347,0.381,0.472,2.3048177,0.35917294,1.05356,-3.125,-1.6545744,-3.1406844,0.0,0.0,0.0,0.8274204134941101,0.8274204134941101,link6
1764101760.9657476,ddpg_train,FAR,train,5,10,-3.8042726855472924,0,91,1,-0.28,0.314,0.474,2.2968428,0.27727288,1.1966044,-3.135996,-2.1415138,-3.1414618,0.0,0.0,0.0,0.803676187992096,0.803676187992096,link6
1764101762.3501368,ddpg_train,FAR,train,5,11,-3.5974235781365405,0,92,1,-0.3,0.265,0.446,2.4211144,0.31504807,1.2999811,-3.1255617,-2.4005098,-3.1408162,0.0,0.0,0.0,0.7974204421043396,0.7974204421043396,link6
1764101763.7364185,ddpg_train,FAR,train,5,12,-3.624541553901079,0,93,1,-0.306,0.215,0.474,2.5251722,0.29106432,1.3225224,-3.1249275,-2.5943162,-3.1411295,0.0,0.0,0.0,0.7860927581787109,0.7860927581787109,link6
1764101765.1596942,ddpg_train,FAR,train,5,13,-3.604080259063492,0,94,1,-0.335,0.101,0.488,2.8683085,0.18052833,1.3507785,-3.1355197,-2.4577684,-3.1414075,0.0,0.0,0.0,0.8309052586555481,0.8309052586555481,link6
1764101766.5411265,ddpg_train,FAR,train,5,14,-3.482827636642257,0,95,1,-0.355,0.1,0.448,2.8570058,0.26006126,1.3949265,-3.1236567,-2.4490244,-3.0247355,0.0,0.0,0.0,0.8398230075836182,0.8398230075836182,link6
1764101767.9236372,ddpg_train,FAR,train,5,15,-3.5509466756908097,0,96,1,-0.319,0.114,0.485,2.797662,0.17825392,1.3967233,-3.1409736,-2.5274723,-2.7375143,0.0,0.0,0.0,0.8187829256057739,0.8187829256057739,link6
1764101769.3179,ddpg_train,FAR,train,5,16,-3.163750061936235,0,97,1,-0.328,0.097,0.401,2.8557832,0.25618082,1.6006975,-3.1330314,-2.4749808,-2.724921,0.0,0.0,0.0,0.8195062875747681,0.8195062875747681,link6
1764101770.7143283,ddpg_train,FAR,train,5,17,-2.8137590467818776,0,98,1,-0.299,0.117,0.341,2.7641883,0.32037053,1.7849281,-3.12408,-2.4777029,-2.704207,0.0,0.0,0.0,0.7254319190979004,0.7254319190979004,link6
1764101772.096929,ddpg_train,FAR,train,5,18,-2.831537795356651,0,99,1,-0.188,0.228,0.367,2.2538505,0.21939145,1.8097702,-3.1407115,-2.501067,-2.6283612,0.0,0.0,0.0,0.7031732797622681,0.7031732797622681,link6
1764101773.4900959,ddpg_train,FAR,train,5,19,-2.6532829178955306,0,100,1,-0.149,0.226,0.348,2.1483123,0.26466292,1.9999042,-3.1317167,-2.724486,-2.5645664,0.0,0.0,0.0,0.6442352533340454,0.6442352533340454,link6
1764101777.1386964,ddpg_train,FAR,train,6,0,-4.609815889454696,0,101,1,0.135,0.349,0.661,0.9913986,0.026631994,1.0139289,-2.462534,-1.6658331,-1.8121948,0.0,0.0,0.0,0.4558396339416504,0.4558396339416504,link6
1764101778.521806,ddpg_train,FAR,train,6,1,-2.9875885425257773,0,102,1,-0.133,0.244,0.412,2.0607584,0.10207115,1.7857624,-2.9867997,-2.5036619,-2.402799,0.0,0.0,0.0,0.6754176020622253,0.6754176020622253,link6
1764101779.9261496,ddpg_train,FAR,train,6,2,-2.611906905948277,0,103,1,-0.194,0.14,0.363,2.5259566,0.20246507,2.1303408,-3.1266785,-2.8835824,-2.7126033,0.0,0.0,0.0,0.7286211848258972,0.7286211848258972,link6
1764101781.34788,ddpg_train,FAR,train,6,3,-3.049890887770192,0,104,1,-0.317,0.029,0.396,3.0496209,0.3141337,1.915965,-3.1411893,-3.1415887,-2.9275644,0.0,0.0,0.0,0.8175964951515198,0.8175964951515198,link6
1764101782.7404957,ddpg_train,FAR,train,6,4,-2.9065885345864193,0,105,1,-0.304,0.085,0.367,2.8585007,0.35208866,1.9968227,-3.1332912,-3.141554,-2.913995,0.0,0.0,0.0,0.7761121392250061,0.7761121392250061,link6
1764101784.1370583,ddpg_train,FAR,train,6,5,-2.7466485979866273,0,106,1,-0.273,0.118,0.347,2.7250283,0.36906624,2.1231787,-3.1294792,-3.1415653,-2.9588783,0.0,0.0,0.0,0.6999155879020691,0.6999155879020691,link6
1764101785.518178,ddpg_train,FAR,train,6,6,-2.3319405162871147,0,107,1,-0.209,0.05,0.323,2.9101422,0.29428676,2.4393284,-3.14118,-3.1417031,-2.96778,0.0,0.0,0.0,0.7081295251846313,0.7081295251846313,link6
1764101786.8732812,ddpg_train,FAR,train,6,7,-2.3952204097507264,0,108,1,-0.237,0.06,0.315,2.8915157,0.3657464,2.3553474,-3.091556,-3.1403074,-3.0158944,0.0,0.0,0.0,0.7495711445808411,0.7495711445808411,link6
1764101788.2498395,ddpg_train,FAR,train,6,8,-2.4142340626302627,0,109,1,-0.25,0.072,0.306,2.8593009,0.417652,2.2989376,-3.0659406,-3.073855,-3.076858,0.0,0.0,0.0,0.7046006917953491,0.7046006917953491,link6
1764101789.6324406,ddpg_train,FAR,train,6,9,-2.194663920882797,0,110,1,-0.209,0.014,0.299,3.0649018,0.3276177,2.3277493,-3.096247,-2.7691276,-3.1416533,0.0,0.0,0.0,0.7075381875038147,0.7075381875038147,link6
1764101791.010207,ddpg_train,FAR,train,6,10,-2.3109364639638192,0,111,1,-0.237,0.005,0.303,3.1168432,0.3241044,2.1816266,-3.1158874,-2.6991656,-3.1318216,0.0,0.0,0.0,0.7536245584487915,0.7536245584487915,link6
1764101792.4048305,ddpg_train,FAR,train,6,11,-2.487802361755062,0,112,1,-0.254,-0.001,0.327,3.143156,0.2834409,2.0875568,-3.1297216,-2.6804388,-3.1258965,0.0,0.0,0.0,0.7281701564788818,0.7281701564788818,link6
1764101793.7949266,ddpg_train,FAR,train,6,12,-3.067311447686623,0,113,1,-0.271,0.006,0.433,3.1178274,0.15009888,1.9132421,-3.1385236,-3.0757592,-3.1014247,0.0,0.0,0.0,0.7718982100486755,0.7718982100486755,link6
1764101795.1754508,ddpg_train,FAR,train,6,13,-3.0085123821445223,0,114,1,-0.273,0.004,0.42,3.128699,0.1702716,1.9558122,-3.1276207,-3.058458,-3.0697258,0.0,0.0,0.0,0.7470670938491821,0.7470670938491821,link6
1764101796.5642812,ddpg_train,FAR,train,6,14,-2.901558637029189,0,115,1,-0.25,-0.0,0.413,3.1425524,0.13786694,2.0225463,-3.1278696,-3.002583,-3.0187721,0.0,0.0,0.0,0.6922783851623535,0.6922783851623535,link6
1764101797.9703617,ddpg_train,FAR,train,6,15,-2.5085125289157313,0,116,1,-0.176,0.029,0.377,2.9728978,0.03835055,2.2870522,-3.1378405,-2.9453912,-3.0388095,0.0,0.0,0.0,0.670849621295929,0.670849621295929,link6
1764101799.351824,ddpg_train,FAR,train,6,16,-2.3277003316830154,0,117,1,-0.146,0.017,0.357,3.0201797,0.013230204,2.3861845,-3.1305394,-2.8490536,-3.0262513,0.0,0.0,0.0,0.6096860766410828,0.6096860766410828,link6
1764101800.73621,ddpg_train,FAR,train,6,17,-2.116622387052445,0,118,1,-0.093,-0.0,0.338,3.1415534,-0.11528575,2.4732203,-3.1414084,-2.6481004,-3.026776,0.0,0.0,0.0,0.5932704210281372,0.5932704210281372,link6
1764101802.1324477,ddpg_train,FAR,train,6,18,-2.0850881214780195,0,119,1,-0.083,-0.0,0.335,3.1416345,-0.11503845,2.5254447,-3.1362371,-2.6905386,-3.1118672,0.0,0.0,0.0,0.585593044757843,0.585593044757843,link6
1764101803.5126355,ddpg_train,FAR,train,6,19,-2.134622310446701,0,120,1,-0.083,-0.0,0.344,3.1415532,-0.113125265,2.5557494,-3.1318586,-2.813267,-3.1419835,0.0,0.0,0.0,0.608413815498352,0.608413815498352,link6
1764101807.2321901,ddpg_train,FAR,train,7,0,-3.5337047459934556,0,121,1,-0.229,0.213,0.498,2.196342,-0.06532444,1.5809681,-2.5144491,-1.9525228,-2.5144134,0.0,0.0,0.0,0.6840541362762451,0.6840541362762451,link6
1764101808.610558,ddpg_train,FAR,train,7,1,-2.36376846482693,0,122,1,-0.161,0.047,0.354,2.8677678,-0.043051258,2.2026675,-3.1245525,-2.4767833,-3.1412475,0.0,0.0,0.0,0.5919149518013,0.5919149518013,link6
1764101809.9955833,ddpg_train,FAR,train,7,2,-2.173411550394841,0,123,1,-0.117,-0.0,0.341,3.1415567,0.006540158,2.5143418,-3.1413305,-2.8461266,-3.1416097,0.0,0.0,0.0,0.6182100772857666,0.6182100772857666,link6
1764101811.388187,ddpg_train,FAR,train,7,3,-2.0795900292347143,0,124,1,-0.109,-0.0,0.327,3.1418903,0.023544597,2.5335245,-3.1376333,-2.7381883,-3.1418598,0.0,0.0,0.0,0.607829213142395,0.607829213142395,link6
1764101812.783418,ddpg_train,FAR,train,7,4,-2.0101801921139613,0,125,1,-0.102,-0.0,0.317,3.1421783,0.035680104,2.5483234,-3.1347358,-2.6622772,-3.1420193,0.0,0.0,0.0,0.6020345091819763,0.6020345091819763,link6
1764101814.165197,ddpg_train,FAR,train,7,5,-2.0989967815761696,0,126,1,-0.133,-0.0,0.322,3.1414628,0.12168901,2.5161147,-3.1410775,-2.799486,-3.141625,0.0,0.0,0.0,0.6356275081634521,0.6356275081634521,link6
1764101815.5442212,ddpg_train,FAR,train,7,6,-2.1531419995837333,0,127,1,-0.156,-0.003,0.322,3.1421235,0.19581392,2.531434,-3.041351,-2.9478264,-3.1419222,0.0,0.0,0.0,0.6680845618247986,0.6680845618247986,link6
1764101816.9268625,ddpg_train,FAR,train,7,7,-2.1604367888025258,0,128,1,-0.168,-0.004,0.317,3.1426806,0.24556021,2.5343893,-2.9528563,-2.9763143,-3.123209,0.0,0.0,0.0,0.6475017666816711,0.6475017666816711,link6
1764101818.319023,ddpg_train,FAR,train,7,8,-2.0326218099875453,0,129,1,-0.142,-0.006,0.306,3.141545,0.20012094,2.5156193,-3.02318,-2.736093,-3.1357665,0.0,0.0,0.0,0.6407422423362732,0.6407422423362732,link6
1764101819.7101188,ddpg_train,FAR,train,7,9,-1.992309614270096,0,130,1,-0.155,-0.017,0.292,3.1424594,0.2509086,2.4583187,-2.8418524,-2.6281838,-3.1418447,0.0,0.0,0.0,0.6699840426445007,0.6699840426445007,link6
1764101821.0916412,ddpg_train,FAR,train,7,10,-2.0091994316763087,0,131,1,-0.172,-0.026,0.285,3.1430004,0.2739872,2.401439,-2.763446,-2.5554721,-3.1416051,0.0,0.0,0.0,0.6752932071685791,0.6752932071685791,link6
1764101822.5026095,ddpg_train,FAR,train,7,11,-2.3276732845354347,0,132,1,-0.199,-0.01,0.332,3.1418047,0.13338129,2.1948888,-2.9931555,-2.5811346,-3.141732,0.0,0.0,0.0,0.7021081447601318,0.7021081447601318,link6
1764101823.8928475,ddpg_train,FAR,train,7,12,-2.321182669299001,0,133,1,-0.202,-0.007,0.329,3.1427786,0.15019885,2.1947515,-3.0402966,-2.574258,-3.141785,0.0,0.0,0.0,0.7030796408653259,0.7030796408653259,link6
1764101825.274293,ddpg_train,FAR,train,7,13,-2.8604687572420473,0,134,1,-0.244,-0.0,0.409,3.1413753,0.043956507,1.869999,-3.1413357,-2.544173,-3.1416023,0.0,0.0,0.0,0.7435302138328552,0.7435302138328552,link6
1764101826.651101,ddpg_train,FAR,train,7,14,-2.7854471520962027,0,135,1,-0.251,-0.001,0.39,3.1419094,0.123174176,1.9288797,-3.1345828,-2.65584,-3.1417558,0.0,0.0,0.0,0.7523295283317566,0.7523295283317566,link6
1764101828.033104,ddpg_train,FAR,train,7,15,-2.65300070013558,0,136,1,-0.247,-0.001,0.366,3.142846,0.1679373,2.0180442,-3.1262963,-2.6783426,-3.1420147,0.0,0.0,0.0,0.7207932472229004,0.7207932472229004,link6
1764101829.4165583,ddpg_train,FAR,train,7,16,-2.639744177136382,0,137,1,-0.202,-0.0,0.39,3.1414318,0.031699426,2.09903,-3.1412435,-2.7469356,-3.1416075,0.0,0.0,0.0,0.7014471292495728,0.7014471292495728,link6
1764101830.8171375,ddpg_train,FAR,train,7,17,-2.2469508692310014,0,138,1,-0.158,-0.001,0.338,3.142076,0.06725672,2.351413,-3.134246,-2.7034523,-3.141823,0.0,0.0,0.0,0.6400030851364136,0.6400030851364136,link6
1764101832.1996288,ddpg_train,FAR,train,7,18,-2.1019133158804575,0,139,1,-0.142,-0.001,0.319,3.1425138,0.096789934,2.4230275,-3.13317,-2.6495836,-3.1420457,0.0,0.0,0.0,0.659453809261322,0.659453809261322,link6
1764101833.590131,ddpg_train,FAR,train,7,19,-2.1635657387945373,0,140,1,-0.137,-0.0,0.332,3.141553,0.047660537,2.4232588,-3.140824,-2.7099712,-3.1416352,0.0,0.0,0.0,0.6361947655677795,0.6361947655677795,link6
1764101837.2456024,ddpg_train,FAR,train,8,0,-6.303987052269361,0,141,1,-0.014,0.04,1.043,0.33651787,-0.04105705,0.15397857,-0.8824992,-0.48350263,-0.71234554,0.0,0.0,0.0,0.4807939827442169,0.4807939827442169,link6
1764101838.629184,ddpg_train,FAR,train,8,1,-4.297120886453899,0,142,1,-0.139,0.204,0.671,2.0387728,-0.08038051,0.991469,-2.766756,-2.3071592,-2.1629078,0.0,0.0,0.0,0.6526843309402466,0.6526843309402466,link6
1764101840.0118344,ddpg_train,FAR,train,8,2,-2.9479929338668716,0,143,1,-0.206,0.06,0.441,2.9065652,0.0011739748,2.0506365,-3.057406,-2.964237,-2.6976645,0.0,0.0,0.0,0.6823233962059021,0.6823233962059021,link6
1764101841.4054413,ddpg_train,FAR,train,8,3,-2.4671998202970418,0,144,1,-0.17,-0.001,0.373,3.1451077,0.049614225,2.4285302,-3.130762,-3.141545,-2.8640785,0.0,0.0,0.0,0.6474406719207764,0.6474406719207764,link6
1764101842.8035913,ddpg_train,FAR,train,8,4,-2.3678093552342445,0,145,1,-0.144,-0.0,0.366,3.1415362,0.008033849,2.5140018,-3.1413896,-3.1415904,-2.904456,0.0,0.0,0.0,0.6443377137184143,0.6443377137184143,link6
1764101844.183941,ddpg_train,FAR,train,8,5,-2.347941531227146,0,146,1,-0.137,-0.0,0.365,3.1418967,-0.008988129,2.5334387,-3.1376116,-3.1415641,-3.0400121,0.0,0.0,0.0,0.6347333192825317,0.6347333192825317,link6
1764101845.5687509,ddpg_train,FAR,train,8,6,-2.331612338214946,0,147,1,-0.132,-0.0,0.364,3.1419685,-0.0126612745,2.552036,-3.133526,-3.1415477,-3.1087582,0.0,0.0,0.0,0.6383963227272034,0.6383963227272034,link6
1764101846.9678578,ddpg_train,FAR,train,8,7,-2.3189158828457144,0,148,1,-0.131,-0.0,0.362,3.1415408,-0.012636943,2.5158536,-3.141004,-3.0546632,-3.141635,0.0,0.0,0.0,0.6312029957771301,0.6312029957771301,link6
1764101848.3587584,ddpg_train,FAR,train,8,8,-2.101852301204712,0,149,1,-0.101,-0.008,0.333,3.1419303,-0.02540382,2.5385911,-2.966673,-2.7382154,-3.1419744,0.0,0.0,0.0,0.5920349359512329,0.5920349359512329,link6
1764101849.7485173,ddpg_train,FAR,train,8,9,-1.9704746932410078,0,150,1,-0.088,-0.016,0.314,3.1418917,-0.03856706,2.5442781,-2.913,-2.5758798,-3.1416378,0.0,0.0,0.0,0.6072056889533997,0.6072056889533997,link6
1764101851.1327708,ddpg_train,FAR,train,8,10,-2.221064947000402,0,151,1,-0.13,0.005,0.345,3.07546,-0.015256227,2.4016628,-3.081879,-2.7252996,-3.1416836,0.0,0.0,0.0,0.6344596147537231,0.6344596147537231,link6
1764101852.5207517,ddpg_train,FAR,train,8,11,-2.371696862451462,0,152,1,-0.147,0.024,0.365,2.958699,0.0036782993,2.3849695,-3.0783324,-2.9333632,-3.141802,0.0,0.0,0.0,0.6665223240852356,0.6665223240852356,link6
1764101853.9160569,ddpg_train,FAR,train,8,12,-2.5783176263550978,0,153,1,-0.166,0.05,0.392,2.852359,0.0091604,2.361552,-3.079828,-3.141628,-3.141991,0.0,0.0,0.0,0.6635690331459045,0.6635690331459045,link6
1764101855.3004382,ddpg_train,FAR,train,8,13,-2.4798080704349594,0,154,1,-0.149,0.008,0.384,3.0971205,-0.03703533,2.4387233,-3.1170444,-3.14164,-3.141733,0.0,0.0,0.0,0.6440812349319458,0.6440812349319458,link6
1764101856.728979,ddpg_train,FAR,train,8,14,-2.4290243700629413,0,155,1,-0.147,-0.0,0.376,3.1419861,-0.014430848,2.4723954,-3.131958,-3.141551,-3.062065,0.0,0.0,0.0,0.6609085202217102,0.6609085202217102,link6
1764101858.1219695,ddpg_train,FAR,train,8,15,-2.373428084031884,0,156,1,-0.144,-0.0,0.367,3.1414843,0.0055515524,2.51346,-3.0786629,-3.1416101,-3.0408347,0.0,0.0,0.0,0.6439073085784912,0.6439073085784912,link6
1764101859.5035877,ddpg_train,FAR,train,8,16,-2.3779312005640745,0,157,1,-0.161,-0.0,0.361,3.1418002,0.06313173,2.4904947,-3.1207392,-3.141657,-3.0615852,0.0,0.0,0.0,0.6679238677024841,0.6679238677024841,link6
1764101860.8940015,ddpg_train,FAR,train,8,17,-2.350578817007762,0,158,1,-0.165,-0.0,0.354,3.1425204,0.09760036,2.5061686,-3.0734427,-3.1416187,-3.0574162,0.0,0.0,0.0,0.654464602470398,0.654464602470398,link6
1764101862.2730417,ddpg_train,FAR,train,8,18,-2.538765221692486,0,159,1,-0.173,0.007,0.385,3.098001,0.024208918,2.377545,-3.135986,-3.141607,-3.1386695,0.0,0.0,0.0,0.6738959550857544,0.6738959550857544,link6
1764101863.656113,ddpg_train,FAR,train,8,19,-2.5235513531841995,0,160,1,-0.179,0.021,0.379,3.0208697,0.052235056,2.3761032,-3.1354578,-3.1415622,-3.1419373,0.0,0.0,0.0,0.6806878447532654,0.6806878447532654,link6
1764101867.3156831,ddpg_train,FAR,train,9,0,-3.709106123458147,0,161,1,-0.008,0.185,0.585,1.5819801,-0.1508466,1.5025328,-2.926403,-2.9010408,-2.0098596,0.0,0.0,0.0,0.5204392671585083,0.5204392671585083,link6
1764101868.6969602,ddpg_train,FAR,train,9,1,-2.7859443369350068,0,162,1,-0.13,0.094,0.434,2.5791485,-0.11526649,2.2432232,-3.0779052,-3.080049,-2.841828,0.0,0.0,0.0,0.6240979433059692,0.6240979433059692,link6
1764101870.076125,ddpg_train,FAR,train,9,2,-2.4002541829849813,0,163,1,-0.122,0.019,0.379,2.9934835,-0.082535915,2.5170698,-3.130721,-3.1415539,-3.136554,0.0,0.0,0.0,0.6362670063972473,0.6362670063972473,link6
1764101871.470622,ddpg_train,FAR,train,9,3,-2.3908193487123692,0,164,1,-0.127,0.039,0.374,2.8461416,-0.043731835,2.5149007,-3.0838494,-3.1415913,-3.141623,0.0,0.0,0.0,0.6271534562110901,0.6271534562110901,link6
1764101872.8610084,ddpg_train,FAR,train,9,4,-2.41399004377721,0,165,1,-0.131,0.054,0.375,2.744088,-0.026265487,2.487242,-2.9369578,-3.141732,-3.1418533,0.0,0.0,0.0,0.6350335478782654,0.6350335478782654,link6
1764101874.2473607,ddpg_train,FAR,train,9,5,-2.452125327506609,0,166,1,-0.135,0.064,0.379,2.6997795,-0.018000359,2.4558206,-2.8067057,-3.1421995,-3.1417258,0.0,0.0,0.0,0.6460599303245544,0.6460599303245544,link6
1764101875.6315553,ddpg_train,FAR,train,9,6,-2.831084459195174,0,167,1,-0.181,0.026,0.434,2.9985173,-0.055965424,2.180145,-2.7290409,-3.128866,-2.896968,0.0,0.0,0.0,0.6832609176635742,0.6832609176635742,link6
1764101877.0208712,ddpg_train,FAR,train,9,7,-2.810914892855462,0,168,1,-0.187,0.037,0.427,2.9249072,-0.027242307,2.1673448,-2.8249648,-3.0967166,-2.9641232,0.0,0.0,0.0,0.686771035194397,0.686771035194397,link6
1764101878.4151702,ddpg_train,FAR,train,9,8,-2.788984294065649,0,169,1,-0.187,0.054,0.421,2.8426514,-0.0040691756,2.1705961,-2.9197946,-3.053074,-3.0477817,0.0,0.0,0.0,0.6711588501930237,0.6711588501930237,link6
1764101879.7929404,ddpg_train,FAR,train,9,9,-2.7296296639635806,0,170,1,-0.176,0.061,0.414,2.8051202,-0.017500447,2.175535,-3.13005,-2.999623,-3.141647,0.0,0.0,0.0,0.6762503981590271,0.6762503981590271,link6
1764101881.2202616,ddpg_train,FAR,train,9,10,-2.370056626975438,0,171,1,-0.138,0.027,0.367,2.8996475,-0.025092645,2.3973541,-2.9053469,-2.8980045,-3.1419463,0.0,0.0,0.0,0.603584349155426,0.603584349155426,link6
1764101882.6077728,ddpg_train,FAR,train,9,11,-2.173061790091451,0,172,1,-0.099,0.004,0.346,2.950318,-0.07220861,2.5422785,-2.7517467,-2.824535,-3.1372592,0.0,0.0,0.0,0.590563952922821,0.590563952922821,link6
1764101883.9927442,ddpg_train,FAR,train,9,12,-2.2116435436682322,0,173,1,-0.093,0.018,0.354,2.9335158,-0.10680038,2.529569,-3.0749323,-2.8726757,-3.0405204,0.0,0.0,0.0,0.5958747267723083,0.5958747267723083,link6
1764101885.3820884,ddpg_train,FAR,train,9,13,-2.1585169762241914,0,174,1,-0.095,0.006,0.345,3.0575821,-0.06888321,2.5521188,-3.0943315,-2.8488736,-3.030196,0.0,0.0,0.0,0.6103898286819458,0.6103898286819458,link6
1764101886.7748504,ddpg_train,FAR,train,9,14,-2.162125575127438,0,175,1,-0.12,-0.0,0.338,3.1414676,0.025978876,2.5134935,-3.1415505,-2.8315513,-3.1209273,0.0,0.0,0.0,0.620396614074707,0.620396614074707,link6
1764101888.1819036,ddpg_train,FAR,train,9,15,-2.3538641570549705,0,176,1,-0.143,-0.0,0.364,3.1418846,-0.0009976918,2.4427624,-3.1382408,-3.0056648,-3.1365073,0.0,0.0,0.0,0.6519346833229065,0.6519346833229065,link6
1764101889.5681376,ddpg_train,FAR,train,9,16,-2.324285782079897,0,177,1,-0.138,-0.0,0.36,3.1405013,0.0057980428,2.4714642,-3.1313553,-2.9712617,-3.1420913,0.0,0.0,0.0,0.61171954870224,0.61171954870224,link6
1764101890.945381,ddpg_train,FAR,train,9,17,-1.743965426318255,0,178,1,-0.092,-0.014,0.273,3.132049,-0.004098795,2.5151646,-2.9915323,-2.2339027,-3.1417055,0.0,0.0,0.0,0.592080295085907,0.592080295085907,link6
1764101892.3753335,ddpg_train,FAR,train,9,18,-1.7897055043996222,0,179,1,-0.097,0.001,0.28,3.078806,0.025696784,2.5088484,-3.0900075,-2.321422,-3.0284522,0.0,0.0,0.0,0.605415940284729,0.605415940284729,link6
1764101893.7594507,ddpg_train,FAR,train,9,19,-1.8705612240546476,0,180,1,-0.111,0.008,0.29,3.0643349,0.047835093,2.4725444,-3.1343448,-2.3968863,-2.9737105,0.0,0.0,0.0,0.6594530940055847,0.6594530940055847,link6
1764101897.4087694,ddpg_train,FAR,train,10,0,-3.3402921994110106,0,181,1,-0.174,0.23,0.474,1.9771657,-0.074306674,1.7658467,-2.318425,-2.1169667,-1.6143909,0.0,0.0,0.0,0.6098830103874207,0.6098830103874207,link6
1764101898.8026006,ddpg_train,FAR,train,10,1,-2.4020060428383254,0,182,1,-0.125,0.041,0.377,2.8270195,-0.075327285,2.3926597,-3.1298573,-2.93694,-2.3209584,0.0,0.0,0.0,0.668504536151886,0.668504536151886,link6
1764101900.18623,ddpg_train,FAR,train,10,2,-2.7217464318478926,0,183,1,-0.19,0.001,0.411,3.135232,0.0054439437,2.2489092,-3.140714,-3.1402266,-2.9701762,0.0,0.0,0.0,0.691073477268219,0.691073477268219,link6
1764101901.5647545,ddpg_train,FAR,train,10,3,-2.5635604745452283,0,184,1,-0.175,0.021,0.388,3.012065,0.015999772,2.330152,-3.133869,-3.0757062,-3.0880501,0.0,0.0,0.0,0.6627553105354309,0.6627553105354309,link6
1764101902.9522257,ddpg_train,FAR,train,10,4,-2.4397898987242477,0,185,1,-0.155,0.032,0.373,2.9360094,0.018274894,2.4179375,-3.1273131,-3.0668027,-3.111298,0.0,0.0,0.0,0.6358844637870789,0.6358844637870789,link6
1764101904.353521,ddpg_train,FAR,train,10,5,-2.385716960181684,0,186,1,-0.117,0.056,0.374,2.690486,-0.056121793,2.5179555,-2.8318717,-3.1417499,-3.104275,0.0,0.0,0.0,0.6157440543174744,0.6157440543174744,link6
1764101905.7469559,ddpg_train,FAR,train,10,6,-2.359663851100597,0,187,1,-0.121,0.034,0.371,2.8743937,-0.053817075,2.541149,-2.8189197,-3.1421466,-2.9665754,0.0,0.0,0.0,0.6277113556861877,0.6277113556861877,link6
1764101907.1378596,ddpg_train,FAR,train,10,7,-2.347537292051091,0,188,1,-0.125,0.014,0.369,3.0266967,-0.04664016,2.5477393,-2.8161342,-3.1423771,-2.8911688,0.0,0.0,0.0,0.6383599638938904,0.6383599638938904,link6
1764101908.5249004,ddpg_train,FAR,train,10,8,-2.365012221179086,0,189,1,-0.14,0.002,0.367,3.1330576,-0.0040007625,2.5203598,-3.0371482,-3.1417727,-3.0978093,0.0,0.0,0.0,0.6412649154663086,0.6412649154663086,link6
1764101909.9072175,ddpg_train,FAR,train,10,9,-2.3312764279982323,0,190,1,-0.14,0.002,0.361,3.1301873,0.01727112,2.5438411,-3.0731359,-3.1417234,-2.9969552,0.0,0.0,0.0,0.6429356932640076,0.6429356932640076,link6
1764101911.2938793,ddpg_train,FAR,train,10,10,-2.3352318239228547,0,191,1,-0.142,0.005,0.361,3.1023705,0.027602991,2.5434065,-3.073186,-3.1417015,-2.876577,0.0,0.0,0.0,0.6502993702888489,0.6502993702888489,link6
1764101912.6740105,ddpg_train,FAR,train,10,11,-2.341307660831872,0,192,1,-0.146,0.042,0.358,2.8591964,0.053921342,2.5231845,-3.0009296,-3.1417828,-2.7968993,0.0,0.0,0.0,0.6450132131576538,0.6450132131576538,link6
1764101914.1131546,ddpg_train,FAR,train,10,12,-2.315766521148054,0,193,1,-0.139,0.056,0.354,2.7499285,0.06363098,2.542613,-3.031842,-3.1418872,-2.8540676,0.0,0.0,0.0,0.6288115978240967,0.6288115978240967,link6
1764101915.5010302,ddpg_train,FAR,train,10,13,-2.3539089585116932,0,194,1,-0.139,0.073,0.358,2.6552927,0.06746854,2.5136094,-3.1412742,-3.1416597,-3.140786,0.0,0.0,0.0,0.6386217474937439,0.6386217474937439,link6
1764101916.8898206,ddpg_train,FAR,train,10,14,-2.326711896970363,0,195,1,-0.128,0.09,0.353,2.52,0.08054085,2.5297346,-3.1313808,-3.1416929,-3.141823,0.0,0.0,0.0,0.6218803524971008,0.6218803524971008,link6
1764101918.2934268,ddpg_train,FAR,train,10,15,-2.3047019889562668,0,196,1,-0.125,0.091,0.35,2.5172694,0.08960422,2.545606,-3.1284945,-3.1417334,-3.1420286,0.0,0.0,0.0,0.6328923106193542,0.6328923106193542,link6
1764101919.6941934,ddpg_train,FAR,train,10,16,-2.3603110477815314,0,197,1,-0.121,0.088,0.362,2.5080628,0.034710914,2.5155587,-3.141091,-3.1416528,-3.1416316,0.0,0.0,0.0,0.620364785194397,0.620364785194397,link6
1764101921.074341,ddpg_train,FAR,train,10,17,-2.3332503144752463,0,198,1,-0.134,0.069,0.357,2.6682649,0.05650245,2.5305855,-3.137298,-3.1416543,-3.1418977,0.0,0.0,0.0,0.6416133046150208,0.6416133046150208,link6
1764101922.469548,ddpg_train,FAR,train,10,18,-2.324274410994071,0,199,1,-0.139,0.059,0.355,2.7318773,0.064553626,2.5404878,-3.135178,-3.1416566,-3.1420636,0.0,0.0,0.0,0.6256654262542725,0.6256654262542725,link6
1764101923.883196,ddpg_train,FAR,train,10,19,-2.1299884455260774,0,200,1,-0.101,0.053,0.334,2.656205,0.01619757,2.5182836,-3.1406014,-2.7902315,-3.1416824,0.0,0.0,0.0,0.6003220081329346,0.6003220081329346,link6
1764101927.5358636,ddpg_train,FAR,train,11,0,-6.349022297985624,0,201,1,0.081,0.04,1.037,0.20656224,-0.04212668,0.37362054,-0.6593975,-0.42752603,-0.45780757,0.0,0.0,0.0,0.38780325651168823,0.38780325651168823,link6
1764101928.928982,ddpg_train,FAR,train,11,1,-3.479502632443231,0,202,1,0.047,0.227,0.524,1.2422746,-0.15711825,1.5504303,-2.8147514,-2.3130271,-1.8400995,0.0,0.0,0.0,0.47895458340644836,0.47895458340644836,link6
1764101930.3216524,ddpg_train,FAR,train,11,2,-2.5242738689489093,0,203,1,-0.057,0.12,0.396,2.024194,-0.16211072,2.2776625,-3.0413854,-2.7871284,-2.7160401,0.0,0.0,0.0,0.5619437098503113,0.5619437098503113,link6
1764101931.7102516,ddpg_train,FAR,train,11,3,-2.332140305935497,0,204,1,-0.066,0.072,0.374,2.3060987,-0.14912397,2.5133154,-3.1303835,-3.011071,-3.086597,0.0,0.0,0.0,0.5961645245552063,0.5961645245552063,link6
1764101933.1073537,ddpg_train,FAR,train,11,4,-2.2404908042161304,0,205,1,-0.081,0.08,0.353,2.361502,-0.04173659,2.5125566,-3.1409917,-2.90593,-3.1416163,0.0,0.0,0.0,0.5804818868637085,0.5804818868637085,link6
1764101934.4878983,ddpg_train,FAR,train,11,5,-2.182053551691796,0,206,1,-0.1,0.051,0.344,2.6720579,-0.007813649,2.5382674,-3.1363378,-2.8883424,-3.1418269,0.0,0.0,0.0,0.612472414970398,0.612472414970398,link6
1764101935.8889077,ddpg_train,FAR,train,11,6,-2.1691305880848373,0,207,1,-0.11,0.032,0.341,2.8613122,0.011165116,2.5491798,-3.1343555,-2.88843,-3.1419735,0.0,0.0,0.0,0.6141710877418518,0.6141710877418518,link6
1764101937.2690847,ddpg_train,FAR,train,11,7,-2.2697299585923747,0,208,1,-0.127,0.022,0.354,2.9695084,0.009137667,2.517375,-3.1407053,-2.9881096,-3.1121013,0.0,0.0,0.0,0.6284812688827515,0.6284812688827515,link6
1764101938.6481547,ddpg_train,FAR,train,11,8,-2.118592119778943,0,209,1,-0.111,0.008,0.333,3.063264,0.017606977,2.5394683,-3.1364977,-2.8040946,-2.9061158,0.0,0.0,0.0,0.603493332862854,0.603493332862854,link6
1764101940.0251927,ddpg_train,FAR,train,11,9,-2.049231138011229,0,210,1,-0.103,0.004,0.324,3.093812,0.018248929,2.5480618,-3.1345663,-2.7236202,-2.7630625,0.0,0.0,0.0,0.6295567154884338,0.6295567154884338,link6
1764101941.4606812,ddpg_train,FAR,train,11,10,-2.32705303427626,0,211,1,-0.15,0.031,0.355,2.940179,0.06918572,2.5208611,-3.140153,-3.1252613,-2.8302572,0.0,0.0,0.0,0.6536485552787781,0.6536485552787781,link6
1764101942.8459487,ddpg_train,FAR,train,11,11,-2.2994651074409704,0,212,1,-0.159,0.019,0.347,3.0309212,0.11313756,2.537236,-3.1365898,-3.141675,-2.8627298,0.0,0.0,0.0,0.6650335192680359,0.6650335192680359,link6
1764101944.2262518,ddpg_train,FAR,train,11,12,-2.509886947735837,0,213,1,-0.201,-0.0,0.366,3.1413987,0.13587423,2.3639896,-3.141546,-3.1415906,-3.0804608,0.0,0.0,0.0,0.7008171677589417,0.7008171677589417,link6
1764101945.6073213,ddpg_train,FAR,train,11,13,-2.671691302414862,0,214,1,-0.236,-0.0,0.377,3.1419535,0.18018822,2.2298326,-3.1387916,-3.1415708,-2.856924,0.0,0.0,0.0,0.7405349612236023,0.7405349612236023,link6
1764101946.9993954,ddpg_train,FAR,train,11,14,-2.6738356142778166,0,215,1,-0.249,-0.0,0.369,3.1429234,0.22447255,2.2100763,-3.132058,-3.141531,-2.8822546,0.0,0.0,0.0,0.7448291778564453,0.7448291778564453,link6
1764101948.3967953,ddpg_train,FAR,train,11,15,-3.154193498594462,0,216,1,-0.276,-0.0,0.447,3.14139,0.14788707,1.9027895,-3.1412482,-3.1415882,-2.906366,0.0,0.0,0.0,0.7757777571678162,0.7757777571678162,link6
1764101949.7767322,ddpg_train,FAR,train,11,16,-2.846115744370531,0,217,1,-0.254,-0.0,0.4,3.142157,0.16844511,2.1116312,-3.1339579,-3.1415658,-2.932116,0.0,0.0,0.0,0.7376613020896912,0.7376613020896912,link6
1764101951.166226,ddpg_train,FAR,train,11,17,-2.6061743411741207,0,218,1,-0.229,-0.0,0.368,3.1429417,0.18976586,2.287606,-3.1296198,-3.1415343,-2.9611454,0.0,0.0,0.0,0.6799696683883667,0.6799696683883667,link6
1764101952.5699484,ddpg_train,FAR,train,11,18,-2.3395832920050452,0,219,1,-0.163,-0.0,0.353,3.1414607,0.09456711,2.5136392,-3.1124022,-3.14166,-2.8978188,0.0,0.0,0.0,0.6617120504379272,0.6617120504379272,link6
1764101953.9510036,ddpg_train,FAR,train,11,19,-2.260459573442087,0,220,1,-0.155,-0.0,0.342,3.1421208,0.1158346,2.5196598,-3.127942,-3.0398505,-3.054885,0.0,0.0,0.0,0.6495717763900757,0.6495717763900757,link6
1764101957.6054988,ddpg_train,FAR,train,12,0,-2.825005735455176,0,221,1,-0.098,0.11,0.445,2.2535172,-0.21481153,2.0288997,-3.0070846,-2.7164245,-1.862943,0.0,0.0,0.0,0.5992254018783569,0.5992254018783569,link6
1764101958.9914076,ddpg_train,FAR,train,12,1,-2.643385922614952,0,222,1,-0.157,0.054,0.407,2.8114297,-0.048286524,2.282996,-3.111297,-3.0657852,-2.9129627,0.0,0.0,0.0,0.6722263097763062,0.6722263097763062,link6
1764101960.3846967,ddpg_train,FAR,train,12,2,-2.4826971286486206,0,223,1,-0.161,0.022,0.379,3.013033,0.013503602,2.4341042,-3.1304622,-3.141551,-3.1420672,0.0,0.0,0.0,0.6377235651016235,0.6377235651016235,link6
1764101961.7839622,ddpg_train,FAR,train,12,3,-2.386817818858618,0,224,1,-0.134,-0.0,0.373,3.141523,-0.038335346,2.513751,-3.1413856,-3.1415906,-3.1416066,0.0,0.0,0.0,0.6344624161720276,0.6344624161720276,link6
1764101963.1799326,ddpg_train,FAR,train,12,4,-2.391227919025702,0,225,1,-0.155,-0.0,0.366,3.1416874,0.03683329,2.488811,-3.1373208,-3.1415668,-3.1418736,0.0,0.0,0.0,0.6658009886741638,0.6658009886741638,link6
1764101964.5656576,ddpg_train,FAR,train,12,5,-2.355645233989455,0,226,1,-0.165,-0.0,0.355,3.1424108,0.096609905,2.5051448,-3.1210742,-3.1415944,-3.1421597,0.0,0.0,0.0,0.659795880317688,0.659795880317688,link6
1764101965.9470155,ddpg_train,FAR,train,12,6,-2.353991637798929,0,227,1,-0.15,0.029,0.36,2.9495525,0.050885618,2.5151138,-3.0989294,-3.1416457,-3.1416326,0.0,0.0,0.0,0.6498122215270996,0.6498122215270996,link6
1764101967.3320637,ddpg_train,FAR,train,12,7,-2.321818698189795,0,228,1,-0.151,0.026,0.354,2.9725559,0.07127928,2.5345716,-3.1228878,-3.141674,-3.141901,0.0,0.0,0.0,0.6516124606132507,0.6516124606132507,link6
1764101968.721225,ddpg_train,FAR,train,12,8,-2.322485218100498,0,229,1,-0.154,0.026,0.353,2.9717374,0.0852908,2.5278916,-3.1356816,-3.1416297,-3.1421208,0.0,0.0,0.0,0.6653677821159363,0.6653677821159363,link6
1764101970.1308687,ddpg_train,FAR,train,12,9,-2.346334851656847,0,230,1,-0.159,0.002,0.356,3.127103,0.07723315,2.5134306,-3.1405327,-3.1416283,-3.1416771,0.0,0.0,0.0,0.6579513549804688,0.6579513549804688,link6
1764101971.5167437,ddpg_train,FAR,train,12,10,-2.352651064613398,0,231,1,-0.164,-0.0,0.355,3.1422167,0.091529176,2.5016024,-3.1374397,-3.1416192,-3.142027,0.0,0.0,0.0,0.6669655442237854,0.6669655442237854,link6
1764101972.8977046,ddpg_train,FAR,train,12,11,-2.3733462329826978,0,232,1,-0.168,-0.0,0.357,3.1423671,0.09635121,2.486648,-3.1175046,-3.1415927,-3.1421328,0.0,0.0,0.0,0.672191321849823,0.672191321849823,link6
1764101974.2793224,ddpg_train,FAR,train,12,12,-2.2591861366668318,0,233,1,-0.145,-0.0,0.346,3.1417084,0.078047276,2.5155752,-3.1272814,-3.001158,-3.1417034,0.0,0.0,0.0,0.6405971050262451,0.6405971050262451,link6
1764101975.6694906,ddpg_train,FAR,train,12,13,-2.2363614720667413,0,234,1,-0.15,-0.0,0.34,3.1422496,0.119051635,2.5401466,-3.136902,-3.0459921,-3.1420522,0.0,0.0,0.0,0.6622129678726196,0.6622129678726196,link6
1764101977.0587015,ddpg_train,FAR,train,12,14,-2.271005084982635,0,235,1,-0.164,-0.0,0.34,3.1423147,0.15540157,2.5381296,-3.1295881,-3.1071918,-3.1269128,0.0,0.0,0.0,0.6711112856864929,0.6711112856864929,link6
1764101978.4696937,ddpg_train,FAR,train,12,15,-2.20713203348601,0,236,1,-0.151,-0.0,0.334,3.1418188,0.1357244,2.5213606,-3.1272867,-2.9727168,-3.117304,0.0,0.0,0.0,0.6456984877586365,0.6456984877586365,link6
1764101979.859768,ddpg_train,FAR,train,12,16,-2.1930353403767358,0,237,1,-0.15,-0.0,0.332,3.1424096,0.14518392,2.5393217,-3.1375508,-2.9959824,-3.1420858,0.0,0.0,0.0,0.6549098491668701,0.6549098491668701,link6
1764101981.2515981,ddpg_train,FAR,train,12,17,-2.2454622936202218,0,238,1,-0.128,-0.0,0.35,3.1414657,0.014317236,2.513499,-3.141525,-2.9446075,-3.1416035,0.0,0.0,0.0,0.6272907853126526,0.6272907853126526,link6
1764101982.64035,ddpg_train,FAR,train,12,18,-2.2132392398852874,0,239,1,-0.12,-0.0,0.347,3.1418123,0.0024664656,2.5295458,-3.1384149,-2.9249823,-3.1418378,0.0,0.0,0.0,0.6189083456993103,0.6189083456993103,link6
1764101984.02238,ddpg_train,FAR,train,12,19,-2.1705175826083445,0,240,1,-0.112,-0.0,0.342,3.1419842,0.0010058788,2.549544,-3.134217,-2.8839414,-3.1420841,0.0,0.0,0.0,0.6093773245811462,0.6093773245811462,link6
1764101987.6750948,ddpg_train,FAR,train,13,0,-2.730272453858245,0,241,1,-0.144,0.03,0.428,2.7359166,-0.24618332,2.105047,-2.6365056,-2.5911431,-2.3199723,0.0,0.0,0.0,0.5819204449653625,0.5819204449653625,link6
1764101989.0618832,ddpg_train,FAR,train,13,1,-2.4072915459737465,0,242,1,-0.096,-0.003,0.388,3.1495252,-0.19236256,2.4857564,-2.9886012,-3.0556247,-2.8938205,0.0,0.0,0.0,0.6317231059074402,0.6317231059074402,link6
1764101990.452466,ddpg_train,FAR,train,13,2,-2.431841987186852,0,243,1,-0.128,-0.001,0.383,3.1477182,-0.08494391,2.4921355,-2.968335,-3.1418805,-3.1373966,0.0,0.0,0.0,0.6331515908241272,0.6331515908241272,link6
1764101991.8310688,ddpg_train,FAR,train,13,3,-2.4377410499965757,0,244,1,-0.098,-0.0,0.392,3.1446376,-0.19770189,2.5133636,-2.8324556,-3.1417382,-3.1019428,0.0,0.0,0.0,0.5925306677818298,0.5925306677818298,link6
1764101993.2117813,ddpg_train,FAR,train,13,4,-2.3384947895049755,0,245,1,-0.079,-0.005,0.379,3.1475704,-0.22188164,2.5570621,-2.7257671,-3.0485184,-3.1198626,0.0,0.0,0.0,0.578118622303009,0.578118622303009,link6
1764101994.6069632,ddpg_train,FAR,train,13,5,-2.1499586063381693,0,246,1,-0.068,-0.045,0.346,3.1417272,-0.25643215,2.5136602,-2.4080787,-2.5653863,-3.1419082,0.0,0.0,0.0,0.5678857564926147,0.5678857564926147,link6
1764101995.9910305,ddpg_train,FAR,train,13,6,-2.089200101854656,0,247,1,-0.071,-0.047,0.335,3.1441467,-0.20947227,2.5350351,-2.421209,-2.5335305,-3.1393156,0.0,0.0,0.0,0.5789945125579834,0.5789945125579834,link6
1764101997.3728702,ddpg_train,FAR,train,13,7,-2.0392800135622995,0,248,1,-0.073,-0.049,0.326,3.145455,-0.17032237,2.553991,-2.4174728,-2.499825,-3.0664937,0.0,0.0,0.0,0.5922420620918274,0.5922420620918274,link6
1764101998.7579124,ddpg_train,FAR,train,13,8,-2.3002214850716394,0,249,1,-0.101,-0.023,0.367,3.1417441,-0.1304686,2.51445,-2.3089054,-2.8884506,-3.1393418,0.0,0.0,0.0,0.6016504168510437,0.6016504168510437,link6
1764102000.1454217,ddpg_train,FAR,train,13,9,-2.3128335623677363,0,250,1,-0.101,-0.003,0.37,3.0423281,-0.1310852,2.534499,-2.4183702,-2.9965522,-2.9702537,0.0,0.0,0.0,0.6071523427963257,0.6071523427963257,link6
1764102001.5306184,ddpg_train,FAR,train,13,10,-2.32143264352363,0,251,1,-0.108,0.009,0.37,3.0058832,-0.092372514,2.5511749,-2.5177722,-3.0704746,-2.9105077,0.0,0.0,0.0,0.6417675614356995,0.6417675614356995,link6
1764102002.9135587,ddpg_train,FAR,train,13,11,-2.5170269404519634,0,252,1,-0.164,0.055,0.381,2.8034508,0.033287466,2.3677387,-2.7679553,-3.0997944,-2.8126948,0.0,0.0,0.0,0.6651737689971924,0.6651737689971924,link6
1764102004.3210528,ddpg_train,FAR,train,13,12,-2.4800036920841473,0,253,1,-0.17,0.035,0.374,2.9452417,0.05078366,2.4071455,-2.877285,-3.1278923,-2.7312963,0.0,0.0,0.0,0.6703502535820007,0.6703502535820007,link6
1764102005.7056613,ddpg_train,FAR,train,13,13,-2.417355466287941,0,254,1,-0.166,0.023,0.365,2.9997065,0.06839682,2.4570005,-2.9106054,-3.1355193,-2.731414,0.0,0.0,0.0,0.6495580077171326,0.6495580077171326,link6
1764102007.0898318,ddpg_train,FAR,train,13,14,-2.2624803488299414,0,255,1,-0.123,0.022,0.354,2.9139116,-0.007986331,2.5168507,-2.8669627,-2.96173,-2.9307973,0.0,0.0,0.0,0.6209654211997986,0.6209654211997986,link6
1764102008.4921985,ddpg_train,FAR,train,13,15,-2.3040574418719935,0,256,1,-0.121,0.023,0.362,2.926427,-0.036189772,2.538176,-2.77157,-3.0652118,-2.8173683,0.0,0.0,0.0,0.6236742734909058,0.6236742734909058,link6
1764102009.8805711,ddpg_train,FAR,train,13,16,-2.3578023980214553,0,257,1,-0.118,0.026,0.372,2.9184806,-0.07050965,2.5488987,-2.7015018,-3.136352,-2.7886114,0.0,0.0,0.0,0.6118184924125671,0.6118184924125671,link6
1764102011.2698195,ddpg_train,FAR,train,13,17,-2.4000774547438803,0,258,1,-0.116,0.003,0.381,3.1187434,-0.11321543,2.519556,-3.1059365,-3.1389956,-3.1333756,0.0,0.0,0.0,0.6174938082695007,0.6174938082695007,link6
1764102012.6601868,ddpg_train,FAR,train,13,18,-2.4374501894568517,0,259,1,-0.114,0.009,0.388,3.050391,-0.14460629,2.490427,-3.1338282,-3.1415627,-3.141971,0.0,0.0,0.0,0.617110550403595,0.617110550403595,link6
1764102014.0641615,ddpg_train,FAR,train,13,19,-2.491642806606576,0,260,1,-0.11,0.019,0.398,2.9728768,-0.17440858,2.472757,-3.1215131,-3.141566,-3.1420133,0.0,0.0,0.0,0.6075401306152344,0.6075401306152344,link6
1764102017.736992,ddpg_train,FAR,train,14,0,-5.114069295575183,0,261,1,0.081,0.169,0.816,0.46813542,-0.13226722,0.8710499,-1.3792266,-1.9162546,-1.0846322,0.0,0.0,0.0,0.4010699689388275,0.4010699689388275,link6
1764102019.1267047,ddpg_train,FAR,train,14,1,-3.669909234322355,0,262,1,0.068,0.137,0.59,1.1632807,-0.21725348,1.6681237,-2.4082625,-3.1168542,-1.9188197,0.0,0.0,0.0,0.5960299372673035,0.5960299372673035,link6
1764102020.5147383,ddpg_train,FAR,train,14,2,-2.6102097652254863,0,263,1,-0.101,0.009,0.421,3.0574574,-0.25572142,2.388859,-3.1388738,-3.1415725,-3.0968037,0.0,0.0,0.0,0.6034438014030457,0.6034438014030457,link6
1764102021.8959208,ddpg_train,FAR,train,14,3,-2.774735962681081,0,264,1,-0.146,0.005,0.438,3.1120684,-0.15008985,2.2358491,-3.1295574,-3.141562,-3.1419158,0.0,0.0,0.0,0.7031440138816833,0.7031440138816833,link6
1764102023.2805018,ddpg_train,FAR,train,14,4,-2.987380710526584,0,265,1,-0.207,0.001,0.452,3.137581,-0.01991928,2.0741785,-3.1267552,-3.1415615,-3.1419787,0.0,0.0,0.0,0.7011874914169312,0.7011874914169312,link6
1764102024.6749015,ddpg_train,FAR,train,14,5,-2.768351228950561,0,266,1,-0.21,0.007,0.41,3.1082528,0.05394754,2.20372,-3.1371684,-3.1415856,-3.1417177,0.0,0.0,0.0,0.710088849067688,0.710088849067688,link6
1764102026.0624566,ddpg_train,FAR,train,14,6,-2.6181917915283934,0,267,1,-0.222,0.004,0.375,3.124044,0.15679172,2.2776453,-3.1305432,-3.1415467,-3.142066,0.0,0.0,0.0,0.7302677631378174,0.7302677631378174,link6
1764102027.4464393,ddpg_train,FAR,train,14,7,-2.445035947663543,0,268,1,-0.222,0.0,0.341,3.1413763,0.24917303,2.3698595,-3.1416192,-3.141644,-3.1416028,0.0,0.0,0.0,0.7221044898033142,0.7221044898033142,link6
1764102028.9119155,ddpg_train,FAR,train,14,8,-2.4759638959369297,0,269,1,-0.247,-0.0,0.33,3.142072,0.32308054,2.3137565,-3.1398852,-3.1416328,-3.1418285,0.0,0.0,0.0,0.7500973343849182,0.7500973343849182,link6
1764102030.325564,ddpg_train,FAR,train,14,9,-2.37650778604466,0,270,1,-0.248,-0.001,0.308,3.1434755,0.39360723,2.3623676,-3.1365159,-3.1342626,-3.142247,0.0,0.0,0.0,0.7157097458839417,0.7157097458839417,link6
1764102031.7180195,ddpg_train,FAR,train,14,10,-2.3440153191548396,0,271,1,-0.24,0.04,0.305,2.9730804,0.39432615,2.3839035,-3.141649,-3.1409454,-2.9326499,0.0,0.0,0.0,0.7400748133659363,0.7400748133659363,link6
1764102033.097219,ddpg_train,FAR,train,14,11,-2.2918632215120787,0,272,1,-0.253,0.018,0.285,3.0710306,0.47744617,2.3901181,-3.0934627,-3.141688,-3.0668344,0.0,0.0,0.0,0.7509464621543884,0.7509464621543884,link6
1764102034.4907663,ddpg_train,FAR,train,14,12,-2.232875235848413,0,273,1,-0.253,0.003,0.272,3.1296098,0.52149284,2.420707,-3.0731416,-3.141596,-3.1419485,0.0,0.0,0.0,0.7141451835632324,0.7141451835632324,link6
1764102035.8781092,ddpg_train,FAR,train,14,13,-2.1893488381279,0,274,1,-0.215,-0.0,0.294,3.1416159,0.40557313,2.5143592,-2.8271887,-3.1417239,-3.1416423,0.0,0.0,0.0,0.7133559584617615,0.7133559584617615,link6
1764102037.2891967,ddpg_train,FAR,train,14,14,-2.151512440970515,0,275,1,-0.223,-0.0,0.28,3.1431005,0.47065213,2.5165498,-2.8696742,-3.141418,-3.1418042,0.0,0.0,0.0,0.7180678248405457,0.7180678248405457,link6
1764102038.684755,ddpg_train,FAR,train,14,15,-2.13515943261583,0,276,1,-0.226,-0.0,0.274,3.1438167,0.5003418,2.5165606,-2.9102151,-3.1413283,-3.1281505,0.0,0.0,0.0,0.7109513282775879,0.7109513282775879,link6
1764102040.0794818,ddpg_train,FAR,train,14,16,-2.2161338351436286,0,277,1,-0.207,-0.0,0.305,3.1418762,0.34443796,2.5150812,-2.721784,-3.1417542,-3.130842,0.0,0.0,0.0,0.702016294002533,0.702016294002533,link6
1764102041.4752626,ddpg_train,FAR,train,14,17,-2.204851626062775,0,278,1,-0.208,-0.0,0.302,3.1431482,0.36611113,2.521204,-2.5784693,-3.1416972,-3.1417272,0.0,0.0,0.0,0.697841227054596,0.697841227054596,link6
1764102042.8553915,ddpg_train,FAR,train,14,18,-2.2208885174675124,0,279,1,-0.207,0.0,0.306,3.1412573,0.34924603,2.51327,-2.34789,-3.1418757,-2.9257736,0.0,0.0,0.0,0.7068878412246704,0.7068878412246704,link6
1764102044.2435026,ddpg_train,FAR,train,14,19,-2.229389108772936,0,280,1,-0.203,0.013,0.31,3.079404,0.33041465,2.5144815,-2.442176,-3.141707,-3.0561955,0.0,0.0,0.0,0.6968023777008057,0.6968023777008057,link6
1764102047.9118042,ddpg_train,FAR,train,15,0,-6.253793483828316,0,281,1,0.083,0.048,1.036,0.3515082,-0.018035257,0.33233866,-0.32257873,-0.4307222,-0.1833466,0.0,0.0,0.0,0.6098641157150269,0.6098641157150269,link6
1764102049.2997835,ddpg_train,FAR,train,15,1,-2.833221191956268,0,282,1,-0.078,0.124,0.446,2.1141076,-0.1708856,2.2086957,-2.642029,-3.142105,-1.2309995,0.0,0.0,0.0,0.5709728598594666,0.5709728598594666,link6
1764102050.700296,ddpg_train,FAR,train,15,2,-2.652761025361692,0,283,1,-0.12,0.102,0.412,2.4552464,-0.077728935,2.3245919,-2.697478,-3.142415,-2.0185437,0.0,0.0,0.0,0.6675805449485779,0.6675805449485779,link6
1764102052.0851502,ddpg_train,FAR,train,15,3,-2.7201054503161073,0,284,1,-0.21,0.001,0.401,3.1350248,0.07162911,2.2332578,-2.5447643,-3.1417387,-2.9861026,0.0,0.0,0.0,0.7096660733222961,0.7096660733222961,link6
1764102053.4767919,ddpg_train,FAR,train,15,4,-2.8202978222085138,0,285,1,-0.241,-0.004,0.403,3.140568,0.13449548,2.0807173,-2.827105,-3.0398884,-3.0612774,0.0,0.0,0.0,0.7482643723487854,0.7482643723487854,link6
1764102054.873174,ddpg_train,FAR,train,15,5,-2.8362738700878136,0,286,1,-0.255,0.018,0.397,3.052438,0.17534113,2.0677195,-2.9254587,-3.0547693,-3.0775602,0.0,0.0,0.0,0.7364044189453125,0.7364044189453125,link6
1764102056.2623954,ddpg_train,FAR,train,15,6,-2.6290933178380045,0,287,1,-0.202,0.001,0.388,3.1396463,0.08190078,2.2929409,-2.9569585,-3.1415036,-3.1269753,0.0,0.0,0.0,0.7016249895095825,0.7016249895095825,link6
1764102057.655054,ddpg_train,FAR,train,15,7,-2.402337299144745,0,288,1,-0.183,-0.0,0.355,3.1420305,0.12916327,2.453425,-2.7956731,-3.1418521,-2.9894397,0.0,0.0,0.0,0.6727924942970276,0.6727924942970276,link6
1764102059.0374994,ddpg_train,FAR,train,15,8,-2.314249192866313,0,289,1,-0.174,0.005,0.343,3.1054044,0.1579101,2.5166154,-2.7491648,-3.141506,-2.870933,0.0,0.0,0.0,0.6661982536315918,0.6661982536315918,link6
1764102060.4221723,ddpg_train,FAR,train,15,9,-2.286931061307131,0,290,1,-0.176,0.0,0.337,3.1399188,0.1809676,2.5138912,-2.956262,-3.1194217,-2.9015708,0.0,0.0,0.0,0.6761646270751953,0.6761646270751953,link6
1764102061.813947,ddpg_train,FAR,train,15,10,-2.2741245053891617,0,291,1,-0.179,-0.0,0.333,3.142084,0.20193237,2.525683,-2.8589666,-3.1351533,-2.7304387,0.0,0.0,0.0,0.6766350269317627,0.6766350269317627,link6
1764102063.2015383,ddpg_train,FAR,train,15,11,-2.1936128762588627,0,292,1,-0.168,-0.006,0.323,3.1425526,0.22065742,2.5344765,-2.7996538,-3.0130994,-2.6754472,0.0,0.0,0.0,0.6337168216705322,0.6337168216705322,link6
1764102064.5945554,ddpg_train,FAR,train,15,12,-1.9380477911496259,0,293,1,-0.134,-0.013,0.292,3.1414633,0.21215545,2.5151463,-2.9314442,-2.608066,-3.0473607,0.0,0.0,0.0,0.6342646479606628,0.6342646479606628,link6
1764102065.9790761,ddpg_train,FAR,train,15,13,-1.9790272852024406,0,294,1,-0.148,-0.016,0.293,3.142365,0.26945615,2.5268488,-2.8258772,-2.7082577,-3.1077132,0.0,0.0,0.0,0.6550931334495544,0.6550931334495544,link6
1764102067.3724952,ddpg_train,FAR,train,15,14,-2.007613201672112,0,295,1,-0.158,-0.017,0.293,3.1427069,0.30101284,2.5272708,-2.7752373,-2.764372,-3.138748,0.0,0.0,0.0,0.6476595997810364,0.6476595997810364,link6
1764102068.7549393,ddpg_train,FAR,train,15,15,-2.1438975921383343,0,296,1,-0.181,-0.006,0.307,3.1416178,0.30259296,2.5167413,-2.8413775,-2.9879365,-3.1416283,0.0,0.0,0.0,0.6851974725723267,0.6851974725723267,link6
1764102070.1619,ddpg_train,FAR,train,15,16,-2.171365875689855,0,297,1,-0.198,-0.002,0.302,3.1426444,0.35482222,2.523834,-2.9796526,-3.0769663,-3.141769,0.0,0.0,0.0,0.6989014148712158,0.6989014148712158,link6
1764102071.5576384,ddpg_train,FAR,train,15,17,-2.206289273643198,0,298,1,-0.204,0.001,0.305,3.1354144,0.35203016,2.525549,-3.1421158,-3.1417968,-3.141818,0.0,0.0,0.0,0.6975284218788147,0.6975284218788147,link6
1764102072.9572797,ddpg_train,FAR,train,15,18,-2.28118204644834,0,299,1,-0.208,0.039,0.315,2.9556918,0.3206315,2.4721968,-3.1418428,-3.1417139,-3.1417038,0.0,0.0,0.0,0.706720232963562,0.706720232963562,link6
1764102074.3483572,ddpg_train,FAR,train,15,19,-2.29038458755271,0,300,1,-0.222,0.034,0.308,2.9982889,0.36350408,2.4398582,-3.1402783,-3.1417215,-3.1419399,0.0,0.0,0.0,0.7335809469223022,0.7335809469223022,link6
1764102078.0173676,ddpg_train,FAR,train,16,0,-2.7813207503824833,0,301,1,-0.173,0.09,0.419,2.5600338,-0.075150765,2.06828,-2.6665177,-2.6860223,-2.244039,0.0,0.0,0.0,0.6392197608947754,0.6392197608947754,link6
1764102079.4026656,ddpg_train,FAR,train,16,1,-2.5460239849205824,0,302,1,-0.172,0.014,0.387,3.0581563,0.016673572,2.3754969,-3.1185234,-3.1416047,-2.8493972,0.0,0.0,0.0,0.722778856754303,0.722778856754303,link6
1764102080.7905047,ddpg_train,FAR,train,16,2,-3.006347695897127,0,303,1,-0.31,0.016,0.393,3.0895615,0.3014607,1.950603,-3.1061177,-3.1415985,-3.141605,0.0,0.0,0.0,0.8097445368766785,0.8097445368766785,link6
1764102082.1799698,ddpg_train,FAR,train,16,3,-2.5785554664805272,0,304,1,-0.233,0.089,0.349,2.7538002,0.26350188,2.2765877,-3.000794,-3.1416337,-3.1418424,0.0,0.0,0.0,0.6955839991569519,0.6955839991569519,link6
1764102083.5790794,ddpg_train,FAR,train,16,4,-2.5742577940500477,0,305,1,-0.196,0.142,0.353,2.4971733,0.24949266,2.2635705,-3.0332167,-3.141653,-3.1420398,0.0,0.0,0.0,0.6688981652259827,0.6688981652259827,link6
1764102084.9628265,ddpg_train,FAR,train,16,5,-3.032516644764856,0,306,1,-0.182,0.182,0.434,2.3570795,0.12239468,1.9965001,-3.1410797,-3.1415863,-3.1416092,0.0,0.0,0.0,0.6904028654098511,0.6904028654098511,link6
1764102086.349853,ddpg_train,FAR,train,16,6,-2.7985629810337476,0,307,1,-0.156,0.149,0.412,2.3790238,0.058165174,2.1842978,-3.1337984,-3.141583,-3.0036788,0.0,0.0,0.0,0.6412850022315979,0.6412850022315979,link6
1764102087.7429047,ddpg_train,FAR,train,16,7,-2.605429036451407,0,308,1,-0.144,0.114,0.392,2.4715252,0.029814865,2.330983,-3.128199,-3.1415792,-2.8431704,0.0,0.0,0.0,0.6428611278533936,0.6428611278533936,link6
1764102089.130764,ddpg_train,FAR,train,16,8,-2.5226008777289937,0,309,1,-0.151,0.074,0.384,2.6873677,0.01340861,2.391329,-3.140723,-3.141588,-2.7171764,0.0,0.0,0.0,0.6519819498062134,0.6519819498062134,link6
1764102090.5394754,ddpg_train,FAR,train,16,9,-2.4850553160931246,0,310,1,-0.165,0.066,0.373,2.7614093,0.06450595,2.4055007,-3.135305,-3.141572,-2.9129584,0.0,0.0,0.0,0.672022819519043,0.672022819519043,link6
1764102091.935311,ddpg_train,FAR,train,16,10,-2.440601171946879,0,311,1,-0.167,0.057,0.365,2.8114686,0.086976305,2.4329321,-3.132815,-3.1415854,-2.9686277,0.0,0.0,0.0,0.6425482630729675,0.6425482630729675,link6
1764102093.3233047,ddpg_train,FAR,train,16,11,-2.496152631379646,0,312,1,-0.155,0.072,0.378,2.7076862,0.033767655,2.407074,-3.140176,-3.1415856,-2.6712945,0.0,0.0,0.0,0.6556108593940735,0.6556108593940735,link6
1764102094.713471,ddpg_train,FAR,train,16,12,-2.4154788683626975,0,313,1,-0.156,0.053,0.366,2.813375,0.057745907,2.4644125,-3.1344206,-3.1416066,-2.557358,0.0,0.0,0.0,0.6538190245628357,0.6538190245628357,link6
1764102096.096237,ddpg_train,FAR,train,16,13,-2.3782069422503653,0,314,1,-0.154,0.038,0.362,2.895478,0.060288616,2.4957263,-3.1341085,-3.1415963,-2.4733787,0.0,0.0,0.0,0.6593260169029236,0.6593260169029236,link6
1764102097.4919004,ddpg_train,FAR,train,16,14,-2.352274702425769,0,315,1,-0.184,0.039,0.343,2.9334128,0.18240125,2.468429,-3.066321,-3.1417158,-2.4497256,0.0,0.0,0.0,0.6875784993171692,0.6875784993171692,link6
1764102098.8905756,ddpg_train,FAR,train,16,15,-2.2867470684765916,0,316,1,-0.191,0.043,0.326,2.9085202,0.255334,2.4535887,-2.975857,-3.0549722,-2.5415761,0.0,0.0,0.0,0.688377857208252,0.688377857208252,link6
1764102100.280632,ddpg_train,FAR,train,16,16,-2.259356461464075,0,317,1,-0.194,0.05,0.318,2.858175,0.28251398,2.4099123,-2.8902938,-2.9544072,-2.6501021,0.0,0.0,0.0,0.7062730193138123,0.7062730193138123,link6
1764102101.6697838,ddpg_train,FAR,train,16,17,-2.238822926357902,0,318,1,-0.207,0.04,0.307,2.8786776,0.2963462,2.3054056,-2.8109186,-2.743419,-2.7072039,0.0,0.0,0.0,0.7060416340827942,0.7060416340827942,link6
1764102103.0553296,ddpg_train,FAR,train,16,18,-2.274788623992209,0,319,1,-0.234,0.041,0.295,2.8964298,0.3648015,2.2232285,-2.818449,-2.7068567,-2.7360644,0.0,0.0,0.0,0.7726033926010132,0.7726033926010132,link6
1764102104.466077,ddpg_train,FAR,train,16,19,-2.556455474621115,0,320,1,-0.254,0.105,0.325,2.6872206,0.34358883,2.0635188,-2.7699175,-2.7608466,-2.1882935,0.0,0.0,0.0,0.7546601295471191,0.7546601295471191,link6
1764102108.117293,ddpg_train,FAR,train,17,0,-5.681241847420989,0,321,1,0.12,0.191,0.911,0.54590285,-0.0934604,0.81004477,-1.3036213,-1.1970261,-0.25953937,0.0,0.0,0.0,0.4601602256298065,0.4601602256298065,link6
1764102109.5082514,ddpg_train,FAR,train,17,1,-3.187606233908948,0,322,1,0.033,0.203,0.488,1.2533076,-0.17181371,1.7511011,-2.6804726,-2.444759,-0.6602252,0.0,0.0,0.0,0.6194830536842346,0.6194830536842346,link6
1764102110.9054646,ddpg_train,FAR,train,17,2,-2.445983933535762,0,323,1,-0.15,0.046,0.375,2.8702772,0.010866629,2.3979118,-3.137605,-3.0362937,-2.5917459,0.0,0.0,0.0,0.6572260856628418,0.6572260856628418,link6
1764102112.303187,ddpg_train,FAR,train,17,3,-2.3182470922991247,0,324,1,-0.18,0.027,0.34,2.9932914,0.17951941,2.4424345,-3.134226,-3.0340264,-2.7663472,0.0,0.0,0.0,0.7053208351135254,0.7053208351135254,link6
1764102113.6870477,ddpg_train,FAR,train,17,4,-2.2069306089870113,0,325,1,-0.206,0.015,0.303,3.0724294,0.34986186,2.419386,-3.1389809,-2.929763,-2.8237607,0.0,0.0,0.0,0.6611877679824829,0.6611877679824829,link6
1764102115.0707257,ddpg_train,FAR,train,17,5,-2.1548661819315056,0,326,1,-0.22,-0.01,0.283,3.1023417,0.3280728,2.2281206,-2.8571718,-2.5516682,-2.9498909,0.0,0.0,0.0,0.7320947051048279,0.7320947051048279,link6
1764102116.4599738,ddpg_train,FAR,train,17,6,-2.3177584573820975,0,327,1,-0.239,0.022,0.302,2.979391,0.35341758,2.2302155,-2.8275294,-2.794304,-2.947615,0.0,0.0,0.0,0.73502117395401,0.73502117395401,link6
1764102117.850475,ddpg_train,FAR,train,17,7,-2.5172720583391617,0,328,1,-0.24,0.066,0.337,2.8616083,0.3046521,2.2452936,-2.864814,-3.0458503,-2.9370313,0.0,0.0,0.0,0.7255944013595581,0.7255944013595581,link6
1764102119.2363374,ddpg_train,FAR,train,17,8,-2.3372707719842487,0,329,1,-0.183,0.022,0.342,3.0111852,0.16900444,2.4440243,-2.9354165,-3.0435436,-3.1417246,0.0,0.0,0.0,0.6687160134315491,0.6687160134315491,link6
1764102120.63672,ddpg_train,FAR,train,17,9,-2.216610648668805,0,330,1,-0.163,0.009,0.33,3.0711875,0.17988601,2.5173187,-3.0052896,-3.0059628,-3.053945,0.0,0.0,0.0,0.6491190195083618,0.6491190195083618,link6
1764102122.0172188,ddpg_train,FAR,train,17,10,-2.0693751292459934,0,331,1,-0.129,-0.011,0.318,3.1413944,0.11253907,2.5133665,-2.913475,-2.728529,-2.7921782,0.0,0.0,0.0,0.628682553768158,0.628682553768158,link6
1764102123.4031568,ddpg_train,FAR,train,17,11,-2.2322457401418503,0,332,1,-0.166,0.035,0.33,2.9024494,0.16283849,2.4053001,-3.0343056,-2.851322,-2.6677244,0.0,0.0,0.0,0.6738466024398804,0.6738466024398804,link6
1764102124.7949345,ddpg_train,FAR,train,17,12,-2.2156517162634066,0,333,1,-0.16,0.051,0.327,2.815312,0.17403188,2.4530444,-3.0877872,-2.8801053,-2.7926204,0.0,0.0,0.0,0.6209644675254822,0.6209644675254822,link6
1764102126.184517,ddpg_train,FAR,train,17,13,-2.279521738235879,0,334,1,-0.138,0.018,0.352,3.0093265,0.043124884,2.5135474,-3.141533,-3.018236,-2.9446664,0.0,0.0,0.0,0.6383682489395142,0.6383682489395142,link6
1764102127.5887215,ddpg_train,FAR,train,17,14,-2.22713853886933,0,335,1,-0.119,0.022,0.349,2.9601471,0.0038739403,2.5300217,-3.1384785,-2.940864,-3.0908628,0.0,0.0,0.0,0.6135549545288086,0.6135549545288086,link6
1764102128.995125,ddpg_train,FAR,train,17,15,-2.2083269817695252,0,336,1,-0.11,0.03,0.348,2.8657832,-0.011791296,2.5511498,-3.1337059,-2.9452145,-3.142022,0.0,0.0,0.0,0.6108969449996948,0.6108969449996948,link6
1764102130.379401,ddpg_train,FAR,train,17,16,-2.339849908984514,0,337,1,-0.103,0.067,0.368,2.5617528,-0.06995582,2.4442344,-3.1411955,-2.9291203,-3.141608,0.0,0.0,0.0,0.6030619740486145,0.6030619740486145,link6
1764102131.7669828,ddpg_train,FAR,train,17,17,-2.2533058877727443,0,338,1,-0.091,0.06,0.357,2.511594,-0.09584271,2.4553869,-3.0198817,-2.8109987,-3.1418216,0.0,0.0,0.0,0.5900538563728333,0.5900538563728333,link6
1764102133.149093,ddpg_train,FAR,train,17,18,-2.1433186162584708,0,339,1,-0.083,0.044,0.342,2.5756643,-0.10731782,2.49505,-2.9904091,-2.7016857,-3.1416304,0.0,0.0,0.0,0.5788431167602539,0.5788431167602539,link6
1764102134.5696533,ddpg_train,FAR,train,17,19,-2.1329140611014488,0,340,1,-0.096,0.008,0.34,3.0322068,-0.072893746,2.5172384,-3.0708916,-2.763581,-3.1416013,0.0,0.0,0.0,0.5982528924942017,0.5982528924942017,link6
1764102138.2258165,ddpg_train,FAR,train,18,0,-5.9033488268528655,0,341,1,0.119,0.134,0.959,0.38722813,-0.090205766,0.70811236,-0.9492325,-0.9990181,-0.58363485,0.0,0.0,0.0,0.46103695034980774,0.46103695034980774,link6
1764102139.62262,ddpg_train,FAR,train,18,1,-2.588453052122556,0,342,1,-0.043,0.069,0.42,2.1290786,-0.31672812,2.412132,-3.13768,-3.1235402,-2.3060045,0.0,0.0,0.0,0.5441127419471741,0.5441127419471741,link6
1764102141.010353,ddpg_train,FAR,train,18,2,-2.466170911284338,0,343,1,-0.068,0.057,0.399,2.471139,-0.24042368,2.4704535,-3.132174,-3.0878565,-2.870709,0.0,0.0,0.0,0.5900548100471497,0.5900548100471497,link6
1764102142.399008,ddpg_train,FAR,train,18,3,-2.3921474206143216,0,344,1,-0.075,0.05,0.385,2.5364578,-0.20498945,2.5142882,-3.1286788,-3.0581386,-3.1419873,0.0,0.0,0.0,0.5537572503089905,0.5537572503089905,link6
1764102143.78598,ddpg_train,FAR,train,18,4,-2.416944679319259,0,345,1,-0.056,0.067,0.39,2.262487,-0.2267376,2.5179977,-2.961026,-3.104504,-3.0463889,0.0,0.0,0.0,0.5572329759597778,0.5572329759597778,link6
1764102145.1749938,ddpg_train,FAR,train,18,5,-2.4040328538772666,0,346,1,-0.045,0.076,0.387,2.099436,-0.21438716,2.5449464,-2.9007638,-3.1297677,-3.1058025,0.0,0.0,0.0,0.5411370396614075,0.5411370396614075,link6
1764102146.5538194,ddpg_train,FAR,train,18,6,-2.3878397140207976,0,347,1,-0.04,0.077,0.385,2.0508022,-0.21382688,2.5591552,-2.8694353,-3.141986,-3.0827458,0.0,0.0,0.0,0.5526531934738159,0.5526531934738159,link6
1764102147.9536543,ddpg_train,FAR,train,18,7,-2.444906665015063,0,348,1,-0.052,0.068,0.395,2.221482,-0.24568774,2.5191615,-3.1188436,-3.1416483,-3.051401,0.0,0.0,0.0,0.552699863910675,0.552699863910675,link6
1764102149.3409858,ddpg_train,FAR,train,18,8,-2.4030839794595877,0,349,1,-0.044,0.071,0.388,2.127611,-0.23155865,2.5519762,-3.1290514,-3.1415856,-3.1066866,0.0,0.0,0.0,0.5437622666358948,0.5437622666358948,link6
1764102150.7271297,ddpg_train,FAR,train,18,9,-2.3884784532575134,0,350,1,-0.038,0.075,0.385,2.041862,-0.2202935,2.5593708,-3.1300793,-3.1290944,-3.1007247,0.0,0.0,0.0,0.5337604284286499,0.5337604284286499,link6
1764102152.1167326,ddpg_train,FAR,train,18,10,-2.1264573853659656,0,351,1,-0.045,0.053,0.344,2.2780592,-0.19306965,2.5247867,-3.1385849,-2.7091877,-3.1110334,0.0,0.0,0.0,0.5485979914665222,0.5485979914665222,link6
1764102153.506487,ddpg_train,FAR,train,18,11,-2.1089487974457177,0,352,1,-0.054,0.05,0.341,2.3919332,-0.14947991,2.5536425,-3.131793,-2.7482333,-3.1415956,0.0,0.0,0.0,0.5754467248916626,0.5754467248916626,link6
1764102154.8933513,ddpg_train,FAR,train,18,12,-2.1820887586659605,0,353,1,-0.073,0.055,0.35,2.4932137,-0.09846019,2.548114,-3.1335585,-2.8641279,-3.1418073,0.0,0.0,0.0,0.6060693264007568,0.6060693264007568,link6
1764102156.2747724,ddpg_train,FAR,train,18,13,-2.271498130221318,0,354,1,-0.093,0.035,0.363,2.7807004,-0.113357656,2.5282137,-3.1233566,-2.9452236,-3.141752,0.0,0.0,0.0,0.5924268364906311,0.5924268364906311,link6
1764102157.6790311,ddpg_train,FAR,train,18,14,-2.186648517799871,0,355,1,-0.091,0.036,0.349,2.7411091,-0.06587477,2.5524957,-3.0936112,-2.890077,-3.121404,0.0,0.0,0.0,0.6042141318321228,0.6042141318321228,link6
1764102159.0616453,ddpg_train,FAR,train,18,15,-2.109994959754186,0,356,1,-0.086,0.071,0.331,2.445764,0.009018537,2.5133853,-3.141527,-2.7499723,-2.9330704,0.0,0.0,0.0,0.5856777429580688,0.5856777429580688,link6
1764102160.4503918,ddpg_train,FAR,train,18,16,-2.2833409250347,0,357,1,-0.13,0.055,0.352,2.7361243,0.052925933,2.5292234,-3.0295577,-3.050631,-2.9045305,0.0,0.0,0.0,0.6456261277198792,0.6456261277198792,link6
1764102161.8434682,ddpg_train,FAR,train,18,17,-2.2438790884056523,0,358,1,-0.142,0.041,0.342,2.8474436,0.106718,2.5440547,-2.9474037,-3.0423596,-2.970105,0.0,0.0,0.0,0.6382518410682678,0.6382518410682678,link6
1764102163.2279887,ddpg_train,FAR,train,18,18,-2.191116252681846,0,359,1,-0.149,-0.004,0.332,3.1218548,0.1347894,2.5135667,-2.869246,-2.9298189,-2.9309638,0.0,0.0,0.0,0.6493053436279297,0.6493053436279297,link6
1764102164.6161907,ddpg_train,FAR,train,18,19,-2.020317697359807,0,360,1,-0.143,-0.014,0.303,3.136876,0.21800247,2.522572,-2.8252237,-2.7151105,-2.975268,0.0,0.0,0.0,0.640480101108551,0.640480101108551,link6
1764102168.2735205,ddpg_train,FAR,train,19,0,-6.3318615241495,0,361,1,0.03,0.009,1.052,0.21107654,-0.03130563,0.21243459,-0.25459772,-0.266816,-0.23225504,0.0,0.0,0.0,0.5680186152458191,0.5680186152458191,link6
1764102169.6773071,ddpg_train,FAR,train,19,1,-3.3249475445378365,0,362,1,-0.021,0.117,0.536,1.5829443,-0.3361816,1.7808925,-2.6637473,-2.8104699,-2.3076968,0.0,0.0,0.0,0.50893235206604,0.50893235206604,link6
1764102171.0782359,ddpg_train,FAR,train,19,2,-2.7330722973412502,0,363,1,-0.094,0.105,0.431,2.2065258,-0.20349891,2.110757,-2.8626816,-2.7582488,-2.5935228,0.0,0.0,0.0,0.6004462838172913,0.6004462838172913,link6
1764102172.534744,ddpg_train,FAR,train,19,3,-2.5830834104950116,0,364,1,-0.209,0.044,0.373,2.9351618,0.14317536,2.2816975,-3.1415021,-3.0955966,-3.1126914,0.0,0.0,0.0,0.7092146277427673,0.7092146277427673,link6
1764102173.94551,ddpg_train,FAR,train,19,4,-2.5250540683634455,0,365,1,-0.235,0.056,0.344,2.907702,0.27340364,2.2475364,-3.1365435,-3.047281,-3.133346,0.0,0.0,0.0,0.7440986037254333,0.7440986037254333,link6
1764102175.3326142,ddpg_train,FAR,train,19,5,-2.43557047321421,0,366,1,-0.252,0.054,0.313,2.936449,0.3918656,2.2644067,-3.133844,-3.025885,-3.1421149,0.0,0.0,0.0,0.7460907101631165,0.7460907101631165,link6
1764102176.727621,ddpg_train,FAR,train,19,6,-2.513801052375855,0,367,1,-0.287,0.022,0.304,3.0653877,0.42721435,2.0729642,-3.1413217,-2.8298748,-3.1416411,0.0,0.0,0.0,0.7879233956336975,0.7879233956336975,link6
1764102178.1343842,ddpg_train,FAR,train,19,7,-2.666842247444865,0,368,1,-0.318,0.051,0.306,2.972035,0.4854197,2.015634,-3.1359394,-3.0130975,-3.1419585,0.0,0.0,0.0,0.8237736821174622,0.8237736821174622,link6
1764102179.5222397,ddpg_train,FAR,train,19,8,-2.894768005072424,0,369,1,-0.34,0.078,0.333,2.9174855,0.48535776,1.9476626,-3.1311445,-3.141555,-3.1421947,0.0,0.0,0.0,0.8319467902183533,0.8319467902183533,link6
1764102180.9010963,ddpg_train,FAR,train,19,9,-3.2027567948071853,0,370,1,-0.313,0.007,0.432,3.1200616,0.24751748,1.8358418,-3.1372902,-3.141554,-3.141742,0.0,0.0,0.0,0.8019004464149475,0.8019004464149475,link6
1764102182.30361,ddpg_train,FAR,train,19,10,-3.05751329868595,0,371,1,-0.308,0.021,0.405,3.0678189,0.27403536,1.9234195,-3.127817,-3.1415186,-3.142095,0.0,0.0,0.0,0.7801273465156555,0.7801273465156555,link6
1764102183.6867452,ddpg_train,FAR,train,19,11,-3.0487056538831534,0,372,1,-0.292,0.045,0.413,2.99103,0.2410076,1.9455068,-3.129196,-3.1415255,-3.1420546,0.0,0.0,0.0,0.7863602042198181,0.7863602042198181,link6
1764102185.0936005,ddpg_train,FAR,train,19,12,-3.0154651061986093,0,373,1,-0.251,0.049,0.432,2.9392114,0.113516994,2.0161724,-3.135266,-3.141566,-3.1417696,0.0,0.0,0.0,0.7313129901885986,0.7313129901885986,link6
1764102186.4844549,ddpg_train,FAR,train,19,13,-2.8442733892932055,0,374,1,-0.226,0.069,0.41,2.834594,0.110713094,2.1341684,-3.1275363,-3.1415477,-3.1421053,0.0,0.0,0.0,0.6916905641555786,0.6916905641555786,link6
1764102187.8670733,ddpg_train,FAR,train,19,14,-2.578448916752399,0,375,1,-0.154,0.074,0.393,2.6911952,-0.013633163,2.264463,-3.141299,-2.9583483,-3.1416025,0.0,0.0,0.0,0.6536517143249512,0.6536517143249512,link6
1764102189.2555175,ddpg_train,FAR,train,19,15,-2.4389499572382007,0,376,1,-0.14,0.078,0.372,2.6318085,0.0017644597,2.3109095,-3.1352751,-2.8642812,-3.0307014,0.0,0.0,0.0,0.6361779570579529,0.6361779570579529,link6
1764102190.6427965,ddpg_train,FAR,train,19,16,-2.400461835328995,0,377,1,-0.136,0.093,0.363,2.5351393,0.029530212,2.3061383,-3.1295724,-2.8172164,-2.9753451,0.0,0.0,0.0,0.636302649974823,0.636302649974823,link6
1764102192.1090288,ddpg_train,FAR,train,19,17,-2.856493331610095,0,378,1,-0.183,0.091,0.429,2.6880524,0.0012316165,2.1098216,-3.1403828,-3.0597703,-2.8204567,0.0,0.0,0.0,0.6845938563346863,0.6845938563346863,link6
1764102193.5014472,ddpg_train,FAR,train,19,18,-2.6162081467570126,0,379,1,-0.175,0.057,0.394,2.8262556,0.020806316,2.2578804,-3.1293461,-3.0103297,-2.8521245,0.0,0.0,0.0,0.657108724117279,0.657108724117279,link6
1764102194.9109087,ddpg_train,FAR,train,19,19,-2.4455241169643442,0,380,1,-0.155,0.034,0.374,2.9169862,0.011030053,2.3661885,-3.1310377,-2.9652927,-2.8720787,0.0,0.0,0.0,0.645138680934906,0.645138680934906,link6
1764102198.5738068,ddpg_train,FAR,train,20,0,-5.495247045248402,0,381,1,-0.012,0.121,0.903,0.2399917,-0.23786868,0.472556,-1.8814386,-1.671595,-1.088667,0.0,0.0,0.0,0.5172632932662964,0.5172632932662964,link6
1764102199.96037,ddpg_train,FAR,train,20,1,-4.286548502943344,0,382,1,0.001,0.004,0.71,0.774734,-0.45404208,1.1078231,-3.0998228,-2.7218277,-1.9518046,0.0,0.0,0.0,0.5240929126739502,0.5240929126739502,link6
1764102201.3507576,ddpg_train,FAR,train,20,2,-2.3352365594098923,0,383,1,-0.008,0.005,0.384,2.6144507,-0.51964617,2.5135646,-3.1385572,-2.9180522,-2.9347525,0.0,0.0,0.0,0.5098111629486084,0.5098111629486084,link6
1764102202.747396,ddpg_train,FAR,train,20,3,-2.1824756638054468,0,384,1,-0.047,0.039,0.356,2.4397917,-0.23695938,2.5557892,-3.1283038,-2.8282275,-2.8167028,0.0,0.0,0.0,0.5791236758232117,0.5791236758232117,link6
1764102204.1392224,ddpg_train,FAR,train,20,4,-2.06099741172312,0,385,1,-0.08,0.092,0.319,2.2871554,0.09739376,2.5303776,-3.1248393,-2.743188,-2.693937,0.0,0.0,0.0,0.6034517884254456,0.6034517884254456,link6
1764102205.526706,ddpg_train,FAR,train,20,5,-2.1987201151147304,0,386,1,-0.132,0.06,0.335,2.712044,0.11705058,2.521482,-3.0462646,-2.953269,-2.66004,0.0,0.0,0.0,0.6374440789222717,0.6374440789222717,link6
1764102206.9367824,ddpg_train,FAR,train,20,6,-2.135977021723842,0,387,1,-0.141,0.047,0.322,2.8107152,0.1803015,2.5383537,-3.0861466,-2.9066668,-2.7446232,0.0,0.0,0.0,0.6425427198410034,0.6425427198410034,link6
1764102208.3376687,ddpg_train,FAR,train,20,7,-2.2032269620976987,0,388,1,-0.172,0.046,0.32,2.8803334,0.24761601,2.5132723,-3.1417692,-3.02883,-2.8524392,0.0,0.0,0.0,0.6717638969421387,0.6717638969421387,link6
1764102209.7352412,ddpg_train,FAR,train,20,8,-2.116692618577114,0,389,1,-0.164,0.061,0.305,2.7829947,0.30130464,2.522009,-3.1413693,-2.9417439,-2.8096793,0.0,0.0,0.0,0.6581801772117615,0.6581801772117615,link6
1764102211.125607,ddpg_train,FAR,train,20,9,-2.0667532853054977,0,390,1,-0.155,0.084,0.294,2.622921,0.35238382,2.5296052,-3.1417449,-2.9035017,-2.881138,0.0,0.0,0.0,0.6223837733268738,0.6223837733268738,link6
1764102212.5242875,ddpg_train,FAR,train,20,10,-2.104629867804927,0,391,1,-0.131,0.09,0.311,2.5429275,0.23383366,2.5139503,-3.1417825,-2.8675826,-3.139729,0.0,0.0,0.0,0.631171703338623,0.631171703338623,link6
1764102213.927306,ddpg_train,FAR,train,20,11,-2.1104232049641407,0,392,1,-0.132,0.085,0.313,2.5679984,0.22438489,2.5254183,-3.1408722,-2.8855546,-3.1417015,0.0,0.0,0.0,0.6275205612182617,0.6275205612182617,link6
1764102215.3112764,ddpg_train,FAR,train,20,12,-2.1088494953422665,0,393,1,-0.131,0.078,0.315,2.60163,0.21543306,2.5376408,-3.1387734,-2.8907814,-3.133126,0.0,0.0,0.0,0.630818784236908,0.630818784236908,link6
1764102216.7009704,ddpg_train,FAR,train,20,13,-1.8843994017264722,0,394,1,-0.117,0.03,0.288,2.894666,0.16483279,2.5158072,-3.1413827,-2.5048268,-3.1400018,0.0,0.0,0.0,0.6157946586608887,0.6157946586608887,link6
1764102218.0831225,ddpg_train,FAR,train,20,14,-1.7460389208052436,0,395,1,-0.113,0.034,0.264,2.8464305,0.2382088,2.5305367,-3.1395345,-2.375371,-3.09217,0.0,0.0,0.0,0.6119191646575928,0.6119191646575928,link6
1764102219.480636,ddpg_train,FAR,train,20,15,-1.6874442411517596,0,396,1,-0.113,0.043,0.252,2.7797694,0.29530385,2.5319476,-3.140526,-2.3391364,-3.02221,0.0,0.0,0.0,0.6172942519187927,0.6172942519187927,link6
1764102220.865766,ddpg_train,FAR,train,20,16,-1.7134240921859853,0,397,1,-0.119,0.049,0.253,2.75102,0.30967128,2.516257,-3.1418045,-2.3597608,-3.1169016,0.0,0.0,0.0,0.6182894706726074,0.6182894706726074,link6
1764102222.2520716,ddpg_train,FAR,train,20,17,-1.8201226548618634,0,398,1,-0.14,0.06,0.261,2.7343998,0.34115794,2.4649022,-3.1419675,-2.4961383,-3.072032,0.0,0.0,0.0,0.6576902270317078,0.6576902270317078,link6
1764102223.6658986,ddpg_train,FAR,train,20,18,-1.9967999818006241,0,399,1,-0.157,0.074,0.282,2.696904,0.3255108,2.4317634,-3.1387131,-2.6448143,-2.9802444,0.0,0.0,0.0,0.6214352250099182,0.6214352250099182,link6
1764102225.0757113,ddpg_train,FAR,train,20,19,-1.8363480610505425,0,400,1,-0.102,0.055,0.281,2.6483796,0.16511671,2.5204194,-3.1411185,-2.452933,-2.9453654,0.0,0.0,0.0,0.5983126759529114,0.5983126759529114,link6
1764102228.7282972,ddpg_train,FAR,train,21,0,-6.335383307221181,0,401,1,0.02,0.021,1.048,0.18898399,-0.04013994,0.21180698,-0.44443074,-0.37107098,-0.31761354,0.0,0.0,0.0,0.471105694770813,0.471105694770813,link6
1764102230.1097436,ddpg_train,FAR,train,21,1,-4.035488858108252,0,402,1,0.074,0.086,0.651,0.8379095,-0.29214367,1.2668746,-3.137436,-2.8074179,-2.2679143,0.0,0.0,0.0,0.4259956479072571,0.4259956479072571,link6
1764102231.5013063,ddpg_train,FAR,train,21,2,-3.197953285373451,0,403,1,-0.016,0.106,0.518,1.7491577,-0.3551418,1.8959478,-3.1308627,-2.8818567,-2.673943,0.0,0.0,0.0,0.5335186123847961,0.5335186123847961,link6
1764102232.8858962,ddpg_train,FAR,train,21,3,-2.284980723165247,0,404,1,-0.027,0.01,0.377,2.7695699,-0.41044968,2.55724,-3.129058,-2.944736,-3.0940418,0.0,0.0,0.0,0.5720308423042297,0.5720308423042297,link6
1764102234.2654593,ddpg_train,FAR,train,21,4,-2.427009977194097,0,405,1,-0.149,0.072,0.368,2.6902196,0.055529702,2.4473624,-3.136691,-3.126269,-3.118724,0.0,0.0,0.0,0.6719759702682495,0.6719759702682495,link6
1764102235.6508873,ddpg_train,FAR,train,21,5,-2.3720547757277615,0,406,1,-0.171,0.066,0.349,2.7840748,0.14718533,2.4671698,-3.1356597,-3.141656,-3.0067332,0.0,0.0,0.0,0.6597099900245667,0.6597099900245667,link6
1764102237.0427804,ddpg_train,FAR,train,21,6,-2.320070311301017,0,407,1,-0.166,0.046,0.345,2.8729444,0.1468347,2.5133178,-3.141622,-3.141695,-2.763548,0.0,0.0,0.0,0.6661627888679504,0.6661627888679504,link6
1764102238.434613,ddpg_train,FAR,train,21,7,-2.3622724521892047,0,408,1,-0.201,0.043,0.335,2.930954,0.24121267,2.4356399,-3.1399727,-3.1416874,-3.0066752,0.0,0.0,0.0,0.7112571001052856,0.7112571001052856,link6
1764102239.8187003,ddpg_train,FAR,train,21,8,-2.287150613536663,0,409,1,-0.214,0.04,0.312,2.9570549,0.34076175,2.4622605,-3.1376603,-3.1417034,-3.100943,0.0,0.0,0.0,0.7020256519317627,0.7020256519317627,link6
1764102241.2078383,ddpg_train,FAR,train,21,9,-2.2150784873688,0,410,1,-0.197,0.067,0.304,2.8107946,0.35744396,2.5134397,-3.141865,-3.1416824,-3.1415668,0.0,0.0,0.0,0.6966312527656555,0.6966312527656555,link6
1764102242.5945244,ddpg_train,FAR,train,21,10,-2.173011193289358,0,411,1,-0.214,0.028,0.29,3.0207129,0.4180993,2.5188708,-3.1417906,-3.1416368,-2.9240975,0.0,0.0,0.0,0.7123460173606873,0.7123460173606873,link6
1764102243.9753835,ddpg_train,FAR,train,21,11,-2.137951308676014,0,412,1,-0.223,0.008,0.277,3.107111,0.48534054,2.5224643,-3.1418226,-3.141602,-2.847442,0.0,0.0,0.0,0.7193987369537354,0.7193987369537354,link6
1764102245.3780153,ddpg_train,FAR,train,21,12,-2.0553348349396456,0,413,1,-0.203,0.0,0.275,3.1413863,0.47107214,2.5135448,-3.141853,-2.9672208,-3.0040617,0.0,0.0,0.0,0.7018574476242065,0.7018574476242065,link6
1764102246.768425,ddpg_train,FAR,train,21,13,-2.0176077570527156,0,414,1,-0.213,0.013,0.259,3.0416055,0.51365185,2.4282281,-2.952223,-2.8216627,-3.0951085,0.0,0.0,0.0,0.7110486030578613,0.7110486030578613,link6
1764102248.1552694,ddpg_train,FAR,train,21,14,-1.9734827937147315,0,415,1,-0.211,0.022,0.25,2.9691665,0.53824776,2.4168155,-2.8534236,-2.7345264,-3.1415577,0.0,0.0,0.0,0.669175922870636,0.669175922870636,link6
1764102249.5600758,ddpg_train,FAR,train,21,15,-2.1093130645551197,0,416,1,-0.199,0.058,0.283,2.8376303,0.44136247,2.5133727,-2.8739383,-3.0364466,-3.1415954,0.0,0.0,0.0,0.6997712850570679,0.6997712850570679,link6
1764102250.9479618,ddpg_train,FAR,train,21,16,-2.1287482792690713,0,417,1,-0.207,0.072,0.278,2.790427,0.4684149,2.5151527,-2.736882,-3.105284,-3.1418674,0.0,0.0,0.0,0.6961197257041931,0.6961197257041931,link6
1764102252.336024,ddpg_train,FAR,train,21,17,-2.146215519107583,0,418,1,-0.202,0.072,0.285,2.7817585,0.44389135,2.516232,-2.6203382,-3.0906305,-3.1417758,0.0,0.0,0.0,0.6692703366279602,0.6692703366279602,link6
1764102253.7436397,ddpg_train,FAR,train,21,18,-2.0692743196192938,0,419,1,-0.18,-0.007,0.293,3.0767996,0.34752437,2.5152519,-2.5560772,-2.8513377,-3.1415548,0.0,0.0,0.0,0.6793401837348938,0.6793401837348938,link6
1764102255.1275496,ddpg_train,FAR,train,21,19,-2.05157100445258,0,420,1,-0.182,-0.012,0.288,3.1179225,0.37622136,2.5184236,-2.6431646,-2.8629873,-3.141609,0.0,0.0,0.0,0.6696177124977112,0.6696177124977112,link6
1764102258.7864523,ddpg_train,FAR,train,22,0,-2.588167161094312,0,421,1,-0.067,0.055,0.419,2.2663205,-0.32304046,2.3093626,-2.6152396,-2.8859622,-2.8863804,0.0,0.0,0.0,0.5475947856903076,0.5475947856903076,link6
1764102260.1931999,ddpg_train,FAR,train,22,1,-2.2968350079326387,0,422,1,-0.088,0.028,0.37,2.8212836,-0.14136805,2.5563278,-2.987829,-3.0305982,-3.141458,0.0,0.0,0.0,0.6350014209747314,0.6350014209747314,link6
1764102261.5949123,ddpg_train,FAR,train,22,2,-2.172458903562095,0,423,1,-0.137,-0.001,0.334,3.145118,0.1108882,2.5404508,-3.1295562,-2.9269671,-3.1420224,0.0,0.0,0.0,0.6658187508583069,0.6658187508583069,link6
1764102262.9933324,ddpg_train,FAR,train,22,3,-2.04051405814744,0,424,1,-0.181,0.022,0.286,2.9923618,0.3918496,2.5199785,-3.015939,-2.8903031,-3.1416955,0.0,0.0,0.0,0.6821139454841614,0.6821139454841614,link6
1764102264.3780203,ddpg_train,FAR,train,22,4,-2.0580276603347993,0,425,1,-0.2,0.021,0.277,3.0256517,0.4576884,2.5193975,-2.9932764,-2.977655,-3.14167,0.0,0.0,0.0,0.7077017426490784,0.7077017426490784,link6
1764102265.8015428,ddpg_train,FAR,train,22,5,-2.2327791619209516,0,426,1,-0.203,0.0,0.311,3.1413536,0.32385546,2.5135605,-2.8457296,-3.1417897,-3.141604,0.0,0.0,0.0,0.7025759816169739,0.7025759816169739,link6
1764102267.186945,ddpg_train,FAR,train,22,6,-2.191167578567781,0,427,1,-0.211,0.011,0.297,3.0882761,0.38843367,2.5198793,-2.9487038,-3.1416616,-3.141739,0.0,0.0,0.0,0.7071754932403564,0.7071754932403564,link6
1764102268.566183,ddpg_train,FAR,train,22,7,-2.167141601970711,0,428,1,-0.215,0.014,0.289,3.0781138,0.42897874,2.5230434,-3.031522,-3.141598,-3.1418025,0.0,0.0,0.0,0.706009566783905,0.706009566783905,link6
1764102269.9517727,ddpg_train,FAR,train,22,8,-2.1975043743565004,0,429,1,-0.2,0.069,0.298,2.8022034,0.38367206,2.515141,-3.1418955,-3.141666,-3.1416337,0.0,0.0,0.0,0.6967158317565918,0.6967158317565918,link6
1764102271.3526306,ddpg_train,FAR,train,22,9,-2.1562450089123995,0,430,1,-0.205,0.077,0.284,2.7817867,0.45211348,2.5211227,-3.1338692,-3.141542,-3.1417506,0.0,0.0,0.0,0.7010713219642639,0.7010713219642639,link6
1764102272.7500985,ddpg_train,FAR,train,22,10,-2.1370129380598852,0,431,1,-0.209,0.077,0.277,2.78864,0.48641297,2.5209296,-3.1069531,-3.1414335,-3.1418934,0.0,0.0,0.0,0.7044476270675659,0.7044476270675659,link6
1764102274.139867,ddpg_train,FAR,train,22,11,-2.159539670141986,0,432,1,-0.167,0.146,0.282,2.4052489,0.4555866,2.5144796,-2.969577,-3.1415844,-3.1416826,0.0,0.0,0.0,0.6598765850067139,0.6598765850067139,link6
1764102275.526034,ddpg_train,FAR,train,22,12,-2.154355033968389,0,433,1,-0.165,0.15,0.28,2.407741,0.46236303,2.5159855,-3.0512934,-3.1411898,-3.1419249,0.0,0.0,0.0,0.6617794632911682,0.6617794632911682,link6
1764102276.9186718,ddpg_train,FAR,train,22,13,-2.182159442261004,0,434,1,-0.164,0.132,0.295,2.4624865,0.39811072,2.524586,-3.1419003,-3.1343887,-3.1415567,0.0,0.0,0.0,0.6480346322059631,0.6480346322059631,link6
1764102278.3234482,ddpg_train,FAR,train,22,14,-2.2837713458142774,0,435,1,-0.19,0.128,0.303,2.5530248,0.3771427,2.3684468,-3.1416512,-3.0122666,-3.1415987,0.0,0.0,0.0,0.6987612843513489,0.6987612843513489,link6
1764102279.7203956,ddpg_train,FAR,train,22,15,-2.227833504716849,0,436,1,-0.2,0.122,0.287,2.5915525,0.44712275,2.3984692,-3.110036,-3.029358,-3.1418998,0.0,0.0,0.0,0.6913132667541504,0.6913132667541504,link6
1764102281.1163087,ddpg_train,FAR,train,22,16,-2.54487937283234,0,437,1,-0.201,0.157,0.338,2.4776397,0.31351528,2.2662861,-2.978738,-3.1414406,-3.1416032,0.0,0.0,0.0,0.7060431241989136,0.7060431241989136,link6
1764102282.5054166,ddpg_train,FAR,train,22,17,-2.5182725991465156,0,438,1,-0.177,0.18,0.334,2.3387399,0.31181636,2.284253,-2.9901767,-3.1416306,-3.0801556,0.0,0.0,0.0,0.6684690117835999,0.6684690117835999,link6
1764102283.8999028,ddpg_train,FAR,train,22,18,-2.432902517456313,0,439,1,-0.159,0.18,0.325,2.2951345,0.32851258,2.3571641,-3.0306535,-3.1416414,-2.977391,0.0,0.0,0.0,0.6408885717391968,0.6408885717391968,link6
1764102285.299639,ddpg_train,FAR,train,22,19,-2.4215613054174416,0,440,1,-0.067,0.2,0.341,1.8817413,0.22833826,2.4036136,-3.1414647,-3.141704,-3.129497,0.0,0.0,0.0,0.5757611393928528,0.5757611393928528,link6
1764102288.9755838,ddpg_train,FAR,train,23,0,-6.067815812432237,0,441,1,-0.13,0.081,0.999,-0.005942122,-0.17247322,0.14499345,-1.08005,-1.0803589,-0.8595346,0.0,0.0,0.0,0.71896892786026,0.71896892786026,link6
1764102290.415071,ddpg_train,FAR,train,23,1,-3.907311088930151,0,442,1,0.024,0.005,0.643,0.18633163,-0.46881744,1.5172163,-3.1417525,-3.1414993,-2.4592755,0.0,0.0,0.0,0.4677567481994629,0.4677567481994629,link6
1764102291.7980595,ddpg_train,FAR,train,23,2,-3.070610140997024,0,443,1,0.049,-0.006,0.502,-0.14289777,-0.49093705,2.1517868,-3.130414,-3.1415315,-2.673977,0.0,0.0,0.0,0.4731154441833496,0.4731154441833496,link6
1764102293.2077942,ddpg_train,FAR,train,23,3,-2.428220787134679,0,444,1,0.014,-0.007,0.398,-0.4935135,-0.50797313,2.5709383,-3.1274393,-3.1416368,-2.8154078,0.0,0.0,0.0,0.48697930574417114,0.48697930574417114,link6
1764102294.594007,ddpg_train,FAR,train,23,4,-2.478173982517803,0,445,1,0.011,-0.02,0.406,-1.0739828,-0.49291787,2.5268319,-3.1385384,-3.1415873,-2.6566064,0.0,0.0,0.0,0.4871031641960144,0.4871031641960144,link6
1764102295.975705,ddpg_train,FAR,train,23,5,-2.432503928011471,0,446,1,0.006,-0.009,0.399,-1.0093032,-0.5272662,2.565407,-3.1287844,-3.1415744,-2.5835552,0.0,0.0,0.0,0.4889540672302246,0.4889540672302246,link6
1764102297.3612854,ddpg_train,FAR,train,23,6,-2.439288759877462,0,447,1,0.004,-0.005,0.4,-0.9208915,-0.5483197,2.5664895,-3.1285584,-3.14159,-2.508294,0.0,0.0,0.0,0.4854111671447754,0.4854111671447754,link6
1764102298.7497926,ddpg_train,FAR,train,23,7,-2.4730640808602313,0,448,1,0.021,-0.005,0.404,-0.22621147,-0.49230358,2.5358303,-3.1361399,-3.141618,-2.5123243,0.0,0.0,0.0,0.46971505880355835,0.46971505880355835,link6
1764102300.1330366,ddpg_train,FAR,train,23,8,-2.4816603277567957,0,449,1,0.029,-0.004,0.402,-0.14346717,-0.46171305,2.544559,-3.127351,-3.141618,-2.6876283,0.0,0.0,0.0,0.43697303533554077,0.43697303533554077,link6
1764102301.5239427,ddpg_train,FAR,train,23,9,-2.5410096627792083,0,450,1,0.059,0.011,0.409,0.19385244,-0.36484605,2.4945874,-3.1416495,-3.1415925,-2.9474058,0.0,0.0,0.0,0.44107580184936523,0.44107580184936523,link6
1764102302.919425,ddpg_train,FAR,train,23,10,-2.47375728262323,0,451,1,0.055,0.036,0.397,0.5799115,-0.31822306,2.5354254,-3.1349676,-3.1415882,-3.094382,0.0,0.0,0.0,0.443415105342865,0.443415105342865,link6
1764102304.3108435,ddpg_train,FAR,train,23,11,-2.4305954077010243,0,452,1,0.053,0.053,0.388,0.79337984,-0.2554941,2.5655296,-3.0838177,-3.141602,-3.1143436,0.0,0.0,0.0,0.4430290758609772,0.4430290758609772,link6
1764102305.705943,ddpg_train,FAR,train,23,12,-2.4470155609828663,0,453,1,0.072,0.095,0.378,0.9187437,-0.095276125,2.5144544,-2.8994536,-3.115686,-3.072563,0.0,0.0,0.0,0.4284275770187378,0.4284275770187378,link6
1764102307.048122,ddpg_train,FAR,train,23,13,-2.4229172620388084,0,454,1,0.084,0.1,0.367,0.8663609,-0.022781506,2.5359895,-3.062196,-3.1332283,-3.1026661,0.0,0.0,0.0,0.40669283270835876,0.40669283270835876,link6
1764102308.4468777,ddpg_train,FAR,train,23,14,-2.3804186083005923,0,455,1,0.091,0.105,0.358,0.8592959,0.022250734,2.5485933,-3.1034195,-3.1178243,-3.0818276,0.0,0.0,0.0,0.41823992133140564,0.41823992133140564,link6
1764102309.843311,ddpg_train,FAR,train,23,15,-2.456731898411256,0,456,1,0.132,0.06,0.36,0.4134103,0.032728568,2.5147676,-3.1395426,-3.0982597,-3.139228,0.0,0.0,0.0,0.3664277195930481,0.3664277195930481,link6
1764102311.2376425,ddpg_train,FAR,train,23,16,-2.4260534009458916,0,457,1,0.115,0.068,0.365,0.5418529,-0.018667763,2.5352666,-3.1375284,-3.126637,-3.141605,0.0,0.0,0.0,0.39743340015411377,0.39743340015411377,link6
1764102312.6456368,ddpg_train,FAR,train,23,17,-2.4076762353797085,0,458,1,0.095,0.076,0.37,0.68773395,-0.058874823,2.5537636,-3.133008,-3.141675,-3.1417654,0.0,0.0,0.0,0.4258076250553131,0.4258076250553131,link6
1764102314.0314,ddpg_train,FAR,train,23,18,-2.4324918792003496,0,459,1,0.093,0.119,0.361,0.9069863,0.043012843,2.5196564,-3.140233,-3.1417007,-2.9900808,0.0,0.0,0.0,0.4079560339450836,0.4079560339450836,link6
1764102315.4137468,ddpg_train,FAR,train,23,19,-2.4449738744595573,0,460,1,0.125,0.099,0.348,0.6568347,0.11071457,2.5388858,-3.1369946,-3.141662,-2.9327414,0.0,0.0,0.0,0.3518497943878174,0.3518497943878174,link6
1764102319.0925982,ddpg_train,FAR,train,24,0,-3.3842705290818778,0,461,1,0.039,0.104,0.545,1.1985396,-0.33362508,1.8381587,-3.03786,-3.0378544,-2.2990956,0.0,0.0,0.0,0.4665954113006592,0.4665954113006592,link6
1764102320.50439,ddpg_train,FAR,train,24,1,-2.8658749050113035,0,462,1,0.093,0.139,0.427,0.97305727,-0.07909725,2.2517552,-3.1289792,-3.1415586,-2.8081112,0.0,0.0,0.0,0.3777730166912079,0.3777730166912079,link6
1764102321.8860223,ddpg_train,FAR,train,24,2,-2.524684612765555,0,463,1,0.128,0.133,0.357,0.7977568,0.13568072,2.44966,-3.133992,-3.141676,-3.0826633,0.0,0.0,0.0,0.37871837615966797,0.37871837615966797,link6
1764102323.270195,ddpg_train,FAR,train,24,3,-2.4596890966515614,0,464,1,0.108,0.125,0.358,0.8596898,0.08397163,2.4904928,-3.1409605,-3.141662,-3.0606716,0.0,0.0,0.0,0.3973500728607178,0.3973500728607178,link6
1764102324.6679294,ddpg_train,FAR,train,24,4,-2.568583185919841,0,465,1,0.134,0.126,0.358,0.7570864,0.12572376,2.4384468,-3.1368861,-3.1416411,-2.9254093,0.0,0.0,0.0,0.3482453525066376,0.3482453525066376,link6
1764102326.0856168,ddpg_train,FAR,train,24,5,-2.5418046043577216,0,466,1,0.152,0.126,0.357,0.6894472,0.15334125,2.4001682,-3.1346302,-3.1416156,-2.8138678,0.0,0.0,0.0,0.39732393622398376,0.39732393622398376,link6
1764102327.4690623,ddpg_train,FAR,train,24,6,-2.3710352617303023,0,467,1,0.071,0.131,0.355,1.0718249,0.05669786,2.50816,-3.078931,-3.0714989,-2.8499403,0.0,0.0,0.0,0.4405996799468994,0.4405996799468994,link6
1764102328.8575766,ddpg_train,FAR,train,24,7,-2.5390440320303513,0,468,1,0.096,0.143,0.358,0.9608359,0.103257656,2.4341745,-3.058047,-3.0910103,-2.9805396,0.0,0.0,0.0,0.34713056683540344,0.34713056683540344,link6
1764102330.240038,ddpg_train,FAR,train,24,8,-2.918556332141678,0,469,1,0.075,0.213,0.42,1.2313305,0.07211803,2.1308959,-3.1414852,-3.1415918,-2.8526227,0.0,0.0,0.0,0.44670528173446655,0.44670528173446655,link6
1764102331.6252065,ddpg_train,FAR,train,24,9,-2.4921357562986164,0,470,1,0.056,0.175,0.363,1.260301,0.10473555,2.4357715,-3.136296,-3.1397629,-2.8398864,0.0,0.0,0.0,0.4585111439228058,0.4585111439228058,link6
1764102333.0400703,ddpg_train,FAR,train,24,10,-2.497339776761764,0,471,1,0.088,0.153,0.35,1.0478907,0.13661563,2.4689536,-3.096758,-3.109312,-2.9483953,0.0,0.0,0.0,0.3537539839744568,0.3537539839744568,link6
