QuanPM-doosan/DoosanRobot_Reinforcement_Learning/ros2_ws/rl_logs/20251118_124936_d4pg_train.csv
ts,run_tag,mode,phase,ep,step,reward,done,mem_len,learn_flag,ee_x,ee_y,ee_z,j1,j2,j3,j4,j5,j6,sphere_x,sphere_y,sphere_z,dist_out,signed,closest_link
1763444980.9894674,d4pg_train,FAR,train,1,0,-7.880432780169082,0,1,1,-0.218,-0.022,1.295,0.25666878,0.0847603,-0.7496346,-0.109615795,0.97923535,-0.38367212,0.0,0.0,0.0,1.4691965579986572,1.4691965579986572,link6
1763444982.3648274,d4pg_train,FAR,train,1,1,-6.432771514348182,0,2,1,-0.359,-0.163,0.997,0.4790887,0.093245104,-1.3758609,-0.10460593,1.595467,-0.69196826,0.0,0.0,0.0,1.4746493101119995,1.4746493101119995,link6
1763444983.7485907,d4pg_train,FAR,train,1,2,-8.232416059028724,0,3,1,-0.366,-0.157,1.313,0.5151961,-0.18151261,-0.3236063,0.24964797,0.13686591,0.63538855,0.0,0.0,0.0,1.5906835794448853,1.5906835794448853,link6
1763444985.1357663,d4pg_train,FAR,train,1,3,-7.813032887672545,0,4,1,-0.482,-0.228,1.188,0.51261365,-0.102425545,-0.72526276,0.36551243,-0.019973762,0.25666386,0.0,0.0,0.0,1.5784772634506226,1.5784772634506226,link6
1763444986.510626,d4pg_train,FAR,train,1,4,-8.203817447046424,0,5,1,-0.19,-0.01,1.354,0.2896501,0.067399204,-0.4130646,-0.66847336,-0.06301013,0.27476302,0.0,0.0,0.0,1.4422621726989746,1.4422621726989746,link6
1763444987.8864663,d4pg_train,FAR,train,1,5,-8.335840512762905,0,6,1,0.042,0.068,1.387,0.6619414,-0.038950168,0.18591835,-0.58471304,0.15891893,0.038984235,0.0,0.0,0.0,1.1866953372955322,1.1866953372955322,link6
1763444989.2686927,d4pg_train,FAR,train,1,6,-8.290142359795771,0,7,1,0.094,0.098,1.375,0.5557318,-0.030942166,0.22158328,-0.44398025,0.156978,-0.18548764,0.0,0.0,0.0,1.344279408454895,1.344279408454895,link6
1763444990.647082,d4pg_train,FAR,train,1,7,-8.108425112722315,0,8,1,0.154,-0.204,1.327,-1.3728483,0.19703664,0.12595972,-0.7960903,-0.92623603,-1.3827553,0.0,0.0,0.0,1.115326166152954,1.115326166152954,link6
1763444992.0221248,d4pg_train,FAR,train,1,8,-7.76543383443059,0,9,1,0.674,-0.031,1.104,-0.009535424,0.27293402,0.72913873,0.117300846,0.020714885,-0.71110976,0.0,0.0,0.0,0.7674837708473206,0.7674837708473206,link6
1763444993.4085984,d4pg_train,FAR,train,1,9,-7.327152400292987,0,10,1,0.654,0.433,0.936,0.50499576,0.35157856,0.75116074,0.3158841,0.53165954,-0.5072001,0.0,0.0,0.0,1.232187271118164,1.232187271118164,link6
1763444994.792347,d4pg_train,FAR,train,1,10,-7.942567573262985,0,11,1,0.626,-0.177,1.15,-0.36589342,0.30552652,0.5550118,-1.2538097,-0.17251302,-0.4084331,0.0,0.0,0.0,0.5805166363716125,0.5805166363716125,link6
1763444996.166196,d4pg_train,FAR,train,1,11,-8.182401360245402,0,12,1,0.556,-0.114,1.24,-0.26671126,0.34053922,0.25661093,-0.5133811,0.002800909,-0.4660091,0.0,0.0,0.0,1.1019636392593384,1.1019636392593384,link6
1763444997.5428646,d4pg_train,FAR,train,1,12,-8.341628895070818,0,13,1,0.19,0.025,1.377,-0.035631,0.18681261,-0.1260852,-0.10122659,0.24567695,-0.34555954,0.0,0.0,0.0,1.4885140657424927,1.4885140657424927,link6
1763444998.922552,d4pg_train,FAR,train,1,13,-7.886378730895401,0,14,1,0.033,0.072,1.312,0.39455923,-0.23423931,0.41084015,0.16394402,0.8796155,-0.83043414,0.0,0.0,0.0,1.1553223133087158,1.1553223133087158,link6
1763445000.3001378,d4pg_train,FAR,train,1,14,-7.707337328245714,0,15,1,0.227,0.056,1.263,0.025557827,-0.08766436,0.41429484,0.023280052,1.0860343,-0.45059398,0.0,0.0,0.0,0.9052510857582092,0.9052510857582092,link6
1763445001.6781404,d4pg_train,FAR,train,1,15,-7.712324314446054,0,16,1,0.343,-0.163,1.228,-0.5138448,0.120328456,0.24468964,-0.29162765,1.1933233,0.20428574,0.0,0.0,0.0,1.1647191047668457,1.1647191047668457,link6
1763445003.0539412,d4pg_train,FAR,train,1,16,-8.248359450082843,0,17,1,0.076,0.041,1.372,-0.06847512,-0.07488614,0.3739928,-0.24183823,-0.4744369,-0.4231776,0.0,0.0,0.0,1.1173986196517944,1.1173986196517944,link6
1763445004.4283102,d4pg_train,FAR,train,1,17,-8.30341098243144,0,18,1,0.23,0.085,1.362,0.10868897,0.12103902,0.16222313,-0.24698402,-0.13986693,-0.61763453,0.0,0.0,0.0,1.192494511604309,1.192494511604309,link6
1763445005.801889,d4pg_train,FAR,train,1,18,-8.367135646894528,0,19,1,0.019,0.033,1.394,-1.3066193,-0.028448887,0.002589676,-1.0743635,0.10743596,0.03677249,0.0,0.0,0.0,1.2670505046844482,1.2670505046844482,link6
1763445007.1802764,d4pg_train,FAR,train,1,19,-8.364313986498829,0,20,1,0.104,-0.021,1.39,-0.52083385,0.10511025,-0.06444772,-0.33834213,0.13206735,0.4133305,0.0,0.0,0.0,1.1443607807159424,1.1443607807159424,link6
1763445008.5566244,d4pg_train,FAR,train,1,20,-8.325283760948963,0,21,1,0.2,0.012,1.373,-0.020556418,0.20041268,-0.10977891,-0.6246505,0.30603474,0.21769334,0.0,0.0,0.0,1.1980297565460205,1.1980297565460205,link6
1763445009.937758,d4pg_train,FAR,train,1,21,-8.104872024021756,0,22,1,0.119,0.204,1.33,0.76920587,0.0025823885,0.25568476,0.33166596,0.65959764,0.08642841,0.0,0.0,0.0,1.1850075721740723,1.1850075721740723,link6
1763445011.315308,d4pg_train,FAR,train,1,22,-8.029643456839645,0,23,1,0.328,0.128,1.291,0.26483902,0.115430795,0.23194708,-0.07983088,0.77559775,0.1082909,0.0,0.0,0.0,0.8824484348297119,0.8824484348297119,link6
1763445012.698825,d4pg_train,FAR,train,1,23,-8.2008632626419,0,24,1,0.319,0.013,1.329,-0.04831247,0.20111227,0.010142431,-0.13902563,0.6228983,-0.0038119063,0.0,0.0,0.0,1.7410272359848022,1.7410272359848022,link6
1763445014.0833533,d4pg_train,FAR,train,1,24,-8.260111773442175,0,25,1,0.259,0.0,1.352,-0.037693933,0.17322524,0.1922784,0.5055091,-0.49931335,0.5429723,0.0,0.0,0.0,0.9020506739616394,0.9020506739616394,link6
1763445015.4657097,d4pg_train,FAR,train,1,25,-8.31843156467643,0,26,1,0.275,0.071,1.357,0.13106894,0.22320127,0.07380186,0.08823451,-0.28875735,0.31418017,0.0,0.0,0.0,1.3138556480407715,1.3138556480407715,link6
1763445016.8401437,d4pg_train,FAR,train,1,26,-8.289651929168889,0,27,1,-0.059,0.031,1.38,0.2031226,0.11505067,-0.28421637,-0.2474417,-0.11288804,-0.1130923,0.0,0.0,0.0,1.539362907409668,1.539362907409668,link6
1763445018.2247608,d4pg_train,FAR,train,1,27,-8.073408733551494,0,28,1,0.164,0.063,1.334,0.06980788,-0.07005494,0.30061162,0.17461795,0.73198056,0.072468586,0.0,0.0,0.0,0.9736011028289795,0.9736011028289795,link6
1763445019.599752,d4pg_train,FAR,train,1,28,-7.954437057942387,0,29,1,0.21,0.0,1.309,-0.15216057,-0.07695944,0.34917554,-0.11800022,0.78301144,0.3190937,0.0,0.0,0.0,1.3161983489990234,1.3161983489990234,link6
1763445020.9746299,d4pg_train,FAR,train,1,29,-8.217273367054142,0,30,1,-0.128,0.065,1.362,-0.30873293,-0.05380537,-0.24840194,-0.21793544,0.65933436,-0.6695051,0.0,0.0,0.0,1.392583966255188,1.392583966255188,link6
1763445022.3495178,d4pg_train,FAR,train,1,30,-8.251818598617199,0,31,1,-0.187,-0.038,1.362,0.45011187,-0.07719902,-0.2539493,0.01888932,0.5462579,-0.64617205,0.0,0.0,0.0,1.4164910316467285,1.4164910316467285,link6
1763445023.7323709,d4pg_train,FAR,train,1,31,-8.335084973426005,0,32,1,-0.194,-0.099,1.372,0.6311379,-0.11901878,-0.12772126,-0.095832996,0.09455893,-0.698466,0.0,0.0,0.0,1.3789886236190796,1.3789886236190796,link6
1763445025.114118,d4pg_train,FAR,train,1,32,-8.311923161797205,0,33,1,-0.047,0.038,1.384,-0.67895967,0.0020096349,-0.13651234,-1.1154814,0.3731462,-0.14069404,0.0,0.0,0.0,1.3275408744812012,1.3275408744812012,link6
1763445026.519893,d4pg_train,FAR,train,1,33,-8.20343681826748,0,34,1,-0.037,0.101,1.363,-0.09457439,0.050039727,-0.07204235,-0.7353721,-0.80576587,-0.85380244,0.0,0.0,0.0,1.307729959487915,1.307729959487915,link6
1763445027.9105437,d4pg_train,FAR,train,1,34,-7.954475879892978,0,35,1,-0.055,0.083,1.322,0.11920005,0.07721071,-0.058272526,-0.45148227,-1.1062094,-1.1827017,0.0,0.0,0.0,1.3125925064086914,1.3125925064086914,link6
1763445029.3049347,d4pg_train,FAR,train,1,35,-8.124253796518051,0,36,1,0.334,-0.086,1.309,-0.32927343,0.061108463,0.42111558,-0.322642,0.26061672,-0.15065534,0.0,0.0,0.0,0.772399365901947,0.772399365901947,link6
1763445030.7076545,d4pg_train,FAR,train,1,36,-7.727355796100081,0,37,1,0.579,0.039,1.149,0.072942734,0.16931464,0.6458558,-0.2758686,0.4507373,-0.07763131,0.0,0.0,0.0,0.7138098478317261,0.7138098478317261,link6
1763445032.1324272,d4pg_train,FAR,train,1,37,-8.010429226578946,0,38,1,-0.042,0.12,1.329,1.0059106,-0.027562866,0.033184297,0.5918367,1.0721936,-0.41779718,0.0,0.0,0.0,1.2216429710388184,1.2216429710388184,link6
1763445033.519473,d4pg_train,FAR,train,1,38,-7.977258465253919,0,39,1,0.213,0.128,1.306,0.5365059,0.19598038,-0.12843738,-0.3939586,1.1298323,-0.70637995,0.0,0.0,0.0,0.8921462893486023,0.8921462893486023,link6
1763445034.903917,d4pg_train,FAR,train,1,39,-8.140258914069664,0,40,1,0.313,0.163,1.31,0.5230281,0.24371232,-0.002131354,-0.5573428,0.6864588,-0.80383915,0.0,0.0,0.0,1.1472991704940796,1.1472991704940796,link6
1763445036.2927966,d4pg_train,FAR,train,1,40,-8.650533921336702,0,41,1,0.297,-0.122,1.263,-0.48644635,-0.10808451,0.706819,-0.31246004,0.21833023,-0.09997577,0.0,0.0,0.0,0.17939727008342743,0.17939727008342743,link6
1763445037.6802108,d4pg_train,FAR,train,1,41,-9.502264681298822,0,42,1,0.372,-0.124,1.277,-0.432656,0.042408373,0.59866774,-0.22698581,-0.17325234,-0.2915158,0.0,0.0,0.0,0.12125571072101593,0.12125571072101593,link6
1763445039.063628,d4pg_train,FAR,train,1,42,-8.412120828668389,0,43,1,0.432,-0.106,1.284,-0.3343092,0.20554933,0.40596,-0.09275958,-0.34559762,-0.3413411,0.0,0.0,0.0,0.2960648536682129,0.2960648536682129,link6
1763445040.4441867,d4pg_train,FAR,train,1,43,-11.232971221994369,0,44,1,0.404,-0.01,1.308,-0.093130425,0.23272185,0.13834848,-0.22356398,0.4357472,-0.42156568,0.0,0.0,0.0,0.050453558564186096,0.050453558564186096,link6
1763445041.9500222,d4pg_train,NEAR,train,1,44,-9.182350545575524,0,45,1,0.371,0.059,1.318,0.06454713,0.1612641,0.24191311,-0.09739784,0.25982574,-0.2488512,0.0,0.0,0.0,0.16508813202381134,0.16508813202381134,link6
1763445043.4379048,d4pg_train,FAR,train,1,45,-8.24015040698702,0,46,1,0.047,0.392,1.311,1.1931795,0.27705035,0.13499928,-1.2235676,-0.5710949,-1.118557,0.0,0.0,0.0,0.529028594493866,0.529028594493866,link6
1763445044.8445804,d4pg_train,FAR,train,1,46,-8.483768012248873,0,47,1,0.2,0.408,1.298,0.9683736,0.26510787,0.22618897,-0.9387601,-0.145808,-0.88540715,0.0,0.0,0.0,0.30688828229904175,0.30688828229904175,link6
1763445046.2249615,d4pg_train,FAR,train,1,47,-8.530856056904412,0,48,1,0.336,0.247,1.284,0.5699896,0.12232444,0.42778233,-0.60471207,0.26768357,-0.594804,0.0,0.0,0.0,0.245173379778862,0.245173379778862,link6
1763445047.6024187,d4pg_train,FAR,train,1,48,-7.853502776460604,0,49,1,0.373,-0.133,1.22,-0.4006248,-0.050801754,0.6150798,-0.04258176,0.5256609,-0.49223474,0.0,0.0,0.0,0.3457515835762024,0.3457515835762024,link6
1763445048.9828823,d4pg_train,FAR,train,1,49,-8.659887139228127,0,50,1,0.185,0.02,1.361,-0.10353879,-0.017980184,0.2783134,-0.007995916,0.24979621,-0.25950888,0.0,0.0,0.0,0.24819080531597137,0.24819080531597137,link6
1763445050.3719382,d4pg_train,FAR,train,1,50,-9.554693708226079,0,51,1,0.348,-0.023,1.305,-0.1654782,0.038741652,0.5118239,0.37162864,-0.09808575,-0.858355,0.0,0.0,0.0,0.12379436194896698,0.12379436194896698,link6
1763445051.7615342,d4pg_train,FAR,train,1,51,-10.029341327631649,0,52,1,0.5,0.123,1.21,0.20577879,0.12777014,0.6092728,-0.43821993,0.19017059,-0.55787414,0.0,0.0,0.0,0.08489441871643066,0.08489441871643066,link6
1763445053.2058516,d4pg_train,MID,train,1,52,-8.041394603623857,0,53,1,0.503,0.07,1.236,0.09011963,0.17389116,0.5047673,-0.8476919,0.1555188,-0.5786593,0.0,0.0,0.0,0.5347394347190857,0.5347394347190857,link6
1763445054.5987172,d4pg_train,FAR,train,1,53,-8.54206872667037,0,54,1,0.165,-0.149,1.352,-0.834179,0.06280008,0.1716944,-0.29678032,0.5349543,-1.2117118,0.0,0.0,0.0,0.274535596370697,0.274535596370697,link6
1763445055.9776163,d4pg_train,FAR,train,1,54,-8.237111802947386,0,55,1,0.191,-0.284,1.304,-0.978841,0.12245012,0.23019797,-0.55179983,0.66914755,-0.75651515,0.0,0.0,0.0,0.35192203521728516,0.35192203521728516,link6
1763445057.3562922,d4pg_train,FAR,train,1,55,-8.662903997768472,0,56,1,0.167,-0.357,1.278,-1.0934112,0.14539386,0.32557693,-0.7149968,0.6561166,-0.26489413,0.0,0.0,0.0,0.2058006376028061,0.2058006376028061,link6
1763445058.7392848,d4pg_train,FAR,train,1,56,-8.262967352515496,0,57,1,0.134,-0.182,1.34,-1.1763366,-0.06490808,0.4248557,0.7041693,0.18007,0.1632395,0.0,0.0,0.0,0.38220810890197754,0.38220810890197754,link6
1763445060.124862,d4pg_train,FAR,train,1,57,-9.476301946368668,0,58,1,0.26,-0.108,1.322,-0.5345231,-0.028070413,0.49870437,0.4933496,0.090015896,0.17440313,0.0,0.0,0.0,0.12972411513328552,0.12972411513328552,link6
1763445061.51569,d4pg_train,FAR,train,1,58,-61.484986969917514,1,59,1,0.794,0.044,0.732,0.020616025,0.28781313,1.2286842,-0.3230256,0.2970932,-0.09730771,0.0,0.0,0.0,0.0,-0.05567586421966553,link6
1763445065.2816799,d4pg_train,FAR,train,2,0,-8.706570826003562,0,60,1,0.091,0.035,1.381,-0.15971942,-0.039506756,0.1606058,0.22583371,0.3787774,-0.61303025,0.0,0.0,0.0,0.252586305141449,0.252586305141449,link6
1763445066.6647706,d4pg_train,FAR,train,2,1,-8.226265537046517,0,61,1,-0.024,0.2,1.351,-1.3355929,-0.0585067,-0.35261682,-0.17058712,0.6334988,-0.23756425,0.0,0.0,0.0,0.5094277858734131,0.5094277858734131,link6
1763445068.0509005,d4pg_train,FAR,train,2,2,-8.689775944344213,0,62,1,0.056,0.007,1.376,-1.0356289,-0.11615959,0.19082625,0.2550747,0.4173313,0.1731551,0.0,0.0,0.0,0.24607960879802704,0.24607960879802704,link6
1763445069.431458,d4pg_train,FAR,train,2,3,-8.305968862971149,0,63,1,0.247,-0.152,1.292,-0.72845894,-0.09991927,0.63749444,0.68393934,0.17007506,0.29248962,0.0,0.0,0.0,0.26281481981277466,0.26281481981277466,link6
1763445070.8269575,d4pg_train,FAR,train,2,4,-8.293625149521993,0,64,1,-0.046,0.024,1.378,-0.28316703,-0.004112178,0.004280199,0.4556909,-0.5429304,-0.4824894,0.0,0.0,0.0,0.5533201694488525,0.5533201694488525,link6
1763445072.2215765,d4pg_train,FAR,train,2,5,-8.586649342365646,0,65,1,-0.056,0.176,1.374,-1.1617944,-0.04283578,-0.22622739,0.449944,0.026914602,0.2770334,0.0,0.0,0.0,0.29243332147598267,0.29243332147598267,link6
1763445073.6140106,d4pg_train,FAR,train,2,6,-9.52498351425242,0,66,1,0.177,0.231,1.333,-1.9746853,-0.12996954,-0.31590256,0.41922128,0.63333035,1.0174278,0.0,0.0,0.0,0.1317812204360962,0.1317812204360962,link6
1763445074.9992325,d4pg_train,FAR,train,2,7,-8.28683345135156,0,67,1,0.261,-0.089,1.336,-0.43346778,0.019159514,0.43580985,0.5161698,-0.1737176,-0.59332776,0.0,0.0,0.0,0.3893580436706543,0.3893580436706543,link6
1763445076.3812838,d4pg_train,FAR,train,2,8,-9.238172368218658,0,68,1,0.186,-0.018,1.367,-0.29893312,-0.009862489,0.32607344,1.0415478,0.07264857,-0.1722909,0.0,0.0,0.0,0.16503722965717316,0.16503722965717316,link6
1763445077.8100767,d4pg_train,FAR,train,2,9,-7.814449368489055,0,69,1,-0.361,0.188,1.237,-0.44633862,-0.015555094,-0.6001546,0.3872552,-0.5514141,0.06399163,0.0,0.0,0.0,0.8519304990768433,0.8519304990768433,link6
1763445079.1874926,d4pg_train,FAR,train,2,10,-8.281144765854547,0,70,1,-0.044,0.215,1.348,-1.1887528,0.044091735,-0.4256787,0.5807048,0.044504322,-0.0009053363,0.0,0.0,0.0,0.40551722049713135,0.40551722049713135,link6
1763445080.5660858,d4pg_train,FAR,train,2,11,-8.315584031559029,0,71,1,0.06,0.046,1.381,-1.36018,0.08799629,-0.2727111,0.85225755,0.29600146,0.053493306,0.0,0.0,0.0,0.5673666596412659,0.5673666596412659,link6
1763445081.9486074,d4pg_train,FAR,train,2,12,-6.728857485689548,0,72,1,0.255,-0.613,0.861,-1.2633439,0.06240863,1.3977014,0.5503097,0.051901568,-0.0345558,0.0,0.0,0.0,0.31924736499786377,0.31924736499786377,link6
1763445083.3458822,d4pg_train,FAR,train,2,13,-7.392732519301457,0,73,1,0.363,-0.47,1.057,-0.98285675,0.084539816,0.870974,0.034144063,0.5645738,-0.34479046,0.0,0.0,0.0,0.3743783235549927,0.3743783235549927,link6
1763445084.7298086,d4pg_train,FAR,train,2,14,-8.114015896578758,0,74,1,0.101,-0.058,1.345,-0.66095126,-0.054229785,0.15334935,-0.22502618,0.7295956,-0.5415246,0.0,0.0,0.0,0.5891373157501221,0.5891373157501221,link6
1763445086.110443,d4pg_train,FAR,train,2,15,-8.052953230487695,0,75,1,-0.377,0.088,1.285,-0.15606023,-0.05601284,-0.5163387,0.5963463,-0.1480223,-0.60619855,0.0,0.0,0.0,0.8942325711250305,0.8942325711250305,link6
1763445087.502089,d4pg_train,FAR,train,2,16,-11.825960228731699,0,76,1,-0.104,0.116,1.382,-0.38553515,-0.082032286,-0.08800511,1.1372316,0.26419538,-0.558259,0.0,0.0,0.0,0.03619925677776337,0.03619925677776337,link6
1763445089.0094197,d4pg_train,NEAR,train,2,17,-8.415221683389616,0,77,1,0.026,0.036,1.392,-0.21415398,-0.056686692,0.121141195,0.13673092,0.07527244,0.0033663658,0.0,0.0,0.0,0.44401174783706665,0.44401174783706665,link6
1763445090.3886003,d4pg_train,FAR,train,2,18,-8.383302208703029,0,78,1,0.044,-0.003,1.387,-1.0989476,-0.10546861,0.24077573,0.38410574,-0.037945166,-0.35965374,0.0,0.0,0.0,0.4472452998161316,0.4472452998161316,link6
1763445091.7665424,d4pg_train,FAR,train,2,19,-8.654755410992578,0,79,1,0.032,-0.049,1.372,-1.6381124,-0.16517086,0.3971665,0.53787845,-0.04717811,-0.6935288,0.0,0.0,0.0,0.24882648885250092,0.24882648885250092,link6
1763445093.1651368,d4pg_train,FAR,train,2,20,-8.361604610293492,0,80,1,0.124,-0.071,1.365,-1.0989916,-0.053011272,0.22885036,0.8462876,0.42325217,-0.49177697,0.0,0.0,0.0,0.3674153685569763,0.3674153685569763,link6
1763445094.5457666,d4pg_train,FAR,train,2,21,-8.359695252405377,0,81,1,-0.028,0.179,1.381,-1.1260865,-0.17613553,0.040972345,0.8635116,0.13203113,-0.32493487,0.0,0.0,0.0,0.7526745200157166,0.7526745200157166,link6
1763445095.9226017,d4pg_train,FAR,train,2,22,-8.273007787377837,0,82,1,-0.066,0.108,1.369,-0.33613557,-0.14901792,0.22283354,-0.6235591,-0.602919,-0.16433425,0.0,0.0,0.0,0.5340116024017334,0.5340116024017334,link6
1763445097.3005743,d4pg_train,FAR,train,2,23,-8.29967907324869,0,83,1,-0.285,0.34,1.31,-0.80425644,-0.35642058,-0.064132884,0.5369349,0.024678908,-1.0334588,0.0,0.0,0.0,0.8362621068954468,0.8362621068954468,link6
1763445098.6809976,d4pg_train,FAR,train,2,24,-8.236260422522093,0,84,1,-0.331,0.516,1.223,-0.8996907,-0.46698028,-0.12635921,0.7866475,0.22520353,-1.2136074,0.0,0.0,0.0,0.5185242891311646,0.5185242891311646,link6
1763445100.060043,d4pg_train,FAR,train,2,25,-8.082019492545106,0,85,1,0.279,-0.032,1.178,-0.5337059,-0.26816994,0.93207175,0.9664388,0.8542857,-0.03629971,0.0,0.0,0.0,0.18128399550914764,0.18128399550914764,link6
1763445101.4491286,d4pg_train,FAR,train,2,26,-8.179700447496064,0,86,1,0.037,0.045,1.36,-0.8748877,-0.19668724,0.21298923,0.24384661,0.5162533,0.7880152,0.0,0.0,0.0,0.6014355421066284,0.6014355421066284,link6
1763445102.8392782,d4pg_train,FAR,train,2,27,-8.245349557132844,0,87,1,-0.19,0.379,1.307,-1.0038524,-0.24439506,-0.27455533,0.09373602,0.22896221,1.0149138,0.0,0.0,0.0,0.8421289920806885,0.8421289920806885,link6
1763445104.2183993,d4pg_train,FAR,train,2,28,-7.703195260408425,0,88,1,0.024,-0.25,1.252,-1.6401323,-0.2390826,0.89430827,0.23149818,0.0033708478,-0.1296077,0.0,0.0,0.0,0.47904086112976074,0.47904086112976074,link6
1763445105.6150792,d4pg_train,FAR,train,2,29,-8.163063885727759,0,89,1,0.144,-0.319,1.251,-1.3481811,-0.079553425,0.6896586,0.99022454,0.37982342,-0.04234804,0.0,0.0,0.0,0.2606830596923828,0.2606830596923828,link6
1763445107.002023,d4pg_train,FAR,train,2,30,-8.225679318796113,0,90,1,0.178,-0.117,1.354,-1.0700394,0.010140922,0.26170367,1.6776268,0.4444955,0.08802543,0.0,0.0,0.0,0.7950327396392822,0.7950327396392822,link6
1763445108.3951468,d4pg_train,FAR,train,2,31,-8.431212610701516,0,91,1,0.094,-0.171,1.327,-1.2242581,-0.14050287,0.6086798,1.1177503,-0.066051,1.0150982,0.0,0.0,0.0,0.25676167011260986,0.25676167011260986,link6
1763445109.775294,d4pg_train,FAR,train,2,32,-7.9932734275626744,0,92,1,0.245,-0.177,1.297,-0.9625288,-0.039914425,0.53474957,1.7271124,0.5778359,0.89293635,0.0,0.0,0.0,0.750112771987915,0.750112771987915,link6
1763445111.1566432,d4pg_train,FAR,train,2,33,-8.174314574462127,0,93,1,-0.174,0.115,1.345,-0.75547874,-0.079879515,-0.14293973,1.2499979,-0.7055261,0.27588803,0.0,0.0,0.0,0.6455061435699463,0.6455061435699463,link6
1763445112.5385869,d4pg_train,FAR,train,2,34,-7.361122330512065,0,94,1,-0.669,0.24,1.0,-0.31882328,-0.22911139,-0.92032284,1.4745991,-0.17011647,0.35503623,0.0,0.0,0.0,1.232751727104187,1.232751727104187,link6
1763445113.9371557,d4pg_train,FAR,train,2,35,-6.444134745538541,0,95,1,-0.808,0.308,0.637,-0.29356834,-0.419793,-1.2615728,1.5348941,0.17254433,0.6863474,0.0,0.0,0.0,1.1093076467514038,1.1093076467514038,link6
1763445115.326518,d4pg_train,FAR,train,2,36,-7.892085392335534,0,96,1,-0.277,0.143,1.277,-0.716343,-0.22003123,-0.053910226,1.4465804,-1.1888999,-0.03567244,0.0,0.0,0.0,0.6889363527297974,0.6889363527297974,link6
1763445116.7199864,d4pg_train,FAR,train,2,37,-7.874765427121635,0,97,1,-0.45,0.287,1.199,-0.6370972,-0.2346749,-0.47278842,1.3116046,-0.6764647,-0.1976717,0.0,0.0,0.0,1.017187476158142,1.017187476158142,link6
1763445118.102038,d4pg_train,FAR,train,2,38,-7.519349374895864,0,98,1,-0.595,0.38,1.033,-0.5508319,-0.26879352,-0.7782818,1.2124765,-0.31515846,-0.146705,0.0,0.0,0.0,0.602239727973938,0.602239727973938,link6
1763445119.487041,d4pg_train,FAR,train,2,39,-8.298445022435029,0,99,1,-0.195,0.075,1.366,-0.3139969,-0.27277392,0.22161034,0.82145756,-0.30136582,0.2965909,0.0,0.0,0.0,0.6552131175994873,0.6552131175994873,link6
1763445120.8778548,d4pg_train,FAR,train,2,40,-8.175388798369294,0,100,1,-0.358,0.307,1.278,-0.7607113,-0.32196033,-0.12737729,0.87471044,-0.5399475,0.4784407,0.0,0.0,0.0,0.7849056720733643,0.7849056720733643,link6
1763445122.260272,d4pg_train,FAR,train,2,41,-7.696024138789306,0,101,1,-0.42,0.169,1.2,-0.43121392,-0.028802058,-0.72160923,1.3426689,-0.535119,0.6375132,0.0,0.0,0.0,0.8929442763328552,0.8929442763328552,link6
1763445123.6371138,d4pg_train,FAR,train,2,42,-8.233498117520854,0,102,1,-0.207,0.087,1.349,0.13110778,-0.30446458,0.29035425,1.4884455,0.64817816,0.34875685,0.0,0.0,0.0,0.5179962515830994,0.5179962515830994,link6
1763445125.057812,d4pg_train,FAR,train,2,43,-8.092761602316891,0,103,1,-0.197,0.029,1.334,0.2875563,-0.42942932,0.43985033,1.2596343,0.26266018,0.60466933,0.0,0.0,0.0,1.0983322858810425,1.0983322858810425,link6
1763445126.446493,d4pg_train,FAR,train,2,44,-6.350387971920704,0,104,1,-0.414,0.707,0.67,-0.9871775,-0.3290401,-1.3321804,1.1417681,0.044568937,-1.3291866,0.0,0.0,0.0,1.0267030000686646,1.0267030000686646,link6
1763445127.8333695,d4pg_train,FAR,train,2,45,-7.731916220886048,0,105,1,-0.463,0.631,1.022,-0.8731354,-0.40461293,-0.6119937,0.9733072,0.04793725,-0.5448016,0.0,0.0,0.0,0.6387430429458618,0.6387430429458618,link6
1763445129.2131,d4pg_train,FAR,train,2,46,-8.306325459205263,0,106,1,-0.28,0.305,1.321,-0.751274,-0.3534955,-0.022569014,0.9160472,-0.07908536,0.10266033,0.0,0.0,0.0,1.0509053468704224,1.0509053468704224,link6
1763445130.5941062,d4pg_train,FAR,train,2,47,-8.317364592983319,0,107,1,-0.324,0.018,1.346,0.025400627,-0.31201372,0.14127205,0.62292564,-0.25272098,0.7641933,0.0,0.0,0.0,0.621623158454895,0.621623158454895,link6
1763445131.9835052,d4pg_train,FAR,train,2,48,-8.291579035752235,0,108,1,-0.274,0.068,1.352,-0.27550152,-0.21820278,0.0020620502,0.91343606,-0.4217251,0.45757663,0.0,0.0,0.0,0.6987503170967102,0.6987503170967102,link6
1763445133.3625805,d4pg_train,FAR,train,2,49,-8.019344365132685,0,109,1,0.22,0.08,1.247,0.69510853,0.009915359,0.34413284,1.828954,-1.4099509,0.18409795,0.0,0.0,0.0,0.25092417001724243,0.25092417001724243,link6
1763445134.743703,d4pg_train,FAR,train,2,50,-7.8618433401651675,0,110,1,-0.238,-0.316,1.249,0.7566286,-0.23489864,-0.30064642,1.9017837,-1.11775,1.2255318,0.0,0.0,0.0,0.8595075607299805,0.8595075607299805,link6
1763445136.1244655,d4pg_train,FAR,train,2,51,-7.411925240698832,0,111,1,-0.659,-0.484,0.926,0.5598943,-0.51522565,-0.7364971,2.1715932,-0.9084701,1.3030504,0.0,0.0,0.0,1.2998569011688232,1.2998569011688232,link6
1763445137.5128314,d4pg_train,FAR,train,2,52,-6.53390325685248,0,112,1,-0.703,0.205,0.806,-0.2859323,-0.2728341,-0.9960668,0.3620775,-1.0739089,-0.37160435,0.0,0.0,0.0,1.1646360158920288,1.1646360158920288,link6
1763445138.896532,d4pg_train,FAR,train,2,53,-7.438122179020681,0,113,1,-0.535,0.084,1.111,-0.27084622,-0.22867033,-0.4341609,1.0429873,-1.3396112,-0.3234787,0.0,0.0,0.0,0.5410351753234863,0.5410351753234863,link6
1763445140.2445307,d4pg_train,FAR,train,2,54,-7.8440335528414025,0,114,1,-0.145,-0.056,1.298,-0.15530708,-0.13479574,0.011121119,1.5559818,-1.2452378,-0.028255548,0.0,0.0,0.0,0.9458118081092834,0.9458118081092834,link6
1763445141.6234927,d4pg_train,FAR,train,2,55,-7.672155299689224,0,115,1,-0.815,0.363,0.916,-0.41158086,-0.58638203,-0.5331397,0.79307395,-0.3073631,1.4322146,0.0,0.0,0.0,1.3038042783737183,1.3038042783737183,link6
1763445143.0027874,d4pg_train,FAR,train,2,56,-7.11607034397258,0,116,1,-0.927,0.32,0.667,-0.28765923,-0.6274567,-0.8839842,1.4238238,-0.08009257,0.67680186,0.0,0.0,0.0,1.2737444639205933,1.2737444639205933,link6
1763445144.3817918,d4pg_train,FAR,train,2,57,-7.176577811389013,0,117,1,-0.875,0.2,0.776,-0.17558958,-0.4903651,-0.9105337,1.9702152,0.062013242,0.114509486,0.0,0.0,0.0,0.4464879631996155,0.4464879631996155,link6
1763445145.772539,d4pg_train,FAR,train,2,58,-6.315754577162934,0,118,1,-0.601,0.415,0.758,-0.7087779,-0.48010868,-0.966266,1.633048,-1.9321609,0.7460137,0.0,0.0,0.0,1.0943738222122192,1.0943738222122192,link6
1763445147.1565502,d4pg_train,FAR,train,2,59,-5.801801916632548,0,119,1,-0.538,0.609,0.524,-0.97197545,-0.6500512,-1.0876368,1.4552469,-1.8649309,0.94092286,0.0,0.0,0.0,0.9471203684806824,0.9471203684806824,link6
1763445150.8060095,d4pg_train,FAR,train,3,0,-7.50901533157079,0,120,1,-0.68,0.142,1.041,-0.2975725,-0.36704102,-0.6460477,1.612194,-0.94492084,0.12278674,0.0,0.0,0.0,1.193724513053894,1.193724513053894,link6
1763445152.1950727,d4pg_train,FAR,train,3,1,-7.161231787912021,0,121,1,-0.81,0.276,0.832,-0.41156888,-0.5545882,-0.7461225,1.7111794,-1.0405723,0.39340383,0.0,0.0,0.0,1.0963324308395386,1.0963324308395386,link6
1763445153.585287,d4pg_train,FAR,train,3,2,-6.384745052078933,0,122,1,-0.341,-0.766,0.655,1.1004381,-0.43507174,-1.256591,1.8555773,-0.7978758,0.29710793,0.0,0.0,0.0,0.8690454959869385,0.8690454959869385,link6
1763445154.9657888,d4pg_train,FAR,train,3,3,-7.537070985995627,0,123,1,-0.738,-0.372,0.946,0.38209644,-0.5055207,-0.6056013,1.9665064,-0.73930866,0.7905756,0.0,0.0,0.0,1.0855128765106201,1.0855128765106201,link6
1763445156.3477778,d4pg_train,FAR,train,3,4,-7.231794769421578,0,124,1,-0.832,-0.084,0.868,-0.027191069,-0.57018566,-0.7142188,1.7367728,-1.2683991,0.7257993,0.0,0.0,0.0,1.0775660276412964,1.0775660276412964,link6
1763445157.7285311,d4pg_train,FAR,train,3,5,-5.352569491425063,0,125,1,-0.335,-0.523,0.64,0.9035704,-0.3234119,-1.4705,1.7056876,-2.1550837,0.7140582,0.0,0.0,0.0,0.8039597272872925,0.8039597272872925,link6
1763445159.1224022,d4pg_train,FAR,train,3,6,-5.715652389324581,0,126,1,-0.233,-0.797,0.466,1.2224575,-0.59079844,-1.4671854,2.2177038,-1.302796,-0.21265598,0.0,0.0,0.0,0.7581274509429932,0.7581274509429932,link6
1763445160.5117521,d4pg_train,FAR,train,3,7,-5.8343498395712805,0,127,1,-0.088,-0.892,0.345,1.4321985,-0.7745741,-1.411553,2.4115882,-1.259239,-0.42256448,0.0,0.0,0.0,0.4244042932987213,0.4244042932987213,link6
1763445161.901951,d4pg_train,FAR,train,3,8,-5.673559284247697,0,128,1,-0.618,0.267,0.664,-0.38245308,-0.52220416,-1.0683094,1.1948642,-2.9492996,1.026019,0.0,0.0,0.0,1.0645337104797363,1.0645337104797363,link6
1763445163.2841225,d4pg_train,FAR,train,3,9,-6.194819913213986,0,129,1,-0.689,-0.352,0.683,0.42284712,-0.5186016,-1.0244546,1.6599746,-1.7619106,0.8649402,0.0,0.0,0.0,0.7577853798866272,0.7577853798866272,link6
1763445164.6741867,d4pg_train,FAR,train,3,10,-6.817259393901284,0,130,1,-0.384,-0.725,0.786,1.0116866,-0.43279776,-1.1081154,1.9999259,-0.91211176,0.7084853,0.0,0.0,0.0,0.9890349507331848,0.9890349507331848,link6
1763445166.0648518,d4pg_train,FAR,train,3,11,-7.311556266521556,0,131,1,-0.492,-0.622,0.925,0.89625037,-0.55874425,-0.65911984,2.699353,-1.328513,1.3540243,0.0,0.0,0.0,0.8544585704803467,0.8544585704803467,link6
1763445167.4542596,d4pg_train,FAR,train,3,12,-6.714852566093858,0,132,1,-0.468,-0.702,0.735,1.0020142,-0.7195751,-0.86107737,2.9223652,-1.9697195,1.4141002,0.0,0.0,0.0,0.8384310007095337,0.8384310007095337,link6
1763445168.8387446,d4pg_train,FAR,train,3,13,-3.6029021433790063,0,133,1,-0.557,0.109,0.196,-0.28136918,-0.57844794,-2.219482,2.345589,-1.4724144,1.4869778,0.0,0.0,0.0,1.027063012123108,1.027063012123108,link6
1763445170.2306757,d4pg_train,FAR,train,3,14,-3.0199899887461714,0,134,1,-0.364,-0.304,0.166,0.6916357,-0.62547785,-2.445687,2.7053764,-1.7818385,1.5678803,0.0,0.0,0.0,0.6865010857582092,0.6865010857582092,link6
1763445171.618713,d4pg_train,FAR,train,3,15,-3.5866367903834706,0,135,1,-0.196,-0.531,0.179,1.2255352,-0.66889507,-2.194402,2.698169,-1.7292695,1.3608695,0.0,0.0,0.0,0.5308427214622498,0.5308427214622498,link6
1763445173.003501,d4pg_train,FAR,train,3,16,-2.8079176442215994,0,136,1,-0.14,-0.343,0.283,1.2257622,-0.5456743,-2.466779,2.4541967,-2.837762,1.795644,0.0,0.0,0.0,0.6142639517784119,0.6142639517784119,link6
1763445174.3948596,d4pg_train,FAR,train,3,17,-2.8794542836155967,0,137,1,-0.034,-0.388,0.257,1.5463334,-0.57353795,-2.5145552,2.8565395,-2.5703018,1.5116609,0.0,0.0,0.0,0.413968563079834,0.413968563079834,link6
1763445175.7812843,d4pg_train,FAR,train,3,18,-3.7792660377787293,0,138,1,0.082,-0.412,0.234,1.8620597,-0.57699347,-2.5248103,3.0626466,-2.2330253,1.434838,0.0,0.0,0.0,0.17213524878025055,0.17213524878025055,link6
1763445177.1665177,d4pg_train,FAR,train,3,19,-3.27212227410521,0,139,1,-0.013,-0.53,0.113,1.5505702,-0.596293,-2.342497,2.7938795,-1.0505457,2.0156121,0.0,0.0,0.0,0.5535929799079895,0.5535929799079895,link6
1763445178.5602725,d4pg_train,FAR,train,3,20,-2.9972227028577385,0,140,1,-0.04,-0.482,0.09,1.4717873,-0.6483492,-2.423231,2.7149081,-1.2166015,2.1050055,0.0,0.0,0.0,0.47002148628234863,0.47002148628234863,link6
1763445179.946375,d4pg_train,FAR,train,3,21,-4.276751759181839,0,141,1,-0.46,-0.403,0.366,0.6151816,-0.43609324,-2.0024264,2.1411908,-1.7251598,1.2815498,0.0,0.0,0.0,0.9311361908912659,0.9311361908912659,link6
1763445181.3247416,d4pg_train,FAR,train,3,22,-4.1230421740304735,0,142,1,-0.543,-0.24,0.346,0.41333005,-0.60721815,-1.906203,2.618336,-2.7469645,1.7247471,0.0,0.0,0.0,1.0197227001190186,1.0197227001190186,link6
1763445182.7178392,d4pg_train,FAR,train,3,23,-3.424928956798279,0,143,1,-0.407,-0.31,0.243,0.72645664,-0.7257128,-2.1242044,2.8138936,-2.9361866,1.8839307,0.0,0.0,0.0,0.5236770510673523,0.5236770510673523,link6
1763445184.1910605,d4pg_train,FAR,train,3,24,-4.05093387303836,0,144,1,0.271,-0.324,0.347,2.300193,-0.4120368,-2.3423386,2.5649226,-2.659531,1.1870567,0.0,0.0,0.0,0.18694593012332916,0.18694593012332916,link6
1763445185.5735788,d4pg_train,FAR,train,3,25,-2.9276025854215684,0,145,1,-0.127,-0.394,0.258,1.2658833,-0.584971,-2.4558496,2.7236855,-2.5528095,1.431051,0.0,0.0,0.0,0.8595581650733948,0.8595581650733948,link6
1763445186.952675,d4pg_train,FAR,train,3,26,-3.8756745396546495,0,146,1,-0.313,-0.157,0.359,0.5555222,-0.2602154,-2.5544927,2.823478,-2.4990227,1.8258712,0.0,0.0,0.0,0.17525072395801544,0.17525072395801544,link6
1763445188.3311145,d4pg_train,FAR,train,3,27,-3.4439585613006223,0,147,1,0.325,-0.311,0.112,2.4011588,-0.6156529,-2.5138245,3.0070791,-1.3107895,2.3496194,0.0,0.0,0.0,0.20210446417331696,0.20210446417331696,link6
1763445189.7113702,d4pg_train,FAR,train,3,28,-3.390607535273432,0,148,1,0.209,-0.492,0.159,2.0447586,-0.6328259,-2.3543787,3.1367073,-1.5949175,2.4439635,0.0,0.0,0.0,0.47233855724334717,0.47233855724334717,link6
1763445191.091881,d4pg_train,FAR,train,3,29,-4.6385140328462775,0,149,1,-0.024,-0.647,0.415,1.5948217,-0.47356743,-1.9540474,3.1412957,-1.9829009,3.1399264,0.0,0.0,0.0,0.5325775742530823,0.5325775742530823,link6
1763445192.4769628,d4pg_train,FAR,train,3,30,-3.503627630081194,0,150,1,-0.082,-0.511,0.264,1.3890532,-0.5017985,-2.3368595,2.7174244,-1.9254237,3.1413472,0.0,0.0,0.0,0.5641884207725525,0.5641884207725525,link6
1763445193.8619962,d4pg_train,FAR,train,3,31,-3.4772428582414188,0,151,1,-0.05,-0.518,0.225,1.4075508,-0.5562606,-2.312803,2.4791474,-1.7907128,2.9849646,0.0,0.0,0.0,0.41936632990837097,0.41936632990837097,link6
1763445195.2463148,d4pg_train,FAR,train,3,32,-3.126510452629198,0,152,1,0.069,-0.411,0.288,1.7138714,-0.42892948,-2.4964635,2.6467352,-2.1662083,1.9703286,0.0,0.0,0.0,0.4051119089126587,0.4051119089126587,link6
1763445196.625845,d4pg_train,FAR,train,3,33,-4.867498036025507,0,153,1,0.257,-0.362,0.331,2.2293296,-0.46095088,-2.3371847,2.8084362,-2.6003234,1.9383037,0.0,0.0,0.0,0.11744676530361176,0.11744676530361176,link6
1763445198.074797,d4pg_train,MID,train,3,34,-3.498504222778072,0,154,1,0.332,-0.345,0.33,2.345466,-0.5336234,-2.205755,2.8035772,-2.7320397,1.9501164,0.0,0.0,0.0,0.6269127726554871,0.6269127726554871,link6
1763445199.4591358,d4pg_train,FAR,train,3,35,-6.428250807547336,0,155,1,0.248,-0.71,0.641,1.8799837,-0.53641915,-1.262295,2.4593158,-2.0804842,2.1206968,0.0,0.0,0.0,0.23041553795337677,0.23041553795337677,link6
1763445200.840677,d4pg_train,FAR,train,3,36,-5.417005607908041,0,156,1,0.143,-0.758,0.468,1.7005544,-0.6664272,-1.5261283,2.7244124,-2.195143,2.162809,0.0,0.0,0.0,0.7245842218399048,0.7245842218399048,link6
1763445202.2482336,d4pg_train,FAR,train,3,37,-2.8846514158290173,0,157,1,-0.038,-0.375,0.29,1.507552,-0.49847147,-2.510413,2.695035,-2.6415055,1.4975934,0.0,0.0,0.0,0.5076208114624023,0.5076208114624023,link6
1763445203.6289659,d4pg_train,FAR,train,3,38,-58.46867467485782,1,158,1,0.377,-0.391,0.198,2.3721707,-0.61777514,-2.3135462,2.9714944,-1.7840298,2.1955426,0.0,0.0,0.0,0.0,-0.06684304773807526,link6
1763445207.275897,d4pg_train,FAR,train,4,0,-6.427139255090429,0,159,1,-0.371,-0.649,0.767,0.9753641,-0.3569084,-1.2585907,2.1953044,-1.3145776,1.2473683,0.0,0.0,0.0,0.8636924028396606,0.8636924028396606,link6
1763445208.6661272,d4pg_train,FAR,train,4,1,-4.402048222902022,0,160,1,-0.623,-0.25,0.296,0.22708169,-0.60830206,-1.8714185,1.9113394,-1.756959,2.1444263,0.0,0.0,0.0,1.0502967834472656,1.0502967834472656,link6
1763445210.0633402,d4pg_train,FAR,train,4,2,-3.8270524456069603,0,161,1,-0.567,-0.226,0.182,0.3200374,-0.7441371,-1.945676,1.8078111,-1.8410813,2.1763873,0.0,0.0,0.0,0.6825395822525024,0.6825395822525024,link6
1763445211.4602594,d4pg_train,FAR,train,4,3,-2.8915995234614944,0,162,1,-0.33,-0.254,0.242,0.65252995,-0.5961963,-2.4747193,2.637025,-2.4325886,2.2605505,0.0,0.0,0.0,0.7962506413459778,0.7962506413459778,link6
1763445212.8392951,d4pg_train,FAR,train,4,4,-3.052441526838174,0,163,1,-0.197,-0.365,0.282,1.0528818,-0.31827262,-2.5318356,2.4884005,-1.5739598,2.4952414,0.0,0.0,0.0,0.4753483533859253,0.4753483533859253,link6
1763445214.2192566,d4pg_train,FAR,train,4,5,-2.8925966232386084,0,164,1,-0.062,-0.472,0.076,1.3165532,-0.6734501,-2.344043,2.3225205,-1.1623282,2.531381,0.0,0.0,0.0,1.083245038986206,1.083245038986206,link6
1763445215.6090357,d4pg_train,FAR,train,4,6,-2.728414990235457,0,165,1,-0.244,-0.341,0.173,0.75019,-0.5341315,-2.4054267,1.7138708,-1.5545477,3.0105753,0.0,0.0,0.0,0.6591336727142334,0.6591336727142334,link6
1763445216.994604,d4pg_train,FAR,train,4,7,-3.4134269869236826,0,166,1,-0.32,-0.397,0.252,0.7314107,-0.47643277,-2.172575,1.8525511,-1.7644066,2.7548928,0.0,0.0,0.0,0.8825357556343079,0.8825357556343079,link6
1763445218.3780775,d4pg_train,FAR,train,4,8,-2.7085462508046,0,167,1,0.246,-0.27,0.033,2.3717713,-0.5786092,-2.5165443,2.5966837,-0.24099368,2.4430416,0.0,0.0,0.0,0.2286611646413803,0.2286611646413803,link6
1763445219.7603762,d4pg_train,FAR,train,4,9,-2.9905934210557725,0,168,1,-0.241,-0.427,0.088,0.918874,-0.6459789,-2.3274748,2.1022549,-1.1916227,2.1738927,0.0,0.0,0.0,0.7992498278617859,0.7992498278617859,link6
1763445221.1420593,d4pg_train,FAR,train,4,10,-2.8597214282688586,0,169,1,-0.325,-0.318,0.142,0.60452485,-0.63827175,-2.386327,2.004818,-1.5848273,2.377481,0.0,0.0,0.0,0.8048272728919983,0.8048272728919983,link6
1763445222.5322876,d4pg_train,FAR,train,4,11,-4.355874059754195,0,170,1,-0.568,0.177,0.416,-0.41295573,-0.36420685,-1.7312322,1.0199097,-1.7839338,1.9556173,0.0,0.0,0.0,1.0408145189285278,1.0408145189285278,link6
1763445223.916009,d4pg_train,FAR,train,4,12,-2.850321849921027,0,171,1,-0.35,0.255,0.194,-0.81694406,-0.4138036,-2.3154604,1.35288,-1.284529,1.5679532,0.0,0.0,0.0,0.7337343692779541,0.7337343692779541,link6
1763445225.2965047,d4pg_train,FAR,train,4,13,-2.5005894175108914,0,172,1,-0.279,0.28,0.132,-0.93388397,-0.4503054,-2.4021525,1.4304699,-0.9256139,1.7887816,0.0,0.0,0.0,1.011941909790039,1.011941909790039,link6
1763445226.677791,d4pg_train,FAR,train,4,14,-2.195583807877061,0,173,1,-0.363,-0.011,0.043,-0.032803155,-0.5818136,-2.493539,1.6963625,-0.59566826,2.691209,0.0,0.0,0.0,0.8207345604896545,0.8207345604896545,link6
1763445228.064108,d4pg_train,FAR,train,4,15,-3.130201884476282,0,174,1,-0.455,0.046,0.251,-0.16447243,-0.21668598,-2.377994,2.0108304,-0.80458516,2.5480127,0.0,0.0,0.0,1.0300872325897217,1.0300872325897217,link6
1763445229.4454527,d4pg_train,FAR,train,4,16,-3.3552094710236093,0,175,1,-0.533,-0.146,0.085,0.17745124,-0.6857002,-2.2109003,2.1220274,-1.0839348,2.6816854,0.0,0.0,0.0,0.9408976435661316,0.9408976435661316,link6
1763445230.8300102,d4pg_train,FAR,train,4,17,-2.2136509080702704,0,176,1,-0.329,-0.141,0.088,0.20440356,-0.58591366,-2.467312,1.4450564,-1.0741087,2.2645278,0.0,0.0,0.0,0.7799069285392761,0.7799069285392761,link6
1763445232.2104583,d4pg_train,FAR,train,4,18,-1.6597082989229017,0,177,1,-0.245,0.037,0.116,-0.39523548,-0.6587247,-2.5155122,0.78433007,-1.5329549,1.9481078,0.0,0.0,0.0,0.5616617202758789,0.5616617202758789,link6
1763445233.6074545,d4pg_train,FAR,train,4,19,-4.87679868676977,0,178,1,-0.654,0.264,0.404,-0.42152005,-0.3786997,-1.8908195,2.4666185,-1.0104244,1.8682632,0.0,0.0,0.0,1.1379239559173584,1.1379239559173584,link6
1763445234.9889748,d4pg_train,FAR,train,4,20,-2.6700573095799767,0,179,1,-0.368,-0.134,0.21,0.17039078,-0.5100459,-2.4078367,1.4679754,-1.87792,2.514194,0.0,0.0,0.0,0.7199713587760925,0.7199713587760925,link6
1763445236.3696246,d4pg_train,FAR,train,4,21,-1.9884005038526655,0,180,1,-0.297,-0.098,0.108,0.06921602,-0.60326326,-2.5138755,1.3336823,-1.3143991,2.5086856,0.0,0.0,0.0,0.7365995049476624,0.7365995049476624,link6
1763445237.7596536,d4pg_train,FAR,train,4,22,-2.49240672600788,0,181,1,-0.301,0.229,0.171,-0.75954723,-0.28384298,-2.4313183,1.1709453,-0.7791533,2.1644726,0.0,0.0,0.0,0.7830323576927185,0.7830323576927185,link6
1763445239.1419199,d4pg_train,FAR,train,4,23,-5.647559020469002,0,182,1,-0.716,0.41,0.453,-0.45098558,-0.43752068,-1.5592586,0.45554692,0.25170326,1.9882808,0.0,0.0,0.0,1.2640434503555298,1.2640434503555298,link6
1763445240.523441,d4pg_train,FAR,train,4,24,-6.059520063179104,0,183,1,-0.742,0.552,0.4,-0.6030612,-0.64144284,-1.3664354,0.20840935,0.16243385,1.8873707,0.0,0.0,0.0,0.5886054635047913,0.5886054635047913,link6
1763445241.9016528,d4pg_train,FAR,train,4,25,-4.421497364928023,0,184,1,-0.365,0.566,0.299,-1.0851754,-0.452669,-1.8281271,1.3783376,-1.018049,1.0073732,0.0,0.0,0.0,0.9869571328163147,0.9869571328163147,link6
1763445243.283447,d4pg_train,FAR,train,4,26,-3.727147714380212,0,185,1,-0.453,0.414,0.096,-0.77573377,-0.6259417,-2.0470314,1.6078742,-0.5424485,0.8776572,0.0,0.0,0.0,0.9796426296234131,0.9796426296234131,link6
1763445244.6726763,d4pg_train,FAR,train,4,27,-3.3025055796793352,0,186,1,-0.444,0.324,0.021,-0.63664424,-0.7091396,-2.1424744,1.5997208,-0.26939777,0.8910237,0.0,0.0,0.0,0.772126317024231,0.772126317024231,link6
1763445246.0564513,d4pg_train,FAR,train,4,28,-2.8189436570122863,0,187,1,-0.357,0.298,0.066,-0.6562219,-0.55568355,-2.2203743,0.40513122,-0.5212878,1.8310268,0.0,0.0,0.0,0.8738194108009338,0.8738194108009338,link6
1763445247.4338877,d4pg_train,FAR,train,4,29,-2.3300465918766076,0,188,1,-0.301,0.242,0.036,-0.6865055,-0.6048614,-2.3476412,0.68814844,-0.56056887,1.9265329,0.0,0.0,0.0,0.7528234720230103,0.7528234720230103,link6
1763445248.812778,d4pg_train,FAR,train,4,30,-2.4838757868784427,0,189,1,0.088,0.389,0.082,-1.8495536,-0.4917881,-2.38955,1.156414,-0.568757,2.847814,0.0,0.0,0.0,0.4807431697845459,0.4807431697845459,link6
1763445250.1932547,d4pg_train,FAR,train,4,31,-2.25268157975113,0,190,1,0.081,0.353,0.06,-1.8982198,-0.5528669,-2.490808,1.6638058,-0.6529884,2.290439,0.0,0.0,0.0,0.46047791838645935,0.46047791838645935,link6
1763445251.586071,d4pg_train,FAR,train,4,32,-3.207496545946658,0,191,1,0.225,0.46,0.068,-2.1178424,-0.6332828,-2.2036765,1.5269052,-0.76724184,2.472831,0.0,0.0,0.0,0.3834591805934906,0.3834591805934906,link6
1763445252.9694674,d4pg_train,FAR,train,4,33,-4.39132666245131,0,192,1,-0.406,0.567,0.222,-1.018339,-0.5839619,-1.8067131,1.4288751,-1.0251559,2.4677994,0.0,0.0,0.0,1.0087898969650269,1.0087898969650269,link6
1763445254.3569236,d4pg_train,FAR,train,4,34,-2.496791295614069,0,193,1,-0.093,0.348,0.194,-1.4186134,-0.67549425,-2.337593,0.8373748,-2.4282913,2.934135,0.0,0.0,0.0,0.4779541492462158,0.4779541492462158,link6
1763445255.7383742,d4pg_train,FAR,train,4,35,-2.3240574000734204,0,194,1,0.045,0.285,0.24,-1.731632,-0.63942915,-2.5195665,0.7475845,-2.647264,2.8506804,0.0,0.0,0.0,0.4236948490142822,0.4236948490142822,link6
1763445257.1994972,d4pg_train,FAR,train,4,36,-2.4013118046114177,0,195,1,-0.026,0.392,0.064,-1.5762291,-0.57628334,-2.3431022,1.0133629,-0.7507444,1.8491019,0.0,0.0,0.0,0.5946826934814453,0.5946826934814453,link6
1763445258.5939765,d4pg_train,FAR,train,4,37,-2.5155324147595675,0,196,1,-0.087,0.332,0.24,-1.4359936,-0.2424167,-2.3417957,0.76338667,-1.4333233,2.445886,0.0,0.0,0.0,0.7510854601860046,0.7510854601860046,link6
1763445259.9787798,d4pg_train,FAR,train,4,38,-2.6684841447268095,0,197,1,-0.199,0.322,0.121,-1.153154,-0.70014143,-2.235108,0.69436675,-1.7135359,2.954964,0.0,0.0,0.0,0.28679025173187256,0.28679025173187256,link6
1763445261.3592913,d4pg_train,FAR,train,4,39,-1.5361230075201124,0,198,1,0.045,0.221,0.108,-1.6349357,-0.5315845,-2.513372,0.06759734,-1.1968861,2.3724551,0.0,0.0,0.0,0.4940277934074402,0.4940277934074402,link6
1763445262.7387524,d4pg_train,FAR,train,4,40,-57.155378389053766,1,199,1,0.171,0.299,0.102,-2.031922,-0.56098735,-2.2867098,0.10329421,-1.2458196,2.1101122,0.0,0.0,0.0,0.0,-0.07841987907886505,link6
1763445266.3817937,d4pg_train,FAR,train,5,0,-3.8785794743131534,0,200,1,-0.572,0.012,0.3,-0.007322923,-0.25275132,-2.069431,0.4364113,-0.67436993,1.4024544,0.0,0.0,0.0,0.7591448426246643,0.7591448426246643,link6
1763445267.7676225,d4pg_train,FAR,train,5,1,-2.2472055684156844,0,201,1,-0.289,0.207,0.109,-0.74141157,-0.43890998,-2.379927,0.7136451,-0.81301314,1.580485,0.0,0.0,0.0,0.5727353692054749,0.5727353692054749,link6
1763445269.153809,d4pg_train,FAR,train,5,2,-1.8216762025057518,0,202,1,0.094,0.258,0.1,-1.6750051,-0.4298786,-2.5112345,-0.30525672,-0.846746,1.4097892,0.0,0.0,0.0,0.4293583631515503,0.4293583631515503,link6
1763445270.545992,d4pg_train,FAR,train,5,3,-1.555353864114815,0,203,1,-0.014,0.249,0.06,-1.3089086,-0.56714696,-2.5218444,-0.106248416,-0.7915061,2.123923,0.0,0.0,0.0,0.5726131796836853,0.5726131796836853,link6
1763445271.944528,d4pg_train,FAR,train,5,4,-2.741697744068745,0,204,1,0.066,0.302,0.283,-1.5719242,-0.050255068,-2.3342683,-0.30788425,-1.4563646,2.3944247,0.0,0.0,0.0,0.3091944754123688,0.3091944754123688,link6
1763445273.325459,d4pg_train,FAR,train,5,5,-3.6769475132780935,0,205,1,0.354,0.133,0.13,-2.877845,-0.4653524,-2.308027,0.7049314,-1.135718,2.2057881,0.0,0.0,0.0,0.13644075393676758,0.13644075393676758,link6
1763445274.7073064,d4pg_train,FAR,train,5,6,-1.736266244036633,0,206,1,0.103,0.257,0.074,-1.9100776,-0.6041337,-2.451255,0.4599668,-1.0666965,2.213263,0.0,0.0,0.0,0.5700321793556213,0.5700321793556213,link6
1763445276.0976381,d4pg_train,FAR,train,5,7,-4.181760471908238,0,207,1,0.012,0.293,0.282,-1.5170364,-0.18044493,-2.3034067,-0.047912147,-1.8954802,2.07848,0.0,0.0,0.0,0.10551312565803528,0.10551312565803528,link6
1763445277.5373218,d4pg_train,MID,train,5,8,-3.238909459500345,0,208,1,0.368,0.332,0.12,-2.0953338,-0.6108538,-2.1628153,-1.1174242,-1.2743989,1.9680916,0.0,0.0,0.0,0.3328604996204376,0.3328604996204376,link6
1763445278.9219074,d4pg_train,FAR,train,5,9,-2.3510495402432614,0,209,1,0.24,0.284,0.048,-1.9021109,-0.7123848,-2.3505175,-0.88986015,-1.1479931,1.853546,0.0,0.0,0.0,0.38964489102363586,0.38964489102363586,link6
1763445279.116865,d4pg_train,FAR,train,5,10,-2.351047693783961,0,210,1,0.24,0.284,0.048,-1.9021109,-0.7123848,-2.3505175,-0.88986015,-1.1479931,1.853546,0.0,0.0,0.0,0.3896467089653015,0.3896467089653015,link6
1763445280.5012476,d4pg_train,FAR,train,5,11,-1.6146837515853918,0,211,1,0.0,0.209,0.162,-1.6585873,-0.4655657,-2.5450215,0.50867355,-1.4266821,1.4347593,0.0,0.0,0.0,0.518200695514679,0.518200695514679,link6
1763445281.8835294,d4pg_train,FAR,train,5,12,-1.5179812354588578,0,212,1,0.025,0.229,0.078,-1.7646912,-0.6451781,-2.5125847,0.519936,-1.1604232,1.2250004,0.0,0.0,0.0,0.44441598653793335,0.44441598653793335,link6
1763445283.2718506,d4pg_train,FAR,train,5,13,-1.812852616126952,0,213,1,0.081,0.239,0.081,-1.8899034,-0.631436,-2.4332232,0.2817171,-1.21564,1.0065072,0.0,0.0,0.0,0.31115972995758057,0.31115972995758057,link6
1763445284.653374,d4pg_train,FAR,train,5,14,-2.1164037037946803,0,214,1,0.076,0.281,0.187,-1.5461464,-0.4519446,-2.4087198,-0.27081284,-1.6874661,2.1582096,0.0,0.0,0.0,0.48161280155181885,0.48161280155181885,link6
1763445286.0376809,d4pg_train,FAR,train,5,15,-2.80380441819971,0,215,1,0.104,0.198,0.216,-2.0559545,-0.5574984,-2.5232425,0.2860498,-2.2042801,1.6011716,0.0,0.0,0.0,0.1673188954591751,0.1673188954591751,link6
1763445287.4285634,d4pg_train,FAR,train,5,16,-1.8618191123694232,0,216,1,-0.191,0.167,0.177,-0.8979632,-0.40476435,-2.51329,0.75389254,-1.4892635,1.7899728,0.0,0.0,0.0,0.6776058077812195,0.6776058077812195,link6
1763445288.8080628,d4pg_train,FAR,train,5,17,-4.400130894140786,0,217,1,0.321,0.607,0.199,-2.08093,-0.5590378,-1.7447248,0.41943833,-0.74163747,1.3814304,0.0,0.0,0.0,0.38104310631752014,0.38104310631752014,link6
1763445290.2001102,d4pg_train,FAR,train,5,18,-4.0310879477871655,0,218,1,0.474,0.455,0.081,-2.3220046,-0.72076875,-1.8028529,0.18763117,-0.8803258,1.2958955,0.0,0.0,0.0,0.4439547657966614,0.4439547657966614,link6
1763445291.5937521,d4pg_train,FAR,train,5,19,-4.613726006652219,0,219,1,-0.04,0.649,0.41,-1.4188755,-0.5807845,-1.4270644,-0.23057398,-2.4951344,1.2495531,0.0,0.0,0.0,0.8097894787788391,0.8097894787788391,link6
1763445292.974625,d4pg_train,FAR,train,5,20,-3.371608475520035,0,220,1,-0.006,0.537,0.159,-1.5489131,-0.7132249,-1.8668683,0.27822962,-1.9046015,1.4626741,0.0,0.0,0.0,0.610595166683197,0.610595166683197,link6
1763445294.357413,d4pg_train,FAR,train,5,21,-2.4651206812004776,0,221,1,0.018,0.381,0.1,-1.6981572,-0.6757093,-2.2242107,0.5732346,-1.5198481,1.5180098,0.0,0.0,0.0,0.39197981357574463,0.39197981357574463,link6
1763445295.753599,d4pg_train,FAR,train,5,22,-2.4558381459587877,0,222,1,0.075,0.33,0.221,-1.5437255,-0.4202145,-2.2950597,-0.38638067,-1.8393394,1.0416261,0.0,0.0,0.0,0.5092131495475769,0.5092131495475769,link6
1763445297.1321254,d4pg_train,FAR,train,5,23,-2.0629480488256533,0,223,1,0.053,0.284,0.172,-1.4289452,-0.5061779,-2.4192815,-0.44012046,-1.68357,1.3036156,0.0,0.0,0.0,0.4697670638561249,0.4697670638561249,link6
1763445298.5171506,d4pg_train,FAR,train,5,24,-2.373465675969935,0,224,1,-0.112,0.274,0.26,-1.1831613,-0.57723725,-2.5131474,0.92340916,-2.7326875,-0.38416153,0.0,0.0,0.0,0.625673234462738,0.625673234462738,link6
1763445299.9128134,d4pg_train,FAR,train,5,25,-1.8225470245759696,0,225,1,0.07,0.221,0.154,-2.062001,-0.63238907,-2.513099,0.6026627,-1.7196575,1.0453509,0.0,0.0,0.0,0.34888413548469543,0.34888413548469543,link6
1763445301.293666,d4pg_train,FAR,train,5,26,-2.319140141587147,0,226,1,0.188,0.102,0.062,-2.5749981,-0.69269866,-2.512094,0.20191307,-1.0963061,1.3776262,0.0,0.0,0.0,0.16265998780727386,0.16265998780727386,link6
1763445302.6934805,d4pg_train,FAR,train,5,27,-2.4600084140984877,0,227,1,-0.126,0.327,0.211,-0.75858986,-0.54692805,-2.5139642,-1.456353,-2.011864,1.0034635,0.0,0.0,0.0,0.6780530214309692,0.6780530214309692,link6
1763445304.0741494,d4pg_train,FAR,train,5,28,-1.933618129652419,0,228,1,0.031,0.303,0.078,-1.4381385,-0.60948616,-2.3859792,-0.30298212,-1.1324527,1.3579618,0.0,0.0,0.0,0.46637579798698425,0.46637579798698425,link6
1763445305.4548838,d4pg_train,FAR,train,5,29,-2.3586338512673968,0,229,1,0.143,0.34,0.022,-1.9163402,-0.6477403,-2.3598661,0.2655561,-0.5675851,1.3008965,0.0,0.0,0.0,0.35641056299209595,0.35641056299209595,link6
1763445306.839128,d4pg_train,FAR,train,5,30,-5.427545056901134,0,230,1,-0.544,0.504,0.518,-0.5658757,-0.39969483,-1.3554715,-0.71262914,-1.2375042,0.62070155,0.0,0.0,0.0,1.207512378692627,1.207512378692627,link6
1763445308.228148,d4pg_train,FAR,train,5,31,-4.548636416419551,0,231,1,-0.469,0.564,0.191,-0.75959325,-0.631198,-1.7074279,-0.80767596,-0.87205637,0.06251373,0.0,0.0,0.0,0.8819217681884766,0.8819217681884766,link6
1763445309.609353,d4pg_train,FAR,train,5,32,-3.452006932798001,0,232,1,-0.229,0.52,0.089,-0.99817526,-0.59650767,-2.0775206,-0.7911389,-0.5440656,-0.46635848,0.0,0.0,0.0,0.8260828256607056,0.8260828256607056,link6
1763445310.9996672,d4pg_train,FAR,train,5,33,-2.7186663952324173,0,233,1,0.187,0.274,0.078,-2.0493152,-0.58296746,-2.350564,-0.3252907,-1.1142825,0.3819403,0.0,0.0,0.0,0.20039570331573486,0.20039570331573486,link6
1763445312.4280005,d4pg_train,FAR,train,5,34,-2.767055996128082,0,234,1,0.301,0.171,0.12,-2.4559293,-0.6213326,-2.2588766,-0.15145405,-1.5693101,0.39381537,0.0,0.0,0.0,0.21738173067569733,0.21738173067569733,link6
1763445313.8549447,d4pg_train,FAR,train,5,35,-3.6973543327048524,0,235,1,-0.393,0.393,0.266,-0.7088623,-0.46979544,-1.81256,0.09306068,-1.6275226,0.43780923,0.0,0.0,0.0,0.9458358883857727,0.9458358883857727,link6
1763445315.237074,d4pg_train,FAR,train,5,36,-3.3555950572398316,0,236,1,-0.162,0.513,0.15,-1.1960635,-0.6505881,-1.8722057,0.018574482,-1.5845447,0.19714613,0.0,0.0,0.0,0.6981456875801086,0.6981456875801086,link6
1763445316.6218338,d4pg_train,FAR,train,5,37,-2.8988292502183834,0,237,1,-0.013,0.471,0.081,-1.4136897,-0.7587777,-2.010824,-0.15912683,-1.5895346,0.43060392,0.0,0.0,0.0,0.5106597542762756,0.5106597542762756,link6
1763445318.0067496,d4pg_train,FAR,train,5,38,-3.9936706363790773,0,238,1,0.389,0.242,0.054,-2.499828,-0.598276,-2.1784105,-0.2879522,-0.66073537,0.60020864,0.0,0.0,0.0,0.140580415725708,0.140580415725708,link6
1763445319.392504,d4pg_train,FAR,train,5,39,-2.3649961889172375,0,239,1,0.175,0.349,0.05,-1.6369994,-0.7036854,-2.286787,-0.80953586,-1.1753314,0.37955242,0.0,0.0,0.0,0.7305914759635925,0.7305914759635925,link6
1763445320.7736237,d4pg_train,FAR,train,5,40,-2.557028111092039,0,240,1,-0.149,0.388,0.093,-0.8243218,-0.7127038,-2.3066015,-1.1975933,-1.5033041,-0.21465236,0.0,0.0,0.0,0.8043670058250427,0.8043670058250427,link6
1763445322.1545894,d4pg_train,FAR,train,5,41,-1.7495557568489966,0,241,1,-0.032,0.277,0.069,-1.2209351,-0.6217168,-2.4384327,-0.21011792,-1.1497879,0.2693074,0.0,0.0,0.0,0.5257530808448792,0.5257530808448792,link6
1763445323.5609756,d4pg_train,FAR,train,5,42,-1.4480578082186126,0,242,1,0.017,0.22,0.061,-1.4838443,-0.6655429,-2.5131335,-0.031588778,-1.0241911,0.15967523,0.0,0.0,0.0,0.4206877648830414,0.4206877648830414,link6
1763445324.899616,d4pg_train,FAR,train,5,43,-1.8272095043274925,0,243,1,0.103,0.231,0.047,-1.9025872,-0.67597324,-2.4649458,0.14335378,-0.96549785,0.22008757,0.0,0.0,0.0,0.2869301438331604,0.2869301438331604,link6
1763445326.280955,d4pg_train,FAR,train,5,44,-2.877551972736733,0,244,1,0.295,0.292,0.166,-2.0561056,-0.5424656,-2.2118647,-0.7575577,-1.6148741,0.7259916,0.0,0.0,0.0,0.32426032423973083,0.32426032423973083,link6
1763445327.6789873,d4pg_train,FAR,train,5,45,-2.4448246375497864,0,245,1,0.28,0.149,0.104,-2.3562417,-0.6755627,-2.3423524,-0.45107597,-1.5497683,0.27821207,0.0,0.0,0.0,0.24257169663906097,0.24257169663906097,link6
1763445329.061037,d4pg_train,FAR,train,5,46,-1.6486451505643487,0,246,1,0.123,0.217,0.063,-2.0164936,-0.57270896,-2.5109203,0.23431501,-0.842605,0.93117183,0.0,0.0,0.0,0.3862898647785187,0.3862898647785187,link6
1763445330.4440548,d4pg_train,FAR,train,5,47,-3.9185133823263794,0,247,1,0.037,0.517,0.397,-1.4741583,-0.34369966,-1.7839373,-0.37575722,-2.0895145,0.7560408,0.0,0.0,0.0,0.8363776803016663,0.8363776803016663,link6
1763445331.8260753,d4pg_train,FAR,train,5,48,-3.495136924350481,0,248,1,-0.217,0.523,0.136,-0.9293575,-0.77508044,-1.8719356,-0.71303403,-1.8408593,0.4290127,0.0,0.0,0.0,0.8397462368011475,0.8397462368011475,link6
1763445333.2217093,d4pg_train,FAR,train,5,49,-2.2719176291862158,0,249,1,0.042,0.369,0.047,-1.6578714,-0.54069644,-2.511704,-0.7645459,0.3125483,0.6736509,0.0,0.0,0.0,0.5264918804168701,0.5264918804168701,link6
1763445334.6060867,d4pg_train,FAR,train,5,50,-2.16811093118447,0,250,1,0.131,0.323,-0.005,-1.8135661,-0.6633494,-2.4611628,-0.7251562,-0.14553438,0.23538537,0.0,0.0,0.0,0.41789770126342773,0.41789770126342773,link6
1763445335.987793,d4pg_train,FAR,train,5,51,-2.091017785377626,0,251,1,-0.021,0.296,0.182,-1.2009301,-0.04552495,-2.5828254,-0.5938132,-0.5421918,0.29330432,0.0,0.0,0.0,0.7661035656929016,0.7661035656929016,link6
1763445337.3643045,d4pg_train,FAR,train,5,52,-1.9337133397244592,0,252,1,-0.121,0.289,0.069,-0.81977046,-0.5330314,-2.511059,-0.953044,-0.7600868,0.09012362,0.0,0.0,0.0,0.6340572834014893,0.6340572834014893,link6
1763445338.7568295,d4pg_train,FAR,train,5,53,-2.2836312300813923,0,253,1,-0.067,0.309,0.204,-1.0521432,-0.074537195,-2.5322473,-0.79604715,-0.72823334,0.19858834,0.0,0.0,0.0,0.5260778069496155,0.5260778069496155,link6
1763445340.137346,d4pg_train,FAR,train,5,54,-2.1622966585596415,0,254,1,0.012,0.302,0.19,-1.3295554,0.002952086,-2.5929697,-0.72154367,-0.556224,0.21362774,0.0,0.0,0.0,0.5506322979927063,0.5506322979927063,link6
1763445341.5222704,d4pg_train,FAR,train,5,55,-3.3182493253193437,0,255,1,0.217,0.473,0.163,-1.9108036,-0.5597505,-1.9438503,-0.099741854,-1.3779101,0.15942502,0.0,0.0,0.0,0.46829745173454285,0.46829745173454285,link6
1763445342.905959,d4pg_train,FAR,train,5,56,-3.196387087908456,0,256,1,0.236,0.466,0.1,-1.7931155,-0.71294403,-1.9685261,-0.67711914,-1.5370151,0.42645195,0.0,0.0,0.0,0.6838759183883667,0.6838759183883667,link6
1763445344.290032,d4pg_train,FAR,train,5,57,-2.3184905508227804,0,257,1,0.2,0.282,0.108,-1.7860969,-0.4750487,-2.5123706,-1.2711277,-0.95830953,0.36402974,0.0,0.0,0.0,0.35384097695350647,0.35384097695350647,link6
1763445345.673797,d4pg_train,FAR,train,5,58,-3.093551680163064,0,258,1,-0.119,0.486,0.124,-1.0364076,-0.61540276,-2.0591187,-0.81880623,-1.3605129,-0.3377176,0.0,0.0,0.0,0.9038283824920654,0.9038283824920654,link6
1763445347.0612297,d4pg_train,FAR,train,5,59,-3.317093707152856,0,259,1,-0.405,0.371,0.063,-0.5361049,-0.74766946,-1.9217962,-0.49567628,-1.2083561,0.04859523,0.0,0.0,0.0,1.1793073415756226,1.1793073415756226,link6
1763445350.7265072,d4pg_train,FAR,train,6,0,-6.153568007473509,0,260,1,0.338,0.616,0.393,-2.1094067,-0.30164862,-1.9323503,-0.5206507,0.0761769,-0.18442976,0.0,0.0,0.0,0.13294559717178345,0.13294559717178345,link6
1763445352.110829,d4pg_train,FAR,train,6,1,-2.026977557632524,0,261,1,0.265,0.202,0.037,-2.3381224,-0.56154263,-2.54407,-0.72167146,0.09870111,0.065630764,0.0,0.0,0.0,0.5780950784683228,0.5780950784683228,link6
1763445353.5075998,d4pg_train,FAR,train,6,2,-2.615408422714771,0,262,1,-0.031,0.427,0.073,-1.3400184,-0.5016992,-2.3866868,-1.3884633,-0.24794953,-0.9119501,0.0,0.0,0.0,0.6256359219551086,0.6256359219551086,link6
1763445354.8884263,d4pg_train,FAR,train,6,3,-2.282968598180241,0,263,1,-0.028,0.318,0.202,-1.1625992,-0.092985645,-2.5167012,-0.73862886,-0.7964992,0.15739685,0.0,0.0,0.0,0.5723938941955566,0.5723938941955566,link6
1763445356.2674882,d4pg_train,FAR,train,6,4,-2.0583971168168276,0,264,1,-0.109,0.295,0.137,-0.9401682,-0.42565277,-2.3561592,-0.34917253,-1.2045863,0.5888109,0.0,0.0,0.0,1.029077410697937,1.029077410697937,link6
1763445357.6555636,d4pg_train,FAR,train,6,5,-2.105800124260886,0,265,1,-0.315,0.132,0.079,-0.03994107,-0.56579345,-2.4329095,-0.8906525,-0.97806114,0.31926784,0.0,0.0,0.0,0.7617062926292419,0.7617062926292419,link6
1763445359.0425155,d4pg_train,FAR,train,6,6,-2.6143861301746507,0,266,1,-0.248,0.126,0.335,-0.091515265,-0.07883479,-2.3891695,-0.62326103,-2.0346315,0.45085204,0.0,0.0,0.0,0.7948048710823059,0.7948048710823059,link6
1763445360.4266324,d4pg_train,FAR,train,6,7,-2.671317977182861,0,267,1,0.017,0.403,0.182,-1.5410869,-0.5723602,-2.1257343,0.07450581,-1.8746533,1.2379103,0.0,0.0,0.0,0.5731490850448608,0.5731490850448608,link6
1763445361.8144703,d4pg_train,FAR,train,6,8,-1.6595316009884151,0,268,1,-0.054,0.252,0.092,-1.10769,-0.64068985,-2.4477472,-0.17312515,-1.3265136,0.9417975,0.0,0.0,0.0,0.5647299885749817,0.5647299885749817,link6
1763445363.191681,d4pg_train,FAR,train,6,9,-1.421373087326874,0,269,1,-0.049,0.224,0.044,-1.1094564,-0.69361436,-2.5138848,-0.21631481,-0.8963416,0.9523223,0.0,0.0,0.0,0.5497161746025085,0.5497161746025085,link6
1763445364.5779498,d4pg_train,FAR,train,6,10,-2.0364424290795213,0,270,1,-0.315,0.12,0.037,-0.20072676,-0.5415879,-2.506267,-0.61571443,-0.15569967,1.3834013,0.0,0.0,0.0,0.7931345105171204,0.7931345105171204,link6
1763445365.9783123,d4pg_train,FAR,train,6,11,-2.056960482010726,0,271,1,-0.225,0.213,0.143,-0.6159276,-0.21632133,-2.5360825,-0.13605647,-0.48093563,0.7778241,0.0,0.0,0.0,0.6262144446372986,0.6262144446372986,link6
1763445367.364851,d4pg_train,FAR,train,6,12,-1.7310216957272446,0,272,1,-0.149,0.237,0.069,-0.88896716,-0.5895925,-2.4151049,0.109797895,-1.0570986,0.5219675,0.0,0.0,0.0,0.8444988131523132,0.8444988131523132,link6
1763445368.7455895,d4pg_train,FAR,train,6,13,-3.250489883144865,0,273,1,-0.114,0.51,0.141,-1.2292669,-0.4245591,-2.1667068,-0.7114149,-0.4275974,1.1273018,0.0,0.0,0.0,0.747026264667511,0.747026264667511,link6
1763445370.126937,d4pg_train,FAR,train,6,14,-3.888440092735658,0,274,1,-0.405,0.491,0.122,-0.735958,-0.6119054,-1.9086366,-0.72729844,-0.6897337,0.48385102,0.0,0.0,0.0,1.168811321258545,1.168811321258545,link6
1763445371.5227423,d4pg_train,FAR,train,6,15,-4.189495217624172,0,275,1,-0.637,0.278,0.067,-0.29621205,-0.76278394,-1.7453218,-0.5283201,-0.72272366,0.06870384,0.0,0.0,0.0,1.1669639348983765,1.1669639348983765,link6
1763445372.9086497,d4pg_train,FAR,train,6,16,-4.268669194261333,0,276,1,-0.647,0.24,0.173,-0.31151992,-0.5263708,-1.9173707,0.4598467,-0.048345663,1.6817844,0.0,0.0,0.0,1.1226054430007935,1.1226054430007935,link6
1763445374.2922378,d4pg_train,FAR,train,6,17,-2.9023705397304025,0,277,1,-0.356,0.321,0.041,-0.68546116,-0.6135017,-2.2167902,-0.05444863,-0.47189367,1.5434382,0.0,0.0,0.0,0.5759361982345581,0.5759361982345581,link6
1763445375.6847882,d4pg_train,FAR,train,6,18,-1.7411423358365392,0,278,1,-0.28,0.057,0.048,-0.06105974,-0.54225546,-2.5132637,0.011218429,-0.5038812,1.2207325,0.0,0.0,0.0,0.7537480592727661,0.7537480592727661,link6
1763445377.065428,d4pg_train,FAR,train,6,19,-3.791449767648616,0,279,1,-0.532,0.321,0.115,-0.56043375,-0.6120991,-1.9010159,0.6298616,-0.71789443,1.3078535,0.0,0.0,0.0,1.0971800088882446,1.0971800088882446,link6
1763445378.4449422,d4pg_train,FAR,train,6,20,-3.076223109770976,0,280,1,-0.342,0.376,0.025,-0.83497876,-0.7009335,-2.0936642,0.33467826,-0.7195181,1.4553407,0.0,0.0,0.0,0.5385755896568298,0.5385755896568298,link6
1763445379.842424,d4pg_train,FAR,train,6,21,-2.6167271392753686,0,281,1,-0.231,0.333,0.16,-0.8845179,-0.2956581,-2.3416967,0.11559888,-0.5462249,0.6601179,0.0,0.0,0.0,0.7633281946182251,0.7633281946182251,link6
1763445381.230657,d4pg_train,FAR,train,6,22,-2.591478034362752,0,282,1,0.027,0.42,0.061,-1.5183972,-0.5190861,-2.3563905,-0.6473187,-0.26855254,1.2605712,0.0,0.0,0.0,0.48310601711273193,0.48310601711273193,link6
1763445382.6358078,d4pg_train,FAR,train,6,23,-2.2753021933308974,0,283,1,0.058,0.374,-0.003,-1.5401385,-0.66845185,-2.4084005,-0.7368792,-0.21610123,1.5593224,0.0,0.0,0.0,0.7033950090408325,0.7033950090408325,link6
1763445384.0203133,d4pg_train,FAR,train,6,24,-3.1387140741211335,0,284,1,-0.332,0.388,0.113,-0.73953587,-0.51022786,-2.1816099,-0.56263435,-0.36714566,2.2028344,0.0,0.0,0.0,0.8920382857322693,0.8920382857322693,link6
1763445385.4115777,d4pg_train,FAR,train,6,25,-2.0835870141881547,0,285,1,-0.292,0.187,0.001,-0.3484642,-0.6988818,-2.389345,-0.58434165,-0.56847566,2.2523825,0.0,0.0,0.0,0.7385619282722473,0.7385619282722473,link6
1763445386.7880409,d4pg_train,FAR,train,6,26,-2.0475484753399313,0,286,1,-0.25,0.082,0.217,-0.05185434,-0.07181746,-2.4885154,-0.22992952,-1.2284529,2.0057476,0.0,0.0,0.0,0.8280565142631531,0.8280565142631531,link6
1763445388.1743867,d4pg_train,FAR,train,6,27,-1.697758577415937,0,287,1,-0.234,-0.092,0.128,0.4756811,-0.40586278,-2.4954705,0.16380374,-1.133755,2.7506187,0.0,0.0,0.0,0.6926382184028625,0.6926382184028625,link6
1763445389.571005,d4pg_train,FAR,train,6,28,-1.4666388967332484,0,288,1,-0.227,0.004,0.088,0.08598655,-0.5383468,-2.5313265,0.10365936,-1.0035495,2.4815545,0.0,0.0,0.0,0.6780428886413574,0.6780428886413574,link6
1763445390.957128,d4pg_train,FAR,train,6,29,-1.5363477587127048,0,289,1,-0.152,0.166,0.119,-0.534803,-0.5757047,-2.5133653,-0.2177354,-1.3637215,1.6488962,0.0,0.0,0.0,0.6348180174827576,0.6348180174827576,link6
1763445392.3388424,d4pg_train,FAR,train,6,30,-1.618489922248987,0,290,1,-0.24,-0.045,0.113,0.22567043,-0.5074849,-2.4863765,0.25158978,-1.1983323,1.9078225,0.0,0.0,0.0,0.7100870609283447,0.7100870609283447,link6
1763445393.728609,d4pg_train,FAR,train,6,31,-2.0262743650841077,0,291,1,-0.288,-0.155,0.084,0.35886362,-0.55841625,-2.4245927,0.93625164,-0.98096967,2.3277092,0.0,0.0,0.0,1.0035490989685059,1.0035490989685059,link6
1763445395.1118846,d4pg_train,FAR,train,6,32,-2.0837613454199575,0,292,1,0.165,0.276,0.024,-2.0386443,-0.58182204,-2.508503,0.28428027,-0.17490606,2.1280735,0.0,0.0,0.0,0.35130223631858826,0.35130223631858826,link6
1763445396.4908354,d4pg_train,FAR,train,6,33,-4.496831056163203,0,293,1,-0.071,0.645,0.375,-1.4119947,-0.2615659,-1.8560945,0.6975911,-0.33518448,1.9605052,0.0,0.0,0.0,1.1202203035354614,1.1202203035354614,link6
1763445397.890349,d4pg_train,FAR,train,6,34,-4.613716007108484,0,294,1,-0.319,0.693,0.092,-1.0681921,-0.74876064,-1.7787634,0.8064735,0.17584679,2.0283613,0.0,0.0,0.0,0.7361053228378296,0.7361053228378296,link6
1763445399.274959,d4pg_train,FAR,train,6,35,-1.628765734800654,0,295,1,-0.074,0.254,0.047,-1.2313694,-0.5782454,-2.5123994,0.2937456,-0.69644123,2.377498,0.0,0.0,0.0,0.5710740089416504,0.5710740089416504,link6
1763445400.6568537,d4pg_train,FAR,train,6,36,-2.789302246195375,0,296,1,-0.165,0.396,0.179,-1.0690694,-0.22580115,-2.3852072,-0.26639593,-0.20978759,2.584613,0.0,0.0,0.0,1.0008939504623413,1.0008939504623413,link6
1763445402.0443697,d4pg_train,FAR,train,6,37,-3.210440783000978,0,297,1,-0.457,0.271,0.05,-0.54268837,-0.6998774,-2.3052473,-0.40345067,0.9059329,2.564825,0.0,0.0,0.0,0.6377406716346741,0.6377406716346741,link6
1763445403.4371562,d4pg_train,FAR,train,6,38,-2.904445877094101,0,298,1,-0.441,0.024,0.198,-0.050896868,-0.27660623,-2.3346283,1.3446211,-0.6361571,2.3632479,0.0,0.0,0.0,0.9396945834159851,0.9396945834159851,link6
1763445404.8458498,d4pg_train,FAR,train,6,39,-2.314058503678572,0,299,1,-0.379,0.025,0.059,-0.2016433,-0.57003933,-2.4031634,1.0450068,-0.6548121,2.3292441,0.0,0.0,0.0,0.6464841961860657,0.6464841961860657,link6
1763445406.231427,d4pg_train,FAR,train,6,40,-2.9079022884016203,0,300,1,-0.248,0.401,0.111,-0.8004723,-0.5742555,-2.1293383,-0.5602496,-1.0993143,2.3774538,0.0,0.0,0.0,0.8041080236434937,0.8041080236434937,link6
1763445407.6260543,d4pg_train,FAR,train,6,41,-1.9314647780485708,0,301,1,-0.216,0.237,0.019,-0.5866834,-0.6572016,-2.439269,-0.5627643,-0.60120857,2.460071,0.0,0.0,0.0,0.7103742361068726,0.7103742361068726,link6
1763445409.0031497,d4pg_train,FAR,train,6,42,-2.0899399278580297,0,302,1,-0.273,0.105,0.188,-0.21605483,-0.18131419,-2.452059,-0.011510264,-1.051148,2.2617414,0.0,0.0,0.0,0.7204398512840271,0.7204398512840271,link6
1763445410.393323,d4pg_train,FAR,train,6,43,-1.4561247401213986,0,303,1,-0.1,0.198,0.092,-0.9615753,-0.5861816,-2.5135071,0.017579675,-1.1758469,2.609445,0.0,0.0,0.0,0.5790976285934448,0.5790976285934448,link6
1763445411.775591,d4pg_train,FAR,train,6,44,-2.9586016503841948,0,304,1,-0.446,-0.196,0.052,0.5647825,-0.61519283,-2.1175563,0.061423853,-0.62470406,1.802345,0.0,0.0,0.0,0.5573095679283142,0.5573095679283142,link6
1763445413.1578195,d4pg_train,FAR,train,6,45,-3.554184227089742,0,305,1,-0.264,-0.528,0.047,1.1589427,-0.67967606,-1.9938152,0.16845557,-0.4341549,1.540406,0.0,0.0,0.0,0.8473935127258301,0.8473935127258301,link6
1763445414.5339732,d4pg_train,FAR,train,6,46,-2.8151051475257534,0,306,1,-0.107,0.43,0.151,-1.3508967,-0.36713833,-2.2479143,0.52798,-0.7346089,2.189167,0.0,0.0,0.0,0.6677029132843018,0.6677029132843018,link6
1763445415.9169137,d4pg_train,FAR,train,6,47,-2.120250671450872,0,307,1,-0.307,0.157,0.074,-0.4010553,-0.50957745,-2.4242375,0.64319927,-0.679912,1.8649893,0.0,0.0,0.0,0.7070561051368713,0.7070561051368713,link6
1763445417.3009431,d4pg_train,FAR,train,6,48,-1.83742707490861,0,308,1,-0.257,-0.069,0.144,0.17247431,-0.24570325,-2.5576053,0.5747448,-0.85166496,1.7341102,0.0,0.0,0.0,0.5424656271934509,0.5424656271934509,link6
1763445418.6883664,d4pg_train,FAR,train,6,49,-2.440098613319575,0,309,1,-0.296,0.22,0.171,-0.4814171,-0.61225724,-2.1783006,-0.022473121,-1.9480387,2.6180756,0.0,0.0,0.0,0.8527486324310303,0.8527486324310303,link6
1763445420.0751753,d4pg_train,FAR,train,6,50,-2.999851418900802,0,310,1,-0.481,0.047,0.128,0.034226604,-0.7318984,-1.9589947,-0.20954068,-1.8609743,2.4457564,0.0,0.0,0.0,1.057736873626709,1.057736873626709,link6
1763445421.4557712,d4pg_train,FAR,train,6,51,-2.049757527598008,0,311,1,-0.158,0.206,0.22,-0.5563651,-0.5286147,-2.5116599,-0.5499809,-2.1349502,1.9336925,0.0,0.0,0.0,0.6438553929328918,0.6438553929328918,link6
1763445422.8385015,d4pg_train,FAR,train,6,52,-2.1307512952962657,0,312,1,-0.273,0.17,0.15,-0.2852756,-0.62839156,-2.322058,-0.38396475,-1.8127369,2.4557707,0.0,0.0,0.0,0.8070766925811768,0.8070766925811768,link6
1763445424.2260113,d4pg_train,FAR,train,6,53,-2.0643885351645093,0,313,1,-0.276,0.162,0.125,-0.20420972,-0.72724897,-2.3514562,-0.5688903,-1.8482921,2.6206596,0.0,0.0,0.0,0.7442911863327026,0.7442911863327026,link6
1763445425.6088796,d4pg_train,FAR,train,6,54,-2.3090427305743058,0,314,1,-0.299,-0.042,0.238,0.3125802,-0.544029,-2.380738,-0.123708196,-2.3655825,2.6286676,0.0,0.0,0.0,0.7690141797065735,0.7690141797065735,link6
1763445426.9982684,d4pg_train,FAR,train,6,55,-1.917515746186078,0,315,1,-0.254,-0.033,0.19,0.39549083,-0.6221542,-2.474598,-0.2826247,-2.0894134,2.9465318,0.0,0.0,0.0,0.7120338678359985,0.7120338678359985,link6
1763445428.3984828,d4pg_train,FAR,train,6,56,-1.755351027742091,0,316,1,-0.235,0.015,0.172,0.31452778,-0.6316754,-2.5189238,-0.41782117,-1.8970726,3.0842109,0.0,0.0,0.0,0.6773987412452698,0.6773987412452698,link6
1763445429.7823613,d4pg_train,FAR,train,6,57,-2.2767691923856974,0,317,1,-0.262,0.021,0.273,0.21255656,-0.46146998,-2.5158472,-0.4546381,-2.5432456,3.0953465,0.0,0.0,0.0,0.7424289584159851,0.7424289584159851,link6
1763445431.1751118,d4pg_train,FAR,train,6,58,-2.2349083443933724,0,318,1,-0.291,0.023,0.231,0.13728723,-0.5917508,-2.4169493,-0.33295968,-2.373019,2.9275513,0.0,0.0,0.0,0.8180157542228699,0.8180157542228699,link6
1763445432.5589507,d4pg_train,FAR,train,6,59,-1.877377972933252,0,319,1,-0.155,0.176,0.205,-0.573377,-0.57768947,-2.513456,-0.24317467,-2.092951,2.7850606,0.0,0.0,0.0,0.6384428143501282,0.6384428143501282,link6
1763445436.2006304,d4pg_train,FAR,train,7,0,-6.524142054510151,0,320,1,-0.726,-0.034,0.808,0.11885317,-0.1862609,-1.1792412,-0.1897063,-0.5678262,0.0020299365,0.0,0.0,0.0,0.7279511094093323,0.7279511094093323,link6
1763445437.5850053,d4pg_train,FAR,train,7,1,-2.3377256594304385,0,321,1,-0.077,0.314,0.214,-0.8470642,-0.45302185,-2.5136263,-1.1913923,-1.8307459,0.36831173,0.0,0.0,0.0,0.6079157590866089,0.6079157590866089,link6
1763445438.977208,d4pg_train,FAR,train,7,2,-2.201074707119852,0,322,1,-0.29,0.135,0.179,0.09597074,-0.6035745,-2.5241368,-1.2193892,-1.9090779,1.7575119,0.0,0.0,0.0,0.7976836562156677,0.7976836562156677,link6
1763445440.359612,d4pg_train,FAR,train,7,3,-2.542252402094704,0,323,1,-0.381,-0.004,0.185,0.36480337,-0.7075231,-2.4609935,-1.6926378,-2.3261878,2.3834705,0.0,0.0,0.0,0.8622546792030334,0.8622546792030334,link6
1763445441.7448123,d4pg_train,FAR,train,7,4,-3.243453455247567,0,324,1,-0.464,-0.067,0.269,0.33602512,-0.4102627,-2.016309,-0.4288624,-1.8065529,3.1331098,0.0,0.0,0.0,0.9381032586097717,0.9381032586097717,link6
1763445443.1400824,d4pg_train,FAR,train,7,5,-2.7065703249444684,0,325,1,-0.38,-0.086,0.227,0.3317989,-0.5321807,-2.1576228,-0.017447144,-2.1629982,2.5193174,0.0,0.0,0.0,0.8444021344184875,0.8444021344184875,link6
1763445444.5408108,d4pg_train,FAR,train,7,6,-2.453557786951562,0,326,1,-0.335,-0.113,0.205,0.36895385,-0.5721993,-2.2394361,0.23711427,-2.0870426,2.2688668,0.0,0.0,0.0,0.8124948143959045,0.8124948143959045,link6
1763445445.9325986,d4pg_train,FAR,train,7,7,-2.205181844275924,0,327,1,-0.135,0.225,0.254,-1.0589216,-0.5354435,-2.5016317,0.41663155,-2.553856,2.4291549,0.0,0.0,0.0,0.5876476764678955,0.5876476764678955,link6
1763445447.3117611,d4pg_train,FAR,train,7,8,-1.7708585016943383,0,328,1,-0.148,0.171,0.188,-0.8051068,-0.64971495,-2.5150964,0.2951871,-2.0547664,2.577304,0.0,0.0,0.0,0.6673827171325684,0.6673827171325684,link6
1763445448.6900544,d4pg_train,FAR,train,7,9,-1.401352832182241,0,329,1,-0.188,0.083,0.11,-0.28672624,-0.6759431,-2.513479,0.11713375,-1.488951,2.718966,0.0,0.0,0.0,0.749243438243866,0.749243438243866,link6
1763445450.0699286,d4pg_train,FAR,train,7,10,-1.6144109121911072,0,330,1,-0.198,0.069,0.167,-0.22145733,-0.57288665,-2.5165918,0.10173972,-1.7351193,2.894844,0.0,0.0,0.0,0.6712990403175354,0.6712990403175354,link6
1763445451.4583774,d4pg_train,FAR,train,7,11,-1.7590303852797802,0,331,1,-0.222,-0.074,0.169,0.2748337,-0.6240167,-2.4910789,0.44192305,-1.8841258,3.0436618,0.0,0.0,0.0,0.5217373371124268,0.5217373371124268,link6
1763445452.8105319,d4pg_train,FAR,train,7,12,-1.5454197708091253,0,332,1,-0.158,0.143,0.142,-0.5887439,-0.5623673,-2.513212,0.0106193265,-1.5301772,2.7973008,0.0,0.0,0.0,0.6326727271080017,0.6326727271080017,link6
1763445454.1923966,d4pg_train,FAR,train,7,13,-1.5677792164312465,0,333,1,-0.206,0.134,0.087,-0.42638358,-0.559679,-2.483406,0.03563703,-1.0800067,2.7400694,0.0,0.0,0.0,0.7230890989303589,0.7230890989303589,link6
1763445455.606681,d4pg_train,FAR,train,7,14,-1.5389310952082431,0,334,1,-0.237,0.057,0.077,0.0643187,-0.5912423,-2.49894,-0.185694,-1.0641301,2.6805317,0.0,0.0,0.0,0.6878674626350403,0.6878674626350403,link6
1763445457.0065966,d4pg_train,FAR,train,7,15,-1.9852857534600075,0,335,1,-0.223,-0.128,0.207,0.95684403,-0.38905433,-2.5149164,-0.6182488,-1.7716237,1.519836,0.0,0.0,0.0,0.6964918971061707,0.6964918971061707,link6
1763445458.4098544,d4pg_train,FAR,train,7,16,-1.6801631157312182,0,336,1,-0.22,0.029,0.169,0.22212093,-0.48504147,-2.535,-0.3288421,-1.6115422,1.3474772,0.0,0.0,0.0,0.6632775068283081,0.6632775068283081,link6
1763445459.7922318,d4pg_train,FAR,train,7,17,-1.526927892064888,0,337,1,-0.171,0.12,0.143,-0.3672377,-0.5530851,-2.5307784,-0.098416895,-1.5205984,1.2709141,0.0,0.0,0.0,0.6441794633865356,0.6441794633865356,link6
1763445461.1927135,d4pg_train,FAR,train,7,18,-2.7506754694236943,0,338,1,-0.354,0.262,0.127,-0.36838624,-0.5421012,-2.1942902,-0.7257605,-1.231281,1.7013998,0.0,0.0,0.0,0.9119636416435242,0.9119636416435242,link6
1763445462.5710042,d4pg_train,FAR,train,7,19,-2.175019207199063,0,339,1,-0.32,0.149,0.08,-0.119167775,-0.6713746,-2.316323,-0.62342304,-1.3340802,2.1294692,0.0,0.0,0.0,0.7300623059272766,0.7300623059272766,link6
1763445463.954977,d4pg_train,FAR,train,7,20,-3.500794395214822,0,340,1,-0.226,-0.466,0.267,1.3203384,-0.46819714,-1.9299835,-0.56416494,-1.8033677,2.466821,0.0,0.0,0.0,0.6972067356109619,0.6972067356109619,link6
1763445465.4096534,d4pg_train,FAR,train,7,21,-2.6906373955550564,0,341,1,-0.375,-0.148,0.196,0.74144816,-0.59009725,-2.3823557,-1.409777,-1.9921801,2.1854055,0.0,0.0,0.0,0.8493437170982361,0.8493437170982361,link6
1763445466.800417,d4pg_train,FAR,train,7,22,-2.384451819197257,0,342,1,-0.342,-0.05,0.194,0.58357906,-0.6382231,-2.528518,-1.4727868,-2.1182144,1.9580309,0.0,0.0,0.0,0.6676440834999084,0.6676440834999084,link6
1763445468.2332306,d4pg_train,FAR,train,7,23,-3.3155820960744076,0,343,1,-0.453,-0.058,0.311,0.3470705,-0.45692363,-2.0785592,-0.9541861,-2.3840768,3.0024087,0.0,0.0,0.0,0.9492371678352356,0.9492371678352356,link6
1763445469.6460361,d4pg_train,FAR,train,7,24,-2.7924814069618695,0,344,1,-0.351,-0.187,0.239,0.78190744,-0.6241951,-2.3304932,-1.2086372,-2.5609357,3.0844061,0.0,0.0,0.0,0.6375512480735779,0.6375512480735779,link6
1763445471.0306606,d4pg_train,FAR,train,7,25,-2.1832442775338836,0,345,1,-0.221,-0.124,0.26,0.588197,-0.51792055,-2.513228,0.2699218,-2.5007875,2.8841205,0.0,0.0,0.0,0.6938705444335938,0.6938705444335938,link6
1763445472.4228363,d4pg_train,FAR,train,7,26,-1.889767296323566,0,346,1,-0.186,0.133,0.214,-0.35143176,-0.44695327,-2.5135226,-0.29035568,-1.9205878,1.867127,0.0,0.0,0.0,0.6147499084472656,0.6147499084472656,link6
1763445473.80516,d4pg_train,FAR,train,7,27,-2.051551787648612,0,347,1,-0.195,0.17,0.223,-0.26761872,-0.49033248,-2.5378623,-0.71931434,-2.0427406,1.8136755,0.0,0.0,0.0,0.7696141004562378,0.7696141004562378,link6
1763445475.187054,d4pg_train,FAR,train,7,28,-4.6236119105964475,0,348,1,-0.271,-0.574,0.436,1.1847515,-0.5823679,-1.5137196,0.4531133,-2.929837,2.179535,0.0,0.0,0.0,0.7362934350967407,0.7362934350967407,link6
1763445476.5758457,d4pg_train,FAR,train,7,29,-2.3718977471111007,0,349,1,-0.365,-0.107,0.106,0.34885707,-0.63144463,-2.192469,0.119852126,-1.4641641,2.780848,0.0,0.0,0.0,0.7497867345809937,0.7497867345809937,link6
1763445477.9622252,d4pg_train,FAR,train,7,30,-1.4986777519918395,0,350,1,-0.218,0.093,0.077,-0.14251542,-0.5559488,-2.533874,-0.22512339,-0.93982404,2.957649,0.0,0.0,0.0,0.727552592754364,0.727552592754364,link6
1763445479.3505075,d4pg_train,FAR,train,7,31,-2.3515870583523766,0,351,1,-0.194,-0.215,0.262,0.9365934,-0.58403224,-2.5171967,0.4619056,-2.8196669,1.860226,0.0,0.0,0.0,0.6380220651626587,0.6380220651626587,link6
1763445480.7386465,d4pg_train,FAR,train,7,32,-2.1476268279973025,0,352,1,-0.253,0.068,0.233,-0.21573094,-0.6301764,-2.5151546,0.23125546,-2.5337162,2.4821804,0.0,0.0,0.0,0.47327128052711487,0.47327128052711487,link6
1763445482.1229181,d4pg_train,FAR,train,7,33,-1.949100801823904,0,353,1,-0.001,0.246,0.212,-1.2788376,-0.5938938,-2.4872406,-0.2237174,-2.1849554,3.0550115,0.0,0.0,0.0,0.9002942442893982,0.9002942442893982,link6
1763445483.5067573,d4pg_train,FAR,train,7,34,-1.8909454780930062,0,354,1,-0.15,-0.222,0.16,1.342895,-0.5217703,-2.4624658,-0.44844773,-1.6277763,2.0497322,0.0,0.0,0.0,0.5596135854721069,0.5596135854721069,link6
1763445484.8997867,d4pg_train,FAR,train,7,35,-1.6056375502116844,0,355,1,-0.189,-0.153,0.111,0.988047,-0.569666,-2.5009112,-0.38304535,-1.2812233,2.1067412,0.0,0.0,0.0,0.7919259071350098,0.7919259071350098,link6
1763445486.2825742,d4pg_train,FAR,train,7,36,-2.283778506157908,0,356,1,-0.281,0.007,0.256,0.2819023,-0.54003125,-2.5131562,-0.67227006,-2.522059,1.6552755,0.0,0.0,0.0,0.7551668286323547,0.7551668286323547,link6
1763445487.6674197,d4pg_train,FAR,train,7,37,-2.287038267323834,0,357,1,-0.202,-0.262,0.176,1.3387419,-0.4162757,-2.365435,-0.64164186,-1.4502441,2.3081982,0.0,0.0,0.0,0.48627281188964844,0.48627281188964844,link6
1763445489.0601423,d4pg_train,FAR,train,7,38,-2.0354175243960695,0,358,1,-0.133,-0.26,0.172,1.4007522,-0.42571706,-2.4121425,-0.395422,-1.512511,2.5341098,0.0,0.0,0.0,0.7906152606010437,0.7906152606010437,link6
1763445490.4487555,d4pg_train,FAR,train,7,39,-1.7781450252212723,0,359,1,-0.15,0.177,0.182,-0.5579015,-0.3624889,-2.5136774,-0.26980072,-1.4985898,2.526634,0.0,0.0,0.0,0.6333686709403992,0.6333686709403992,link6
1763445491.827047,d4pg_train,FAR,train,7,40,-1.9222960630484487,0,360,1,-0.214,0.056,0.231,0.0106831435,-0.4960782,-2.533681,-0.14317225,-2.166679,2.1115832,0.0,0.0,0.0,0.7323437333106995,0.7323437333106995,link6
1763445493.208997,d4pg_train,FAR,train,7,41,-2.1837692450568635,0,361,1,-0.259,-0.057,0.249,0.40821025,-0.5945102,-2.522371,-0.26494297,-2.5451336,1.7333199,0.0,0.0,0.0,0.8395366072654724,0.8395366072654724,link6
1763445494.6071541,d4pg_train,FAR,train,7,42,-2.7706213290705723,0,362,1,-0.408,-0.046,0.211,0.39915138,-0.6081068,-2.5173814,-2.3303018,-2.2256377,2.4641247,0.0,0.0,0.0,0.8680303692817688,0.8680303692817688,link6
1763445495.9878402,d4pg_train,FAR,train,7,43,-4.692459549692113,0,363,1,-0.241,-0.326,0.381,1.2630663,-0.2648388,-2.3669498,-2.0363398,-2.341793,2.3884618,0.0,0.0,0.0,0.13060800731182098,0.13060800731182098,link6
1763445497.378367,d4pg_train,FAR,train,7,44,-2.6087569159234643,0,364,1,-0.187,-0.25,0.301,1.2372587,-0.4290099,-2.513218,-1.267684,-2.6406035,1.2773535,0.0,0.0,0.0,0.6609930992126465,0.6609930992126465,link6
1763445498.7601516,d4pg_train,FAR,train,7,45,-3.0382141095565784,0,365,1,-0.441,-0.118,0.219,0.59627235,-0.54899067,-2.21951,-1.2570763,-1.9279045,2.01875,0.0,0.0,0.0,0.9871144890785217,0.9871144890785217,link6
1763445500.142282,d4pg_train,FAR,train,7,46,-2.6844135374930262,0,366,1,-0.392,-0.146,0.151,0.73703724,-0.64439625,-2.2640996,-1.0092258,-1.7994814,1.8445356,0.0,0.0,0.0,0.574092447757721,0.574092447757721,link6
1763445501.5232465,d4pg_train,FAR,train,7,47,-1.5575698806476272,0,367,1,-0.138,0.176,0.128,-0.74841774,-0.5063137,-2.5125604,-0.045835305,-1.3204452,0.8776366,0.0,0.0,0.0,0.6080823540687561,0.6080823540687561,link6
1763445502.90538,d4pg_train,FAR,train,7,48,-1.858772054404488,0,368,1,-0.215,0.21,0.074,-0.353849,-0.57741,-2.515794,-0.9603811,-0.9476879,0.759466,0.0,0.0,0.0,0.8005653619766235,0.8005653619766235,link6
1763445504.3751123,d4pg_train,FAR,train,7,49,-2.010302990788687,0,369,1,-0.312,0.093,0.072,0.19532815,-0.64079505,-2.5132768,-1.2247089,-1.1183834,0.6809593,0.0,0.0,0.0,0.6244028806686401,0.6244028806686401,link6
1763445505.7596474,d4pg_train,FAR,train,7,50,-3.1955464451824955,0,370,1,-0.465,-0.017,0.259,0.2261517,-0.61146146,-2.1486714,-1.32399,-2.557706,1.2507318,0.0,0.0,0.0,0.9631499648094177,0.9631499648094177,link6
1763445507.1471238,d4pg_train,FAR,train,7,51,-2.690714211966356,0,371,1,-0.371,0.163,0.19,-0.16548263,-0.7309436,-2.3307288,-1.1834912,-2.462297,1.9536569,0.0,0.0,0.0,0.6839367747306824,0.6839367747306824,link6
1763445508.5269668,d4pg_train,FAR,train,7,52,-2.2693518682317113,0,372,1,-0.234,0.204,0.215,-0.24995111,-0.51137227,-2.5136335,-1.0972089,-1.9875026,1.6247649,0.0,0.0,0.0,0.7227742671966553,0.7227742671966553,link6
1763445509.9086912,d4pg_train,FAR,train,7,53,-2.301563798395298,0,373,1,-0.307,0.19,0.129,-0.072516106,-0.6237709,-2.5216007,-1.5859578,-1.5207893,1.5244404,0.0,0.0,0.0,0.8328803181648254,0.8328803181648254,link6
1763445511.3014781,d4pg_train,FAR,train,7,54,-3.056245430888399,0,374,1,-0.489,0.08,0.118,0.1526432,-0.7128011,-2.3158002,-1.9670762,-1.6261001,1.2131594,0.0,0.0,0.0,1.081180214881897,1.081180214881897,link6
1763445512.6847973,d4pg_train,FAR,train,7,55,-2.543442618876135,0,375,1,-0.361,-0.028,0.22,0.5358118,-0.41742977,-2.4995434,-1.4230882,-1.7479494,-0.19604842,0.0,0.0,0.0,0.8209124207496643,0.8209124207496643,link6
1763445514.0684137,d4pg_train,FAR,train,7,56,-4.241773413633055,0,376,1,-0.555,0.151,0.411,-0.018432254,-0.3774942,-2.008909,-2.0059538,-2.0209641,0.1805482,0.0,0.0,0.0,1.0095857381820679,1.0095857381820679,link6
1763445515.4754972,d4pg_train,FAR,train,7,57,-4.586460307924956,0,377,1,-0.581,0.162,0.469,-0.06945322,-0.4055429,-1.858187,-2.1319795,-2.2492144,0.60943174,0.0,0.0,0.0,0.773537278175354,0.773537278175354,link6
1763445516.8779316,d4pg_train,FAR,train,7,58,-3.94706889506165,0,378,1,-0.407,0.327,0.4,-0.5326952,-0.4451097,-2.019575,-2.1081123,-2.696764,1.8306868,0.0,0.0,0.0,0.8704528212547302,0.8704528212547302,link6
1763445518.2890952,d4pg_train,FAR,train,7,59,-3.064619928335094,0,379,1,-0.418,0.169,0.239,-0.07432655,-0.624482,-2.297184,-1.6588746,-2.393489,1.8626502,0.0,0.0,0.0,0.7480294108390808,0.7480294108390808,link6
1763445521.970335,d4pg_train,FAR,train,8,0,-5.580255588475566,0,380,1,-0.709,0.084,0.596,0.11312992,-0.3165264,-1.6225171,-1.6874776,-1.3885943,1.4022464,0.0,0.0,0.0,1.0986738204956055,1.0986738204956055,link6
1763445523.4002492,d4pg_train,FAR,train,8,1,-3.352725651434558,0,381,1,-0.513,0.169,0.142,-0.045230076,-0.6096335,-2.2530844,-1.9524589,-1.2971653,1.2925435,0.0,0.0,0.0,0.7887305021286011,0.7887305021286011,link6
1763445524.7813673,d4pg_train,FAR,train,8,2,-2.6104181565441813,0,382,1,-0.411,0.042,0.136,0.14591832,-0.36805004,-2.514003,-2.1804485,-0.6445706,-0.27492157,0.0,0.0,0.0,0.8843446373939514,0.8843446373939514,link6
1763445526.1883545,d4pg_train,FAR,train,8,3,-3.4459048827102694,0,383,1,-0.497,-0.184,0.221,0.68120885,-0.53306305,-2.2033656,-1.8183867,-1.7071216,0.17497267,0.0,0.0,0.0,0.8869588971138,0.8869588971138,link6
1763445527.5758815,d4pg_train,FAR,train,8,4,-3.2334705561927546,0,384,1,-0.422,-0.234,0.239,0.7006742,-0.6461784,-2.186224,-1.4012393,-2.4554002,0.26205617,0.0,0.0,0.0,0.7565943598747253,0.7565943598747253,link6
1763445528.9776466,d4pg_train,FAR,train,8,5,-3.247399496820375,0,385,1,-0.474,0.103,0.24,0.104833014,-0.52943206,-2.1590345,-1.3081945,-1.9302024,1.3222482,0.0,0.0,0.0,0.9832263588905334,0.9832263588905334,link6
1763445530.364854,d4pg_train,FAR,train,8,6,-2.0225501432682544,0,386,1,-0.32,-0.014,0.101,0.38761765,-0.6917927,-2.35961,-0.5590026,-1.5568169,1.2313535,0.0,0.0,0.0,0.6511093378067017,0.6511093378067017,link6
1763445531.7612317,d4pg_train,FAR,train,8,7,-2.613508248845648,0,387,1,-0.335,-0.062,0.271,0.37100646,-0.57686496,-2.5133164,-1.9268833,-2.9311225,0.96297014,0.0,0.0,0.0,0.8083159327507019,0.8083159327507019,link6
1763445533.1411102,d4pg_train,FAR,train,8,8,-3.4047266875210247,0,388,1,-0.291,0.417,0.251,-0.8002993,-0.6278184,-2.0999045,-1.6150112,-2.372264,1.4321913,0.0,0.0,0.0,0.768739640712738,0.768739640712738,link6
1763445534.527759,d4pg_train,FAR,train,8,9,-3.1626842248226246,0,389,1,-0.276,0.413,0.176,-0.6910202,-0.7405276,-2.2364676,-1.836292,-2.205468,1.3767706,0.0,0.0,0.0,0.8832224607467651,0.8832224607467651,link6
1763445535.9262557,d4pg_train,FAR,train,8,10,-3.073432746481021,0,390,1,-0.394,-0.174,0.277,0.62597716,-0.56446403,-2.3582993,-2.1651838,-2.6245477,0.2918486,0.0,0.0,0.0,0.8662866950035095,0.8662866950035095,link6
1763445537.3049676,d4pg_train,FAR,train,8,11,-2.8356980448658544,0,391,1,-0.396,0.073,0.247,0.07466052,-0.5754437,-2.4780717,-2.1764681,-2.4261994,1.0895705,0.0,0.0,0.0,0.8219071626663208,0.8219071626663208,link6
1763445538.704539,d4pg_train,FAR,train,8,12,-2.707208496428321,0,392,1,-0.316,0.209,0.244,-0.2856488,-0.55876994,-2.5398674,-2.0898156,-2.3477857,1.4666369,0.0,0.0,0.0,0.7296010851860046,0.7296010851860046,link6
1763445540.0891612,d4pg_train,FAR,train,8,13,-2.742174162452281,0,393,1,0.088,0.378,0.226,-1.5317909,-0.5872508,-2.2955816,-0.9937225,-2.2734923,0.78560334,0.0,0.0,0.0,0.4656757116317749,0.4656757116317749,link6
1763445541.480197,d4pg_train,FAR,train,8,14,-2.6299962565849753,0,394,1,-0.083,0.393,0.175,-0.9490534,-0.6984078,-2.435808,-1.7238086,-2.1644065,0.85016733,0.0,0.0,0.0,0.8350565433502197,0.8350565433502197,link6
1763445542.8686197,d4pg_train,FAR,train,8,15,-2.7213242818509467,0,395,1,-0.342,0.249,0.163,-0.32117662,-0.692428,-2.5000613,-2.2383723,-2.0062196,0.9128866,0.0,0.0,0.0,0.8357785940170288,0.8357785940170288,link6
1763445544.2540817,d4pg_train,FAR,train,8,16,-1.9372254945682001,0,396,1,-0.246,0.16,0.133,-0.14140274,-0.52231723,-2.48976,-0.7864741,-1.4093236,0.37463644,0.0,0.0,0.0,0.7106573581695557,0.7106573581695557,link6
1763445545.6455004,d4pg_train,FAR,train,8,17,-1.7683660928618223,0,397,1,-0.224,0.165,0.096,-0.14577413,-0.6171489,-2.5287066,-0.89903533,-1.215528,0.36292803,0.0,0.0,0.0,0.7592886686325073,0.7592886686325073,link6
1763445547.0242734,d4pg_train,FAR,train,8,18,-1.7874821286273677,0,398,1,-0.198,0.157,0.156,-0.31745097,-0.38751194,-2.5139554,-0.42321908,-1.3002297,0.5981236,0.0,0.0,0.0,0.6779509782791138,0.6779509782791138,link6
1763445548.41085,d4pg_train,FAR,train,8,19,-1.8104367433175899,0,399,1,-0.273,0.03,0.124,0.32810906,-0.4692143,-2.5183544,-0.6893236,-1.1821134,0.7947391,0.0,0.0,0.0,0.7639783024787903,0.7639783024787903,link6
1763445549.794496,d4pg_train,FAR,train,8,20,-2.306708744960106,0,400,1,-0.365,0.025,0.118,0.29670724,-0.5739507,-2.3829358,-1.0908233,-1.346224,0.8348145,0.0,0.0,0.0,1.0005706548690796,1.0005706548690796,link6
1763445551.1901262,d4pg_train,FAR,train,8,21,-2.7174104530525907,0,401,1,-0.246,0.359,0.124,-0.63569444,-0.59794176,-2.4921958,-2.1271224,-1.4024435,-0.10688277,0.0,0.0,0.0,0.7684542536735535,0.7684542536735535,link6
1763445552.575313,d4pg_train,FAR,train,8,22,-2.051330031272257,0,402,1,-0.325,0.037,0.095,0.43133786,-0.66057664,-2.5220566,-1.251756,-1.3527073,0.770337,0.0,0.0,0.0,0.6484277844429016,0.6484277844429016,link6
1763445553.970619,d4pg_train,FAR,train,8,23,-1.631190049174784,0,403,1,-0.192,-0.16,0.106,1.1485386,-0.665977,-2.5196187,-0.633943,-1.4315355,1.1567454,0.0,0.0,0.0,0.7673295140266418,0.7673295140266418,link6
1763445555.3546374,d4pg_train,FAR,train,8,24,-2.3343229470293108,0,404,1,-0.285,0.234,0.123,-0.63106877,-0.62222844,-2.190687,0.043850854,-1.5951072,0.22893694,0.0,0.0,0.0,0.7848972082138062,0.7848972082138062,link6
1763445556.732895,d4pg_train,FAR,train,8,25,-2.1244931854235114,0,405,1,-0.081,0.321,0.067,-1.1810242,-0.69408506,-2.3143058,-0.29519722,-1.3118855,0.67235994,0.0,0.0,0.0,0.39337408542633057,0.39337408542633057,link6
1763445558.127428,d4pg_train,FAR,train,8,26,-2.902790663617422,0,406,1,-0.106,0.415,0.223,-1.1629088,-0.34128165,-2.1441479,-0.23555428,-1.3801665,1.2798289,0.0,0.0,0.0,0.6829751133918762,0.6829751133918762,link6
1763445559.5140152,d4pg_train,FAR,train,8,27,-3.386994195205602,0,407,1,-0.383,0.396,0.123,-0.6529677,-0.5058139,-2.0792592,-0.4990286,-0.512418,0.56063557,0.0,0.0,0.0,1.0529334545135498,1.0529334545135498,link6
1763445560.8908966,d4pg_train,FAR,train,8,28,-3.115745466165104,0,408,1,-0.444,0.264,0.051,-0.3800714,-0.615302,-2.1633666,-0.66446435,-0.54718053,-0.049441937,0.0,0.0,0.0,0.8232533931732178,0.8232533931732178,link6
1763445562.332058,d4pg_train,FAR,train,8,29,-1.9218058122760955,0,409,1,-0.216,-0.196,0.13,1.0907308,-0.35927188,-2.509649,-0.6027225,-0.956354,0.6609599,0.0,0.0,0.0,0.6755461096763611,0.6755461096763611,link6
1763445563.7258158,d4pg_train,FAR,train,8,30,-2.210060099366917,0,410,1,-0.252,0.23,0.124,-0.30599543,-0.54984015,-2.4502263,-1.0405324,-1.330665,0.31080064,0.0,0.0,0.0,0.5052420496940613,0.5052420496940613,link6
1763445565.1301515,d4pg_train,FAR,train,8,31,-2.4633744492928056,0,411,1,0.065,0.388,0.116,-1.2660228,-0.6975127,-2.4052777,-1.3560604,-1.5987885,-0.089428194,0.0,0.0,0.0,0.7617037892341614,0.7617037892341614,link6
1763445566.5132098,d4pg_train,FAR,train,8,32,-2.7634737112718764,0,412,1,-0.37,0.183,0.204,-0.08366088,-0.56204957,-2.3781085,-1.5388857,-1.9951237,0.17967907,0.0,0.0,0.0,0.8699111342430115,0.8699111342430115,link6
1763445567.9010513,d4pg_train,FAR,train,8,33,-2.392378599160208,0,413,1,-0.281,0.251,0.128,-0.30721894,-0.6525154,-2.452971,-1.371098,-1.5555696,0.60443765,0.0,0.0,0.0,0.6945285797119141,0.6945285797119141,link6
1763445569.2878752,d4pg_train,FAR,train,8,34,-2.456577999037963,0,414,1,-0.297,0.15,0.238,-0.35155958,-0.5211835,-2.284521,0.017029364,-2.2556708,1.098682,0.0,0.0,0.0,0.7799383401870728,0.7799383401870728,link6
1763445570.6760614,d4pg_train,FAR,train,8,35,-1.8673644325426706,0,415,1,-0.017,0.251,0.151,-1.3487117,-0.5695584,-2.4566193,-0.18541056,-1.6445165,0.7829632,0.0,0.0,0.0,0.3845408260822296,0.3845408260822296,link6
1763445572.0657773,d4pg_train,FAR,train,8,36,-1.7424369119338767,0,416,1,0.043,0.273,0.089,-1.4654905,-0.59434575,-2.4244897,-0.24141723,-1.1895168,0.5231965,0.0,0.0,0.0,0.9486073851585388,0.9486073851585388,link6
1763445573.4511735,d4pg_train,FAR,train,8,37,-1.5515412868404515,0,417,1,-0.206,0.122,0.095,-0.26360208,-0.5889518,-2.4995928,-0.20264347,-1.2454726,0.61678994,0.0,0.0,0.0,0.6710562109947205,0.6710562109947205,link6
1763445574.8344202,d4pg_train,FAR,train,8,38,-1.5446480104389566,0,418,1,-0.234,0.065,0.084,-0.034740068,-0.5402367,-2.513418,-0.16350609,-0.9904444,1.3477656,0.0,0.0,0.0,0.7491834759712219,0.7491834759712219,link6
1763445576.2160835,d4pg_train,FAR,train,8,39,-1.7449779854672856,0,419,1,-0.262,0.079,0.092,-0.14840868,-0.46879444,-2.4850426,-0.111986704,-0.8762306,1.5802183,0.0,0.0,0.0,0.5970535278320312,0.5970535278320312,link6
1763445577.6024466,d4pg_train,FAR,train,8,40,-2.0850883036004833,0,420,1,-0.149,0.309,0.049,-1.0899018,-0.51922584,-2.4951794,1.0753886,-0.27698922,0.75467694,0.0,0.0,0.0,0.6740774512290955,0.6740774512290955,link6
1763445578.9793265,d4pg_train,FAR,train,8,41,-2.583514517312956,0,421,1,-0.146,0.399,0.069,-1.1328287,-0.4946774,-2.3692627,0.31556064,-0.1184896,0.46578875,0.0,0.0,0.0,0.8646556735038757,0.8646556735038757,link6
1763445580.3664918,d4pg_train,FAR,train,8,42,-2.640390593893119,0,422,1,-0.247,0.361,0.006,-0.885591,-0.6564732,-2.3414078,-0.52589524,0.024760922,0.69219255,0.0,0.0,0.0,0.5765661597251892,0.5765661597251892,link6
1763445581.7652106,d4pg_train,FAR,train,8,43,-1.9974436076436288,0,423,1,-0.199,0.265,0.024,-0.8211071,-0.5791144,-2.5193398,0.7330133,-0.048552446,1.0803173,0.0,0.0,0.0,0.717280924320221,0.717280924320221,link6
1763445583.1498559,d4pg_train,FAR,train,8,44,-2.363482383929899,0,424,1,-0.267,0.281,0.069,-0.6730985,-0.47307485,-2.4732637,0.64960825,0.0783791,1.4613595,0.0,0.0,0.0,0.8338040709495544,0.8338040709495544,link6
1763445584.5501802,d4pg_train,FAR,train,8,45,-2.7590905915000636,0,425,1,-0.345,0.226,0.199,-0.45277393,-0.1676283,-2.5654352,0.24152546,0.66223973,2.0434628,0.0,0.0,0.0,0.6075130105018616,0.6075130105018616,link6
1763445585.9323764,d4pg_train,FAR,train,8,46,-2.0525201805823934,0,426,1,-0.302,0.086,0.135,-0.1454831,-0.26875997,-2.501761,0.004442089,-0.5626042,1.7782866,0.0,0.0,0.0,0.7963399291038513,0.7963399291038513,link6
1763445587.3284621,d4pg_train,FAR,train,8,47,-2.424285693014049,0,427,1,-0.403,-0.007,0.028,0.076677024,-0.60197544,-2.3403246,0.4290588,-0.30797222,1.5293318,0.0,0.0,0.0,1.0896320343017578,1.0896320343017578,link6
1763445588.7198613,d4pg_train,FAR,train,8,48,-1.9507847916279137,0,428,1,-0.139,0.288,0.051,-1.0563666,-0.50420296,-2.5076573,0.32249194,-0.31811908,-0.12429234,0.0,0.0,0.0,0.6462610960006714,0.6462610960006714,link6
1763445590.1178036,d4pg_train,FAR,train,8,49,-2.538799645363839,0,429,1,-0.146,0.342,0.201,-1.0963156,-0.0936487,-2.4870381,0.48244938,-0.2182916,1.4949846,0.0,0.0,0.0,0.7577529549598694,0.7577529549598694,link6
1763445591.5001214,d4pg_train,FAR,train,8,50,-2.3616519327917356,0,430,1,-0.237,0.309,0.055,-0.81492454,-0.51388323,-2.4280052,0.59887934,-0.18829826,2.0358012,0.0,0.0,0.0,0.7861035466194153,0.7861035466194153,link6
1763445592.906083,d4pg_train,FAR,train,8,51,-2.7525264927459063,0,431,1,-0.344,0.296,0.066,-0.63961774,-0.5796603,-2.455035,-0.050973542,0.7403926,1.6786807,0.0,0.0,0.0,0.8552321791648865,0.8552321791648865,link6
1763445594.2884953,d4pg_train,FAR,train,8,52,-2.888791189172673,0,432,1,-0.21,0.392,0.182,-1.0003256,-0.27023217,-2.4333339,0.27935567,0.15803294,1.4344716,0.0,0.0,0.0,0.6769245862960815,0.6769245862960815,link6
1763445595.685234,d4pg_train,FAR,train,8,53,-2.2318903299392208,0,433,1,-0.087,0.3,0.2,-1.2697684,-0.14448498,-2.437397,0.34398758,-0.98093194,1.5736704,0.0,0.0,0.0,0.6649612784385681,0.6649612784385681,link6
1763445597.071709,d4pg_train,FAR,train,8,54,-2.685693722981942,0,434,1,-0.39,-0.212,0.056,0.80448544,-0.5879138,-2.3743234,1.4405637,0.70297736,2.4908879,0.0,0.0,0.0,0.8330759406089783,0.8330759406089783,link6
1763445598.4653115,d4pg_train,FAR,train,8,55,-4.361000136782319,0,435,1,-0.65,0.3,0.125,-0.39611197,-0.6584355,-1.9122225,0.3974565,0.40889397,2.0900402,0.0,0.0,0.0,0.8921288251876831,0.8921288251876831,link6
1763445599.8536308,d4pg_train,FAR,train,8,56,-5.035900129331489,0,436,1,-0.074,0.815,0.186,-1.3873019,-0.6999914,-1.6896229,-0.54038954,0.116662994,1.5345739,0.0,0.0,0.0,0.9104447960853577,0.9104447960853577,link6
1763445601.2488647,d4pg_train,FAR,train,8,57,-2.4153213026567504,0,437,1,-0.388,0.082,0.068,-0.060364116,-0.49254835,-2.5066013,0.5989769,0.360753,0.7882047,0.0,0.0,0.0,0.8357623815536499,0.8357623815536499,link6
1763445602.6335487,d4pg_train,FAR,train,8,58,-2.181127723560489,0,438,1,-0.276,0.233,0.03,-0.5303948,-0.57745147,-2.5209486,0.7676949,0.2604212,1.1897959,0.0,0.0,0.0,0.6650151610374451,0.6650151610374451,link6
1763445604.0248723,d4pg_train,FAR,train,8,59,-2.4539728476083322,0,439,1,-0.374,0.158,0.048,-0.30044663,-0.56749105,-2.338646,0.016653037,-0.3788378,2.678835,0.0,0.0,0.0,0.8539496660232544,0.8539496660232544,link6
1763445607.6916862,d4pg_train,FAR,train,9,0,-7.493259652426956,0,440,1,-0.552,-0.284,1.081,0.6283981,-0.15534844,-1.0827677,0.12329183,0.27149826,0.64104706,0.0,0.0,0.0,0.588691771030426,0.588691771030426,link6
1763445609.0747821,d4pg_train,FAR,train,9,1,-4.217315702143621,0,441,1,-0.568,0.33,0.25,-0.4326951,-0.40661404,-1.9069799,-0.4989534,-0.4252919,1.2395865,0.0,0.0,0.0,1.0768612623214722,1.0768612623214722,link6
1763445610.469597,d4pg_train,FAR,train,9,2,-2.0445791336766512,0,442,1,-0.29,0.17,0.051,-0.26568455,-0.6076348,-2.4032369,-0.5222489,-0.87274003,2.2916749,0.0,0.0,0.0,0.6997612118721008,0.6997612118721008,link6
1763445611.9139173,d4pg_train,FAR,train,9,3,-2.6663848646003045,0,443,1,-0.297,0.041,0.328,0.011566433,0.0048660967,-2.2878942,0.033534173,-1.6408241,2.439384,0.0,0.0,0.0,1.079939842224121,1.079939842224121,link6
1763445613.296615,d4pg_train,FAR,train,9,4,-3.4463170302761093,0,444,1,-0.546,0.155,0.088,-0.21980049,-0.56170994,-2.1619418,-0.6644131,0.09164896,1.996565,0.0,0.0,0.0,1.0231643915176392,1.0231643915176392,link6
1763445614.684149,d4pg_train,FAR,train,9,5,-2.975522874770775,0,445,1,-0.456,-0.194,0.003,0.5528665,-0.6843063,-2.2634177,0.5387008,0.16416179,2.1663215,0.0,0.0,0.0,0.7749361991882324,0.7749361991882324,link6
1763445616.076131,d4pg_train,FAR,train,9,6,-3.2250801167225376,0,446,1,-0.437,-0.303,0.078,0.81493014,-0.596869,-2.236839,1.3000145,0.64151394,2.0532603,0.0,0.0,0.0,0.9634673595428467,0.9634673595428467,link6
1763445617.4572926,d4pg_train,FAR,train,9,7,-2.355744152543619,0,447,1,0.005,0.355,0.16,-1.1619531,-0.42972246,-2.5031095,-1.3952703,-1.2703943,2.1142023,0.0,0.0,0.0,0.5561853051185608,0.5561853051185608,link6
1763445618.8363433,d4pg_train,FAR,train,9,8,-2.0138144669645923,0,448,1,-0.298,0.153,0.019,-0.30007917,-0.5880306,-2.5301287,-0.66026765,0.27668756,2.6336539,0.0,0.0,0.0,0.8886056542396545,0.8886056542396545,link6
1763445620.219503,d4pg_train,FAR,train,9,9,-2.8844510167142325,0,449,1,-0.403,-0.203,0.153,0.65059674,-0.5913013,-2.520174,0.35554346,1.6110878,2.979789,0.0,0.0,0.0,0.5274210572242737,0.5274210572242737,link6
1763445621.610978,d4pg_train,FAR,train,9,10,-3.2659773046491725,0,450,1,-0.107,0.478,0.235,-1.3441218,-0.25128895,-2.1600971,0.4482522,-0.7321626,1.6938617,0.0,0.0,0.0,0.6681326031684875,0.6681326031684875,link6
1763445623.0010216,d4pg_train,FAR,train,9,11,-2.7629170055309413,0,451,1,-0.139,0.432,0.077,-1.2071513,-0.5507102,-2.2010734,0.1908699,-0.69813555,1.9851503,0.0,0.0,0.0,0.8394420742988586,0.8394420742988586,link6
1763445624.3841746,d4pg_train,FAR,train,9,12,-2.797285944112661,0,452,1,-0.119,-0.435,0.109,1.4600567,-0.57605404,-2.5136118,0.26720783,1.1940198,2.636296,0.0,0.0,0.0,0.591647207736969,0.591647207736969,link6
1763445625.7713063,d4pg_train,FAR,train,9,13,-3.8074796747995374,0,453,1,-0.584,-0.224,0.107,0.27224928,-0.61112165,-1.9024383,0.8869886,-0.72966594,1.7024372,0.0,0.0,0.0,1.1500582695007324,1.1500582695007324,link6
1763445627.156435,d4pg_train,FAR,train,9,14,-3.44780539844884,0,454,1,-0.535,0.174,0.115,-0.4326834,-0.7401306,-1.8688613,0.65496343,-1.6024212,1.7975831,0.0,0.0,0.0,0.7601292133331299,0.7601292133331299,link6
1763445628.5511398,d4pg_train,FAR,train,9,15,-4.903478240879317,0,455,1,-0.713,0.183,0.355,-0.14807399,-0.5396606,-1.429044,-0.25843734,-1.4250711,2.536256,0.0,0.0,0.0,1.1968698501586914,1.1968698501586914,link6
1763445629.9378078,d4pg_train,FAR,train,9,16,-3.421719307154468,0,456,1,-0.546,-0.14,0.086,0.48618096,-0.69055116,-1.9591278,-0.6870804,-1.1679294,2.6638892,0.0,0.0,0.0,0.902187168598175,0.902187168598175,link6
1763445631.3248594,d4pg_train,FAR,train,9,17,-2.3794378158159195,0,457,1,-0.351,-0.178,0.039,0.7289208,-0.73953277,-2.2600567,-0.58247083,-1.2086293,2.746233,0.0,0.0,0.0,0.6638352870941162,0.6638352870941162,link6
1763445632.7158895,d4pg_train,FAR,train,9,18,-2.343256880481997,0,458,1,-0.055,0.304,0.234,-1.2363675,-0.5873845,-2.3876626,-0.21418232,-2.4798443,2.5344403,0.0,0.0,0.0,0.5630081295967102,0.5630081295967102,link6
1763445634.0979471,d4pg_train,FAR,train,9,19,-2.1212977326396665,0,459,1,-0.286,0.193,0.077,-0.43084443,-0.592374,-2.286403,0.077356905,-1.0366601,2.5858276,0.0,0.0,0.0,1.013659119606018,1.013659119606018,link6
1763445635.4872224,d4pg_train,FAR,train,9,20,-2.8842745970715207,0,460,1,-0.468,-0.093,0.049,0.29126266,-0.5797671,-2.295198,0.123030275,-0.03379015,2.5298917,0.0,0.0,0.0,0.667461097240448,0.667461097240448,link6
1763445636.875815,d4pg_train,FAR,train,9,21,-1.6651920296533749,0,461,1,-0.149,-0.215,0.087,0.9790328,-0.4816785,-2.5202596,0.41388494,-0.8203875,1.7202014,0.0,0.0,0.0,0.6104804277420044,0.6104804277420044,link6
1763445638.2839036,d4pg_train,FAR,train,9,22,-2.590887234292441,0,462,1,-0.33,0.139,0.241,-0.23622166,-0.10674154,-2.3468318,-0.3536299,-0.9627348,2.385444,0.0,0.0,0.0,0.8400022983551025,0.8400022983551025,link6
1763445639.6710312,d4pg_train,FAR,train,9,23,-3.029141116977422,0,463,1,-0.436,-0.239,0.087,0.6054834,-0.5296029,-2.177604,-0.20699793,-0.48593652,1.8034056,0.0,0.0,0.0,0.9094778895378113,0.9094778895378113,link6
1763445641.051741,d4pg_train,FAR,train,9,24,-1.9539514763630244,0,464,1,-0.147,0.243,0.153,-0.81192386,-0.63069326,-2.3955266,-0.2995933,-1.8957113,1.4428304,0.0,0.0,0.0,0.5605579614639282,0.5605579614639282,link6
1763445642.4397607,d4pg_train,FAR,train,9,25,-1.7465867889113138,0,465,1,-0.06,0.234,0.159,-1.0617902,-0.704854,-2.4762242,-0.14050697,-1.9497832,1.838816,0.0,0.0,0.0,0.6085067391395569,0.6085067391395569,link6
1763445643.821536,d4pg_train,FAR,train,9,26,-2.0370463741333302,0,466,1,-0.205,0.244,0.115,-0.38680413,-0.58010966,-2.513669,-1.134667,-1.3228514,2.7260656,0.0,0.0,0.0,0.7072296142578125,0.7072296142578125,link6
1763445645.2027202,d4pg_train,FAR,train,9,27,-1.480569795708648,0,467,1,-0.243,0.03,0.028,-0.026270311,-0.65026546,-2.5192802,0.39097896,-0.6340414,2.9000847,0.0,0.0,0.0,0.7861840128898621,0.7861840128898621,link6
1763445646.589196,d4pg_train,FAR,train,9,28,-3.1097917029793454,0,468,1,-0.487,0.165,0.046,-0.19771941,-0.841043,-2.3596513,0.55782187,1.4810216,3.2181618,0.0,0.0,0.0,0.6006349921226501,0.6006349921226501,link6
