QuanPM-doosan/DoosanRobot_Reinforcement_Learning/ros2_ws/rl_logs/20251126_033632_ddpg_train.csv
ts,run_tag,mode,phase,ep,step,reward,done,mem_len,learn_flag,ee_x,ee_y,ee_z,j1,j2,j3,j4,j5,j6,sphere_x,sphere_y,sphere_z,dist_out,signed,closest_link
1764102997.3045022,ddpg_train,FAR,train,1,0,-6.386789662332857,0,1,0,0.006,0.0,1.055,0.0026224302,0.0019608457,0.01222765,-0.02580852,-0.0018940727,-0.041351296,0.0,0.0,0.0,0.44796431064605713,0.44796431064605713,link6
1764102998.7049165,ddpg_train,FAR,train,1,1,-6.3700442652983345,0,2,0,0.031,0.005,1.054,0.17506906,0.0974408,-0.12197527,-0.1398515,0.01869781,0.017423213,0.0,0.0,0.0,0.4750463366508484,0.4750463366508484,link6
1764103000.098135,ddpg_train,FAR,train,1,2,-6.403051902514793,0,3,0,0.059,0.012,1.052,0.19683687,0.13737202,-0.12809567,-0.1118085,0.021294862,-0.00928163,0.0,0.0,0.0,0.4126170873641968,0.4126170873641968,link6
1764103001.4922147,ddpg_train,FAR,train,1,3,-6.384171333362535,0,4,0,0.103,0.021,1.048,0.20299795,0.16497268,-0.091494665,-0.08731368,0.015304796,-0.08381529,0.0,0.0,0.0,0.4348687529563904,0.4348687529563904,link6
1764103002.8750923,ddpg_train,FAR,train,1,4,-6.4021444523403845,0,5,0,0.083,0.008,1.051,0.08192347,0.13694385,-0.07164947,-0.05667824,-0.039110802,0.1092248,0.0,0.0,0.0,0.4182143211364746,0.4182143211364746,link6
1764103004.2649603,ddpg_train,FAR,train,1,5,-6.346655866172634,0,6,0,0.072,0.006,1.05,0.07728904,0.16739614,-0.16499558,-0.12927979,-0.033770166,0.20641616,0.0,0.0,0.0,0.5059010982513428,0.5059010982513428,link6
1764103005.6622114,ddpg_train,FAR,train,1,6,-6.305443582146574,0,7,0,0.001,0.001,1.047,0.11803661,0.1516075,-0.26993656,-0.26107445,-0.021610059,0.2960774,0.0,0.0,0.0,0.5362840890884399,0.5362840890884399,link6
1764103007.0420628,ddpg_train,FAR,train,1,7,-6.407577662234628,0,8,0,0.057,0.018,1.054,0.31474853,0.060459882,0.0160938,-0.12674631,0.0063528595,-0.333665,0.0,0.0,0.0,0.4221051335334778,0.4221051335334778,link6
1764103008.4247692,ddpg_train,FAR,train,1,8,-6.367752264052016,0,9,0,0.059,0.023,1.053,0.36168143,0.08413638,-0.03483952,0.033566464,0.011582708,-0.44816384,0.0,0.0,0.0,0.48707497119903564,0.48707497119903564,link6
1764103009.80381,ddpg_train,FAR,train,1,9,-6.437804449417625,0,10,0,0.023,0.008,1.053,0.32280445,0.09834678,-0.12774184,0.14761712,0.015921345,-0.5093777,0.0,0.0,0.0,0.37455326318740845,0.37455326318740845,link6
1764103011.1965501,ddpg_train,FAR,train,1,10,-6.425727466753084,0,11,0,0.122,0.054,1.045,0.41917634,0.12861872,0.030207941,-0.017160244,0.015078547,-0.683801,0.0,0.0,0.0,0.3864819407463074,0.3864819407463074,link6
1764103012.5785968,ddpg_train,FAR,train,1,11,-6.350510518695895,0,12,0,0.06,0.025,1.053,0.39187995,0.113160826,-0.078182355,0.06498401,0.0125703085,-0.7663819,0.0,0.0,0.0,0.5497503876686096,0.5497503876686096,link6
1764103013.963423,ddpg_train,FAR,train,1,12,-6.322630235465309,0,13,0,-0.052,-0.018,1.049,0.3385252,0.05553691,-0.2152199,0.19900228,0.0043366738,-0.8099514,0.0,0.0,0.0,0.552263617515564,0.552263617515564,link6
1764103015.3557591,ddpg_train,FAR,train,1,13,-6.23267350019846,0,14,0,-0.09,-0.038,1.032,0.41213876,0.10443841,-0.36792868,-0.06385769,-0.10854635,-0.3280031,0.0,0.0,0.0,0.5952921509742737,0.5952921509742737,link6
1764103016.7533572,ddpg_train,FAR,train,1,14,-6.285656758007381,0,15,0,-0.073,-0.027,1.04,0.3772479,0.08628311,-0.27732837,-0.14681539,-0.12316163,-0.3291159,0.0,0.0,0.0,0.5177652835845947,0.5177652835845947,link6
1764103020.4003384,ddpg_train,FAR,train,2,0,-6.36004114260681,0,16,0,0.019,0.002,1.053,0.28776032,0.08674322,-0.08036163,0.18823354,-0.16444522,-0.07299952,0.0,0.0,0.0,0.4803588390350342,0.4803588390350342,link6
1764103021.7886715,ddpg_train,FAR,train,2,1,-6.503953242386867,0,17,0,0.117,0.015,1.046,0.1434324,0.10507371,0.09621606,0.12655702,-0.1622599,-0.14615075,0.0,0.0,0.0,0.32798314094543457,0.32798314094543457,link6
1764103023.1807253,ddpg_train,FAR,train,2,2,-6.33764793272586,0,18,0,0.174,0.012,1.036,0.0661213,0.13153066,0.15249279,-0.058532707,-0.16627961,-0.21340728,0.0,0.0,0.0,0.4985710382461548,0.4985710382461548,link6
1764103024.56864,ddpg_train,FAR,train,2,3,-6.359319403800814,0,19,0,0.017,0.013,1.053,0.2216899,0.07088608,-0.05182332,-0.41634738,-0.16734543,-0.43403882,0.0,0.0,0.0,0.4827946424484253,0.4827946424484253,link6
1764103025.9536948,ddpg_train,FAR,train,2,4,-6.38074359532698,0,20,0,0.045,0.017,1.053,0.2382168,0.072592124,-0.004074987,-0.37591186,-0.13534454,-0.62402064,0.0,0.0,0.0,0.4489087462425232,0.4489087462425232,link6
1764103027.3363976,ddpg_train,FAR,train,2,5,-6.384827369667743,0,21,0,0.065,0.02,1.052,0.22907759,0.08248611,0.0127539635,-0.36797342,-0.11093969,-0.67341304,0.0,0.0,0.0,0.44286662340164185,0.44286662340164185,link6
1764103028.7162106,ddpg_train,FAR,train,2,6,-6.362982219929572,0,22,0,0.001,0.003,1.055,0.59472704,0.027982885,-0.022210458,-0.107832946,-0.10800786,-0.099430315,0.0,0.0,0.0,0.5022087097167969,0.5022087097167969,link6
1764103030.100731,ddpg_train,FAR,train,2,7,-6.36098235352542,0,23,0,-0.006,-0.004,1.055,0.69938546,0.0053572133,-0.0065529062,-0.0878325,-0.07117129,0.059545178,0.0,0.0,0.0,0.508855938911438,0.508855938911438,link6
1764103031.4748645,ddpg_train,FAR,train,2,8,-6.368705929272152,0,24,0,-0.003,-0.002,1.055,0.7397596,-0.01020865,0.026214981,-0.017281586,-0.055022933,0.114016,0.0,0.0,0.0,0.48621559143066406,0.48621559143066406,link6
1764103032.860468,ddpg_train,FAR,train,2,9,-6.36994811642838,0,25,0,0.076,0.031,1.046,0.3988756,-0.030699424,0.2309213,0.28999037,-0.02513611,0.04447802,0.0,0.0,0.0,0.4204307794570923,0.4204307794570923,link6
1764103034.2410738,ddpg_train,FAR,train,2,10,-6.355160101865947,0,26,0,0.041,0.018,1.052,0.4533043,-0.037715312,0.16133031,0.62641007,-0.024725487,-0.06754644,0.0,0.0,0.0,0.4894319772720337,0.4894319772720337,link6
1764103035.6286726,ddpg_train,FAR,train,2,11,-6.347829255778492,0,27,0,0.0,-0.002,1.055,0.49698168,-0.0491655,0.08470394,0.7478454,-0.024228206,-0.14092015,0.0,0.0,0.0,0.5636990666389465,0.5636990666389465,link6
1764103037.0176756,ddpg_train,FAR,train,2,12,-6.352217756057048,0,28,0,-0.01,-0.005,1.053,0.33141902,-0.0843087,0.14408004,0.3568998,-0.030245006,-0.077427775,0.0,0.0,0.0,0.49949103593826294,0.49949103593826294,link6
1764103038.4125445,ddpg_train,FAR,train,2,13,-6.34572583490948,0,29,0,-0.034,-0.014,1.054,0.33350185,-0.051725037,0.028306883,0.31393427,-0.06745029,-0.2208655,0.0,0.0,0.0,0.5633577108383179,0.5633577108383179,link6
1764103039.8002846,ddpg_train,FAR,train,2,14,-6.3223828370177,0,30,0,-0.08,-0.034,1.049,0.37352434,-0.02153573,-0.11829428,0.263449,-0.09266139,-0.35039213,0.0,0.0,0.0,0.6598705053329468,0.6598705053329468,link6
1764103043.4482436,ddpg_train,FAR,train,3,0,-6.33418616659029,0,31,0,-0.071,-0.043,1.05,0.55265254,-0.030792642,-0.11031432,0.23927242,-0.03622626,-0.4005704,0.0,0.0,0.0,0.5840901136398315,0.5840901136398315,link6
1764103044.844228,ddpg_train,FAR,train,3,1,-6.391808749976084,0,32,0,-0.066,-0.057,1.051,0.6871351,-0.061001115,-0.040507197,0.27385363,-0.044560224,-0.42901918,0.0,0.0,0.0,0.4356154799461365,0.4356154799461365,link6
1764103046.2391684,ddpg_train,FAR,train,3,2,-6.346817661954255,0,33,1,-0.057,-0.018,1.053,0.31552082,-0.021030143,-0.085466936,0.07547736,0.0038637263,-0.39322472,0.0,0.0,0.0,0.559154212474823,0.559154212474823,link6
1764103047.62663,ddpg_train,FAR,train,3,3,-6.32163868054295,0,34,1,-0.1,-0.02,1.047,0.19413118,-0.038368892,-0.14232294,-0.0635751,-0.01615169,-0.3180695,0.0,0.0,0.0,0.6223689317703247,0.6223689317703247,link6
1764103049.0166612,ddpg_train,FAR,train,3,4,-6.348231116603283,0,35,1,-0.103,-0.022,1.047,0.20926888,-0.039706815,-0.13538045,0.001764806,-0.025837326,-0.26310572,0.0,0.0,0.0,0.49754798412323,0.49754798412323,link6
1764103050.3986096,ddpg_train,FAR,train,3,5,-6.369268452122913,0,36,1,0.013,0.009,1.055,0.58308756,0.05819957,-0.072069764,-0.07251858,-0.007875047,-0.18995431,0.0,0.0,0.0,0.4865040183067322,0.4865040183067322,link6
1764103051.7894313,ddpg_train,FAR,train,3,6,-6.397209185105648,0,37,1,0.047,0.034,1.054,0.6309237,0.07701251,-0.021134406,-0.24136414,0.010337465,-0.26384574,0.0,0.0,0.0,0.4363972544670105,0.4363972544670105,link6
1764103053.194492,ddpg_train,FAR,train,3,7,-6.454363888735385,0,38,1,0.094,0.063,1.048,0.59236765,0.10736678,0.03361859,-0.36364844,0.010651184,-0.2651694,0.0,0.0,0.0,0.3651086091995239,0.3651086091995239,link6
1764103054.5968595,ddpg_train,FAR,train,3,8,-6.518858877997634,0,39,1,0.187,0.035,1.033,0.18286653,0.13184361,0.15007833,-0.38134658,-0.0035027235,-0.25927544,0.0,0.0,0.0,0.3139038681983948,0.3139038681983948,link6
1764103055.9781988,ddpg_train,FAR,train,3,9,-6.4966223819264055,0,40,1,0.218,0.047,1.021,0.20149288,0.120196894,0.24769178,-0.46051311,-0.043222547,-0.2256567,0.0,0.0,0.0,0.3095797300338745,0.3095797300338745,link6
1764103057.372993,ddpg_train,FAR,train,3,10,-6.361481797721179,0,41,1,0.214,0.044,1.02,0.18374936,0.10129452,0.27603605,-0.5813186,-0.053317036,-0.2596466,0.0,0.0,0.0,0.3885694146156311,0.3885694146156311,link6
1764103058.7870848,ddpg_train,FAR,train,3,11,-6.36942682962883,0,42,1,0.021,-0.006,1.055,-0.18603028,0.017350908,0.0022603385,-0.9063087,0.02811702,-0.5436633,0.0,0.0,0.0,0.48777514696121216,0.48777514696121216,link6
1764103060.2371466,ddpg_train,FAR,train,3,12,-6.386180690896553,0,43,1,0.035,-0.02,1.055,-0.4804882,0.037431993,0.0117672,-0.7910081,0.02171655,-0.46950847,0.0,0.0,0.0,0.4574417471885681,0.4574417471885681,link6
1764103061.6143878,ddpg_train,FAR,train,3,13,-6.398443188242865,0,44,1,0.055,-0.044,1.053,-0.6558211,0.058889993,0.034376487,-0.70959187,0.01532389,-0.38269907,0.0,0.0,0.0,0.4322625398635864,0.4322625398635864,link6
1764103063.0074918,ddpg_train,FAR,train,3,14,-6.4241868578829235,0,45,1,0.123,-0.088,1.04,-0.60260034,0.085651435,0.14678518,-0.7296618,0.036260877,-0.3801913,0.0,0.0,0.0,0.3741839528083801,0.3741839528083801,link6
1764103066.6610448,ddpg_train,FAR,train,4,0,-6.36898466956587,0,46,1,0.007,-0.001,1.055,-0.1904025,0.013841312,-0.0115864165,-0.24964541,0.009043586,-0.16451876,0.0,0.0,0.0,0.48576784133911133,0.48576784133911133,link6
1764103068.1273677,ddpg_train,FAR,train,4,1,-6.396978999218948,0,47,1,0.07,-0.031,1.052,-0.3245152,0.081791915,-0.008676551,-0.7902928,0.07708133,-0.48069328,0.0,0.0,0.0,0.42934709787368774,0.42934709787368774,link6
1764103069.507324,ddpg_train,FAR,train,4,2,-6.378722539297889,0,48,1,0.061,-0.03,1.053,-0.38034177,0.090089396,-0.04742425,-0.70705044,0.071231015,-0.34633052,0.0,0.0,0.0,0.4654970169067383,0.4654970169067383,link6
1764103070.8997073,ddpg_train,FAR,train,4,3,-6.423554934223528,0,49,1,0.062,-0.028,1.053,-0.36300534,0.097882025,-0.05311312,-0.6476861,0.054118954,-0.31017673,0.0,0.0,0.0,0.39912450313568115,0.39912450313568115,link6
1764103072.2852564,ddpg_train,FAR,train,4,4,-6.384073318179027,0,50,1,0.051,-0.041,1.053,-0.63388973,0.044701274,0.04166826,-0.7001187,0.039850816,-0.3285617,0.0,0.0,0.0,0.453032910823822,0.453032910823822,link6
1764103073.6745372,ddpg_train,FAR,train,4,5,-6.448102106371811,0,51,1,0.11,-0.086,1.043,-0.6415661,0.08551336,0.13204466,-0.7707676,0.03423225,-0.3203296,0.0,0.0,0.0,0.36173075437545776,0.36173075437545776,link6
1764103075.0911517,ddpg_train,FAR,train,4,6,-6.405842848936899,0,52,1,0.17,-0.136,1.023,-0.6664857,0.12239598,0.22272074,-0.8100176,0.038174614,-0.2786636,0.0,0.0,0.0,0.36466580629348755,0.36466580629348755,link6
1764103076.4890604,ddpg_train,FAR,train,4,7,-6.470557018737361,0,53,1,0.185,-0.146,1.016,-0.6570389,0.12241117,0.2597482,-0.75902987,0.01754655,0.007050733,0.0,0.0,0.0,0.31572794914245605,0.31572794914245605,link6
1764103077.8877213,ddpg_train,FAR,train,4,8,-6.395931975498673,0,54,1,0.18,-0.142,1.021,-0.67703867,0.1435438,0.21065632,-0.7665641,-0.025097124,0.12882596,0.0,0.0,0.0,0.3751752972602844,0.3751752972602844,link6
1764103079.2711992,ddpg_train,FAR,train,4,9,-6.411547049365452,0,55,1,0.153,-0.121,1.031,-0.69028884,0.13288903,0.17079823,-0.7942587,-0.049975906,0.21851353,0.0,0.0,0.0,0.3765304684638977,0.3765304684638977,link6
1764103080.651915,ddpg_train,FAR,train,4,10,-6.457670501696775,0,56,1,0.149,-0.067,1.04,-0.45256835,0.13697074,0.088425145,-0.7907247,-0.063269086,0.3791493,0.0,0.0,0.0,0.35673749446868896,0.35673749446868896,link6
1764103082.0459554,ddpg_train,FAR,train,4,11,-6.492544992077921,0,57,1,0.197,-0.13,1.021,-0.61351717,0.1785679,0.17348795,-0.72437197,-0.0654695,0.38463935,0.0,0.0,0.0,0.31942522525787354,0.31942522525787354,link6
1764103083.4434345,ddpg_train,FAR,train,4,12,-6.343578722766136,0,58,1,0.206,-0.196,1.004,-0.791343,0.21082917,0.21726698,-0.7500415,-0.06347536,0.39384833,0.0,0.0,0.0,0.4102597236633301,0.4102597236633301,link6
1764103084.8230326,ddpg_train,FAR,train,4,13,-6.427833329038008,0,59,1,0.127,-0.119,1.038,-0.799868,0.21511582,-0.03353896,-1.0287486,-0.09185639,0.41245496,0.0,0.0,0.0,0.3790719509124756,0.3790719509124756,link6
1764103086.209682,ddpg_train,FAR,train,4,14,-6.413297214465271,0,60,1,0.153,-0.108,1.035,-0.6798856,0.21937622,-0.013573958,-1.1268784,-0.11739632,0.68315977,0.0,0.0,0.0,0.38877683877944946,0.38877683877944946,link6
1764103089.8715963,ddpg_train,FAR,train,5,0,-6.402737612980257,0,61,1,0.086,-0.05,1.049,-0.62578166,0.14631574,-0.042546514,-0.7129435,-0.115736306,0.77581906,0.0,0.0,0.0,0.41289395093917847,0.41289395093917847,link6
1764103091.2541115,ddpg_train,FAR,train,5,1,-6.393482668734153,0,62,1,0.091,-0.062,1.048,-0.71061486,0.12096035,0.028516252,-0.7267336,-0.15366773,0.9658542,0.0,0.0,0.0,0.42563605308532715,0.42563605308532715,link6
1764103092.6511867,ddpg_train,FAR,train,5,2,-6.424916213776475,0,63,1,0.108,-0.085,1.043,-0.7540024,0.10876559,0.110584095,-0.70407724,-0.1526732,1.1206737,0.0,0.0,0.0,0.37914061546325684,0.37914061546325684,link6
1764103094.0323029,ddpg_train,FAR,train,5,3,-6.3979655002627975,0,64,1,0.088,-0.07,1.047,-0.7400425,0.07387883,0.11091035,-0.72705746,-0.092325516,1.7663558,0.0,0.0,0.0,0.4137166738510132,0.4137166738510132,link6
1764103095.4195108,ddpg_train,FAR,train,5,4,-6.35885528613744,0,65,1,0.032,-0.034,1.053,-1.0310932,0.103015535,-0.09074747,-0.69734836,-0.109197736,1.7069608,0.0,0.0,0.0,0.4971967339515686,0.4971967339515686,link6
1764103096.8079247,ddpg_train,FAR,train,5,5,-6.356286920383472,0,66,1,0.014,-0.006,1.051,-1.1480467,0.10459534,-0.14105164,-0.735035,-0.12132042,1.6765565,0.0,0.0,0.0,0.46127039194107056,0.46127039194107056,link6
1764103098.1998851,ddpg_train,FAR,train,5,6,-6.370046480651565,0,67,1,0.033,-0.03,1.053,-0.94598556,-0.0030425533,0.108667694,-0.8844143,-0.09264753,1.5479598,0.0,0.0,0.0,0.46802741289138794,0.46802741289138794,link6
1764103099.6162014,ddpg_train,FAR,train,5,7,-6.340711994746227,0,68,1,0.054,-0.09,1.042,-1.1445746,-0.020096406,0.2708114,-0.9832559,-0.10314476,1.3027735,0.0,0.0,0.0,0.44728076457977295,0.44728076457977295,link6
1764103101.0088341,ddpg_train,FAR,train,5,8,-6.308299606748566,0,69,1,0.065,-0.146,1.027,-1.2198563,-0.0072036884,0.36460912,-0.9840563,-0.10824682,1.151776,0.0,0.0,0.0,0.42386215925216675,0.42386215925216675,link6
1764103102.410853,ddpg_train,FAR,train,5,9,-6.3235247049233205,0,70,1,0.053,-0.122,1.036,-1.2541045,-0.0013204111,0.2895939,-1.1005801,-0.11363467,1.0998175,0.0,0.0,0.0,0.4482960104942322,0.4482960104942322,link6
1764103103.797626,ddpg_train,FAR,train,5,10,-6.30880372200867,0,71,1,0.064,-0.164,1.026,-1.2720591,0.022982338,0.3395299,-1.0060191,-0.124603994,1.1260812,0.0,0.0,0.0,0.43765825033187866,0.43765825033187866,link6
1764103105.1956713,ddpg_train,FAR,train,5,11,-6.276506127198248,0,72,1,0.078,-0.208,1.009,-1.270378,0.038822405,0.41379666,-0.9845289,-0.12325878,1.1729227,0.0,0.0,0.0,0.41666728258132935,0.41666728258132935,link6
1764103106.599883,ddpg_train,FAR,train,5,12,-6.205561057427167,0,73,1,0.047,-0.24,0.996,-1.4349095,0.028560963,0.4793969,-1.0313388,-0.12246092,1.3063052,0.0,0.0,0.0,0.4564990997314453,0.4564990997314453,link6
1764103107.976674,ddpg_train,FAR,train,5,13,-6.20716569745581,0,74,1,0.016,-0.266,0.994,-1.568107,0.08240828,0.43094194,-0.98531955,-0.14450279,1.1617825,0.0,0.0,0.0,0.5034040212631226,0.5034040212631226,link6
1764103109.357778,ddpg_train,FAR,train,5,14,-6.250825352809882,0,75,1,-0.009,-0.261,1.003,-1.6668501,0.12048754,0.34645507,-0.9649939,-0.15698688,1.0980301,0.0,0.0,0.0,0.5045962929725647,0.5045962929725647,link6
1764103113.037079,ddpg_train,FAR,train,6,0,-6.365887424194878,0,76,1,0.029,-0.043,1.053,-1.1223589,0.080787435,-0.024592921,-0.64048296,-0.092274085,0.83758366,0.0,0.0,0.0,0.48226237297058105,0.48226237297058105,link6
1764103114.4549146,ddpg_train,FAR,train,6,1,-6.355638514982565,0,77,1,0.018,-0.056,1.051,-1.4891518,0.12679745,-0.09567021,-0.9474792,-0.13471779,1.0409527,0.0,0.0,0.0,0.48340821266174316,0.48340821266174316,link6
1764103115.8480504,ddpg_train,FAR,train,6,2,-6.347174505811529,0,78,1,0.004,-0.047,1.051,-1.9928193,0.10295211,-0.0965778,-1.4045576,-0.1843684,1.0188982,0.0,0.0,0.0,0.4966811537742615,0.4966811537742615,link6
1764103117.2464669,ddpg_train,FAR,train,6,3,-6.329261617903663,0,79,1,0.032,-0.003,1.045,-1.9663782,0.12525165,-0.24696364,-1.4102757,-0.25400072,1.1248549,0.0,0.0,0.0,0.4486556053161621,0.4486556053161621,link6
1764103118.6379058,ddpg_train,FAR,train,6,4,-6.303340305630873,0,80,1,0.058,0.043,1.034,-1.9934995,0.118601136,-0.34127325,-1.4397137,-0.28900656,1.2083848,0.0,0.0,0.0,0.4083595275878906,0.4083595275878906,link6
1764103120.046379,ddpg_train,FAR,train,6,5,-6.268182037716901,0,81,1,0.09,0.113,1.021,-2.063635,0.07181703,-0.4199525,-1.3697721,-0.2113481,1.1554298,0.0,0.0,0.0,0.4120689332485199,0.4120689332485199,link6
1764103121.4331827,ddpg_train,FAR,train,6,6,-6.24694170997902,0,82,1,0.072,0.116,1.022,-1.9494054,0.083279505,-0.43248066,-1.5350884,-0.18519552,1.2140148,0.0,0.0,0.0,0.44150882959365845,0.44150882959365845,link6
1764103122.8207572,ddpg_train,FAR,train,6,7,-6.24740734045045,0,83,1,0.059,0.106,1.025,-1.9138964,0.09943124,-0.43109936,-1.5599719,-0.16191463,1.2169088,0.0,0.0,0.0,0.4519304633140564,0.4519304633140564,link6
1764103124.2112765,ddpg_train,FAR,train,6,8,-6.328806760762973,0,84,1,0.017,-0.007,1.048,-1.833176,0.13187481,-0.22071749,-1.2114121,-0.15932503,1.4067091,0.0,0.0,0.0,0.4832339882850647,0.4832339882850647,link6
1764103125.6343899,ddpg_train,FAR,train,6,9,-6.331275634187421,0,85,1,0.018,-0.008,1.048,-1.8318268,0.12396129,-0.20305744,-1.1208792,-0.17239924,1.5473143,0.0,0.0,0.0,0.4775601625442505,0.4775601625442505,link6
1764103127.0128794,ddpg_train,FAR,train,6,10,-6.329831684776815,0,86,1,0.035,0.051,1.041,-1.8567139,0.103420384,-0.29889536,-1.0902675,-0.17072032,1.6813489,0.0,0.0,0.0,0.42292648553848267,0.42292648553848267,link6
1764103128.400688,ddpg_train,FAR,train,6,11,-6.217424237876488,0,87,1,0.133,0.194,0.991,-2.130545,0.019255491,-0.5298861,-1.1614488,-0.08194282,2.0358725,0.0,0.0,0.0,0.38515257835388184,0.38515257835388184,link6
1764103129.789307,ddpg_train,FAR,train,6,12,-6.294794128970152,0,88,1,0.153,0.148,1.003,-2.3437984,0.01820685,-0.46626717,-1.1948208,-0.08818348,1.9498369,0.0,0.0,0.0,0.35560670495033264,0.35560670495033264,link6
1764103131.1824408,ddpg_train,FAR,train,6,13,-6.35708193542644,0,89,1,0.154,0.104,1.017,-2.493278,0.009118175,-0.39766404,-1.1938205,-0.09184253,1.8704998,0.0,0.0,0.0,0.347989022731781,0.347989022731781,link6
1764103132.5610461,ddpg_train,FAR,train,6,14,-6.410109245643639,0,90,1,0.137,0.071,1.035,-2.5900416,-0.038274884,-0.23908018,-1.2225428,-0.095092185,1.8843328,0.0,0.0,0.0,0.3638383746147156,0.3638383746147156,link6
1764103136.220652,ddpg_train,FAR,train,7,0,-6.3612811431689975,0,91,1,-0.023,0.013,1.055,-0.5618834,-0.023085954,-0.011605592,-0.16383918,-0.020033684,0.09862325,0.0,0.0,0.0,0.5139721035957336,0.5139721035957336,link6
1764103137.6264563,ddpg_train,FAR,train,7,1,-6.366528027244913,0,92,1,-0.013,0.068,1.053,-1.3422474,-0.057423927,-0.023046756,-0.4102388,-0.04992859,0.26444036,0.0,0.0,0.0,0.4965065121650696,0.4965065121650696,link6
1764103139.0145206,ddpg_train,FAR,train,7,2,-6.369779979719354,0,93,1,0.014,0.059,1.053,-1.6916397,-0.042777725,-0.033019833,-0.79656607,-0.08290765,0.61304754,0.0,0.0,0.0,0.4796019196510315,0.4796019196510315,link6
1764103140.4010992,ddpg_train,FAR,train,7,3,-6.387055446156272,0,94,1,0.041,0.079,1.049,-1.9162606,-0.035073377,-0.098340705,-0.9184033,-0.123702236,0.77850795,0.0,0.0,0.0,0.4262428879737854,0.4262428879737854,link6
1764103141.7999954,ddpg_train,FAR,train,7,4,-6.36978032950326,0,95,1,0.116,0.117,1.031,-2.2701087,-0.036899414,-0.251183,-0.8727007,-0.13933402,1.0869092,0.0,0.0,0.0,0.3860457241535187,0.3860457241535187,link6
1764103143.2118359,ddpg_train,FAR,train,7,5,-6.249289338356762,0,96,1,0.119,0.221,0.998,-2.0325272,-0.05593077,-0.41154647,-0.65981215,-0.09388428,1.3680168,0.0,0.0,0.0,0.42022642493247986,0.42022642493247986,link6
1764103144.6336477,ddpg_train,FAR,train,7,6,-6.2362028487778955,0,97,1,0.141,0.266,0.975,-2.050024,-0.08301682,-0.47725204,-0.5268405,-0.06911995,1.5484979,0.0,0.0,0.0,0.3783910572528839,0.3783910572528839,link6
1764103146.0164208,ddpg_train,FAR,train,7,7,-6.270991766974619,0,98,1,0.21,0.26,0.962,-2.2237396,-0.12682222,-0.46958035,-0.82204765,-0.09662015,1.9037629,0.0,0.0,0.0,0.3438427448272705,0.3438427448272705,link6
1764103147.447753,ddpg_train,FAR,train,7,8,-6.246522309305093,0,99,1,0.216,0.271,0.954,-2.220659,-0.1323884,-0.48449957,-0.6305644,-0.110278204,2.1372564,0.0,0.0,0.0,0.34637680649757385,0.34637680649757385,link6
1764103148.8353581,ddpg_train,FAR,train,7,9,-6.49456474279419,0,100,1,0.277,0.293,0.911,-2.311722,-0.14984438,-0.60016733,-0.5809525,-0.119079396,2.1673295,0.0,0.0,0.0,0.22689373791217804,0.22689373791217804,link6
1764103150.221475,ddpg_train,FAR,train,7,10,-6.97528406613697,0,101,1,0.365,0.154,0.905,-2.72892,-0.11523994,-0.631956,-0.25516632,-0.18839674,2.4708858,0.0,0.0,0.0,0.15627217292785645,0.15627217292785645,link6
1764103151.6163032,ddpg_train,FAR,train,7,11,-6.830838093746333,0,102,1,0.495,0.204,0.74,-2.747583,-0.20022486,-0.95018166,-0.08541008,-0.19224702,2.377774,0.0,0.0,0.0,0.13088664412498474,0.13088664412498474,link6
1764103153.0108628,ddpg_train,FAR,train,7,12,-6.868397805720594,0,103,1,0.571,0.219,0.584,-2.7812583,-0.31249875,-1.144099,0.041869115,-0.17728867,2.2597742,0.0,0.0,0.0,0.10245823860168457,0.10245823860168457,link6
1764103154.4696681,ddpg_train,MID,train,7,13,-6.805795383347842,0,104,1,0.574,0.166,0.521,-2.8635597,-0.26160577,-1.34342,0.21173425,-0.07470955,2.0296612,0.0,0.0,0.0,0.08919796347618103,0.08919796347618103,link6
1764103155.922074,ddpg_train,MID,train,7,14,-7.79910101583402,0,105,1,0.599,0.143,0.451,-2.9124982,-0.3273937,-1.4035103,0.2241078,-0.07338088,2.0726082,0.0,0.0,0.0,0.04403030872344971,0.04403030872344971,link6
1764103159.578213,ddpg_train,FAR,train,8,0,-6.412088941351534,0,106,1,0.146,0.163,1.02,-2.3221424,-0.09899791,-0.2783738,0.07282142,0.001089528,0.9726618,0.0,0.0,0.0,0.3487834334373474,0.3487834334373474,link6
1764103160.9630544,ddpg_train,FAR,train,8,1,-10.43350676363923,0,107,1,0.428,0.104,0.886,-2.9078724,-0.18584196,-0.65284,-0.048412357,-0.013650092,1.805796,0.0,0.0,0.0,0.010606005787849426,0.010606005787849426,link6
1764103162.4606388,ddpg_train,NEAR,train,8,2,-5.980382371257914,0,108,1,0.294,0.304,0.901,-2.2368927,-0.16158134,-0.5925505,-0.04441753,-0.020642838,1.571082,0.0,0.0,0.0,0.6378397941589355,0.6378397941589355,link6
1764103163.8844566,ddpg_train,FAR,train,8,3,-8.777288562026733,0,109,1,0.579,0.16,0.54,-2.8872018,-0.27552003,-1.3022482,-0.46970248,-0.12182862,2.377562,0.0,0.0,0.0,0.024057984352111816,0.024057984352111816,link6
1764103165.3965478,ddpg_train,NEAR,train,8,4,-5.490842650202073,0,110,1,0.216,0.486,0.744,-1.9792273,-0.19222918,-0.9653772,-0.31142342,-0.081377156,1.6596086,0.0,0.0,0.0,0.7239710092544556,0.7239710092544556,link6
1764103166.7772615,ddpg_train,FAR,train,8,5,-8.962156308968506,0,111,1,0.597,0.094,0.526,-2.9788508,-0.2841634,-1.3072563,-0.4217766,-0.105445586,2.4074852,0.0,0.0,0.0,0.01851356029510498,0.01851356029510498,link6
1764103168.2863085,ddpg_train,NEAR,train,8,6,-5.765014343087214,0,112,1,0.042,0.481,0.83,-1.6548889,-0.18359096,-0.78149056,-0.1325157,-0.06570788,1.3297153,0.0,0.0,0.0,0.7212550640106201,0.7212550640106201,link6
1764103169.697898,ddpg_train,FAR,train,8,7,-8.09980907822647,0,113,1,-0.018,0.492,0.837,-1.6271163,-0.23128712,-0.7387915,-0.093983285,-0.062390167,1.2228622,0.0,0.0,0.0,0.07881391048431396,0.07881391048431396,link6
1764103171.146245,ddpg_train,MID,train,8,8,-6.159883112402673,0,114,1,-0.021,0.343,0.965,-1.5007774,-0.16843422,-0.41543657,-0.25025877,-0.028376868,0.9262903,0.0,0.0,0.0,0.5898451209068298,0.5898451209068298,link6
1764103172.5950696,ddpg_train,FAR,train,8,9,-6.826316435864741,0,115,1,0.248,0.388,0.878,-2.2012727,-0.22335666,-0.6303031,-0.29364648,-0.049406767,1.6717662,0.0,0.0,0.0,0.17398418486118317,0.17398418486118317,link6
1764103173.9929037,ddpg_train,FAR,train,8,10,-6.966917626550588,0,116,1,0.482,0.259,0.771,-2.6475496,-0.27443814,-0.8317761,-0.30186576,-0.06081925,2.186687,0.0,0.0,0.0,0.1351458728313446,0.1351458728313446,link6
1764103175.3702686,ddpg_train,FAR,train,8,11,-59.8521009882318,1,117,1,0.6,0.088,0.535,-3.0004416,-0.28389525,-1.2923466,-0.09634457,-0.07489661,3.0302963,0.0,0.0,0.0,0.0,-0.010608047246932983,link6
1764103179.0455544,ddpg_train,FAR,train,9,0,-6.370286999357305,0,118,1,-0.011,0.005,1.055,-0.40157747,-0.014889372,0.0072553074,-0.11854822,-0.015217553,0.34174284,0.0,0.0,0.0,0.48315227031707764,0.48315227031707764,link6
1764103180.4277823,ddpg_train,FAR,train,9,1,-6.3665142731101865,0,119,1,0.024,0.088,1.05,-1.804108,-0.05585386,-0.076342076,-0.6304958,-0.037494913,1.5363964,0.0,0.0,0.0,0.47609466314315796,0.47609466314315796,link6
1764103181.8252668,ddpg_train,FAR,train,9,2,-7.350638806003396,0,120,1,0.316,0.273,0.895,-2.4403877,-0.1463684,-0.68314654,-0.4268774,-0.047138993,2.1448867,0.0,0.0,0.0,0.12553587555885315,0.12553587555885315,link6
1764103183.2291164,ddpg_train,FAR,train,9,3,-7.680707835900822,0,121,1,0.561,0.208,0.64,-2.781796,-0.28803217,-1.077378,-0.29946256,-0.06510663,2.6114304,0.0,0.0,0.0,0.07240220904350281,0.07240220904350281,link6
1764103184.6855526,ddpg_train,MID,train,9,4,-5.654096769854798,0,122,1,0.002,0.486,0.806,-1.5530492,-0.14582086,-0.86891603,0.0057659033,-0.072632514,1.6954018,0.0,0.0,0.0,0.6576279997825623,0.6576279997825623,link6
1764103186.0711815,ddpg_train,FAR,train,9,5,-6.545760081172842,0,123,1,0.268,0.391,0.842,-2.174352,-0.18120681,-0.75870264,0.15764287,-0.05543848,1.9112358,0.0,0.0,0.0,0.1899566799402237,0.1899566799402237,link6
1764103187.4592834,ddpg_train,FAR,train,9,6,-6.859537451733327,0,124,1,0.398,0.2,0.877,-2.678049,-0.18413734,-0.6818283,0.2981605,-0.050268374,2.1590612,0.0,0.0,0.0,0.16526146233081818,0.16526146233081818,link6
1764103188.8467195,ddpg_train,FAR,train,9,7,-8.522688519602559,0,125,1,0.527,0.136,0.715,-2.9057693,-0.19212165,-1.0317645,0.66124916,-0.091065176,2.2427256,0.0,0.0,0.0,0.04680231213569641,0.04680231213569641,link6
1764103190.3523426,ddpg_train,NEAR,train,9,8,-5.912244126859253,0,126,1,0.26,0.325,0.888,-2.2544832,-0.12245789,-0.705638,0.6011996,-0.06467104,1.7122642,0.0,0.0,0.0,0.5183033347129822,0.5183033347129822,link6
1764103191.733803,ddpg_train,FAR,train,9,9,-6.5235379058445675,0,127,1,0.021,0.257,0.999,-1.679498,-0.07883728,-0.39641702,0.5144148,-0.040368162,1.2255229,0.0,0.0,0.0,0.27087879180908203,0.27087879180908203,link6
1764103193.174911,ddpg_train,FAR,train,9,10,-6.408183223958448,0,128,1,0.159,0.111,1.029,-2.5275512,-0.09952363,-0.20495316,-0.070316344,-0.05695247,1.8057809,0.0,0.0,0.0,0.36847856640815735,0.36847856640815735,link6
1764103194.5863197,ddpg_train,FAR,train,9,11,-6.385077030441678,0,129,1,0.142,0.127,1.031,-2.4028084,-0.10768781,-0.18479547,-0.11061877,-0.03895144,1.9157757,0.0,0.0,0.0,0.39700955152511597,0.39700955152511597,link6
1764103195.9811537,ddpg_train,FAR,train,9,12,-6.35584426184779,0,130,1,-0.004,-0.006,1.054,-2.2041378,-0.051604122,0.11816621,0.056845725,-0.014844361,1.6025201,0.0,0.0,0.0,0.5060994625091553,0.5060994625091553,link6
1764103197.3671553,ddpg_train,FAR,train,9,13,-6.3288752984738785,0,131,1,-0.049,-0.061,1.049,-2.2497754,-0.0007712136,0.16666476,0.03456125,-0.015242805,1.3527396,0.0,0.0,0.0,0.5661212801933289,0.5661212801933289,link6
1764103198.7519138,ddpg_train,FAR,train,9,14,-6.278403009490847,0,132,1,-0.099,-0.124,1.033,-2.2413313,0.030674817,0.29535314,-0.021044785,-0.035314664,1.184699,0.0,0.0,0.0,0.647452175617218,0.647452175617218,link6
1764103202.4310448,ddpg_train,FAR,train,10,0,-6.245926152233161,0,133,1,0.013,-0.193,1.019,-1.544508,0.01968492,0.37926918,-0.28578198,-0.008974546,0.3507621,0.0,0.0,0.0,0.539306104183197,0.539306104183197,link6
1764103203.839225,ddpg_train,FAR,train,10,1,-6.103166788361589,0,134,1,-0.119,-0.265,0.974,-1.9953935,0.051379867,0.53642243,-0.29041415,-0.030218378,0.45316055,0.0,0.0,0.0,0.6951220035552979,0.6951220035552979,link6
1764103205.2376208,ddpg_train,FAR,train,10,2,-6.0072929999155,0,135,1,-0.223,-0.258,0.941,-2.2908652,0.068041235,0.64585865,-0.25764808,-0.055608276,0.52643055,0.0,0.0,0.0,0.7837456464767456,0.7837456464767456,link6
1764103206.6349392,ddpg_train,FAR,train,10,3,-5.840689933914669,0,136,1,-0.284,-0.297,0.882,-2.3411238,0.09346584,0.78872496,-0.4367836,-0.112002045,0.70116705,0.0,0.0,0.0,0.7598927617073059,0.7598927617073059,link6
1764103208.01808,ddpg_train,FAR,train,10,4,-5.766875375335851,0,137,1,-0.33,-0.325,0.842,-2.3930798,0.15619355,0.8326976,-0.39446044,-0.13955021,0.5842414,0.0,0.0,0.0,0.8542231917381287,0.8542231917381287,link6
1764103209.4074795,ddpg_train,FAR,train,10,5,-5.776259369403946,0,138,1,-0.428,-0.119,0.854,-2.8932803,0.12976305,0.8477557,-0.40283057,-0.21235846,0.09033089,0.0,0.0,0.0,0.9282055497169495,0.9282055497169495,link6
1764103210.8187182,ddpg_train,FAR,train,10,6,-5.387276049359203,0,139,1,-0.457,-0.226,0.739,-2.7052467,0.12751769,1.1180499,-0.5944378,-0.22979103,0.17193969,0.0,0.0,0.0,0.9267602562904358,0.9267602562904358,link6
1764103212.225661,ddpg_train,FAR,train,10,7,-5.118439848714056,0,140,1,-0.479,-0.263,0.655,-2.6741197,0.16427909,1.2533602,-0.69598836,-0.22811869,0.14877129,0.0,0.0,0.0,0.957157552242279,0.957157552242279,link6
1764103213.6071825,ddpg_train,FAR,train,10,8,-5.458720645769919,0,141,1,-0.396,-0.23,0.786,-2.6640131,0.05484781,1.0666147,-1.0366015,-0.21102126,0.08775504,0.0,0.0,0.0,0.8933539986610413,0.8933539986610413,link6
1764103215.0940926,ddpg_train,FAR,train,10,9,-5.144902677110457,0,142,1,-0.463,-0.221,0.687,-2.7388895,0.097967215,1.2347685,-1.1305114,-0.19258483,-0.02600362,0.0,0.0,0.0,0.9573073983192444,0.9573073983192444,link6
1764103216.479026,ddpg_train,FAR,train,10,10,-4.897916404208891,0,143,1,-0.485,-0.25,0.607,-2.69431,0.1456286,1.3528845,-1.1960489,-0.18072331,-0.05985894,0.0,0.0,0.0,0.8808313012123108,0.8808313012123108,link6
1764103217.875472,ddpg_train,FAR,train,10,11,-4.491009088660064,0,144,1,-0.364,-0.399,0.518,-2.3359697,0.12174725,1.537192,-1.4021819,-0.12696378,0.043390602,0.0,0.0,0.0,0.8583292365074158,0.8583292365074158,link6
1764103219.2655046,ddpg_train,FAR,train,10,12,-4.277193766282638,0,145,1,-0.441,-0.34,0.445,-2.5145319,0.19573943,1.6014671,-1.6942458,-0.13197276,0.06343522,0.0,0.0,0.0,0.9719496369361877,0.9719496369361877,link6
1764103220.664646,ddpg_train,FAR,train,10,13,-4.1193401425551155,0,146,1,-0.501,-0.252,0.396,-2.7078369,0.23981807,1.6476667,-1.9176266,-0.14273602,0.05277669,0.0,0.0,0.0,1.0284403562545776,1.0284403562545776,link6
1764103222.167751,ddpg_train,FAR,train,10,14,-3.964642328912165,0,147,1,-0.517,-0.125,0.392,-2.9363947,0.1726284,1.7055453,-2.2564833,-0.19951664,-0.10890647,0.0,0.0,0.0,1.0129802227020264,1.0129802227020264,link6
1764103225.8177764,ddpg_train,FAR,train,11,0,-6.349583950950598,0,148,1,0.063,-0.018,1.051,-0.348347,-0.0039284895,0.17661902,-0.22373728,-0.03736195,-0.11251135,0.0,0.0,0.0,0.5072240829467773,0.5072240829467773,link6
1764103227.221086,ddpg_train,FAR,train,11,1,-6.190001076415103,0,149,1,0.04,-0.259,0.989,-1.4838341,0.050089322,0.49737644,-0.7617264,-0.21553408,-0.3552649,0.0,0.0,0.0,0.45814430713653564,0.45814430713653564,link6
1764103228.641435,ddpg_train,FAR,train,11,2,-6.014644743708158,0,150,1,-0.129,-0.388,0.915,-1.997823,0.19616063,0.590354,-1.1068144,-0.22884054,-0.23200896,0.0,0.0,0.0,0.8160009980201721,0.8160009980201721,link6
1764103230.0759404,ddpg_train,FAR,train,11,3,-5.816183187997361,0,151,1,-0.405,-0.381,0.794,-2.4555652,0.3549608,0.69213194,-1.3617005,-0.23967314,-0.13715309,0.0,0.0,0.0,1.0504176616668701,1.0504176616668701,link6
1764103231.494918,ddpg_train,FAR,train,11,4,-5.330729830125136,0,152,1,-0.664,-0.039,0.589,-3.128154,0.4544039,0.99701476,-1.3007822,-0.23570615,0.18543889,0.0,0.0,0.0,1.1552236080169678,1.1552236080169678,link6
1764103232.8785658,ddpg_train,FAR,train,11,5,-4.908765531814126,0,153,1,-0.705,-0.03,0.414,-3.1390657,0.5770667,1.1827654,-1.3355893,-0.235113,0.3429842,0.0,0.0,0.0,1.1661632061004639,1.1661632061004639,link6
1764103234.29154,ddpg_train,FAR,train,11,6,-4.88834908018853,0,154,1,-0.651,-0.029,0.489,-3.1418843,0.41670164,1.2456893,-1.4130923,-0.24327831,0.78315943,0.0,0.0,0.0,1.1513135433197021,1.1513135433197021,link6
1764103235.6839058,ddpg_train,FAR,train,11,7,-4.467239289433195,0,155,1,-0.642,-0.028,0.376,-3.1409066,0.44804466,1.4550421,-1.1610491,-0.24581301,0.84558266,0.0,0.0,0.0,1.1281812191009521,1.1281812191009521,link6
1764103237.065156,ddpg_train,FAR,train,11,8,-4.360647220791435,0,156,1,-0.647,-0.026,0.33,-3.1395977,0.4928889,1.4810075,-1.0667659,-0.22827736,0.78547823,0.0,0.0,0.0,1.1220492124557495,1.1220492124557495,link6
1764103238.454666,ddpg_train,FAR,train,11,9,-4.153120522296334,0,157,1,-0.577,-0.12,0.363,-2.9849513,0.33629185,1.6398516,-1.1019316,-0.27370828,0.76052237,0.0,0.0,0.0,1.0759668350219727,1.0759668350219727,link6
1764103239.845222,ddpg_train,FAR,train,11,10,-3.8721128395832123,0,158,1,-0.576,-0.086,0.278,-3.0464642,0.40978044,1.7170553,-1.2776507,-0.25330347,0.62187064,0.0,0.0,0.0,1.0736289024353027,1.0736289024353027,link6
1764103241.2313173,ddpg_train,FAR,train,11,11,-3.6543676070034548,0,159,1,-0.568,-0.058,0.212,-3.0940619,0.48121372,1.7767193,-1.3753364,-0.24516971,0.6043082,0.0,0.0,0.0,1.0668052434921265,1.0668052434921265,link6
1764103242.6282518,ddpg_train,FAR,train,11,12,-3.9638385865216823,0,160,1,-0.578,-0.043,0.317,-3.116658,0.36080226,1.6908305,-1.3951664,-0.23610516,0.86186063,0.0,0.0,0.0,1.0780712366104126,1.0780712366104126,link6
1764103244.0143154,ddpg_train,FAR,train,11,13,-3.98480841506639,0,161,1,-0.599,-0.04,0.284,-3.1258733,0.4436023,1.665232,-1.1438667,-0.27517387,0.9283097,0.0,0.0,0.0,1.1029613018035889,1.1029613018035889,link6
1764103245.3971999,ddpg_train,FAR,train,11,14,-3.785154726433017,0,162,1,-0.591,-0.079,0.206,-3.0493784,0.5429212,1.729655,-1.0490583,-0.29576182,0.90006506,0.0,0.0,0.0,1.0637588500976562,1.0637588500976562,link6
1764103249.040063,ddpg_train,FAR,train,12,0,-5.711940426898892,0,163,1,-0.185,-0.444,0.821,-2.010011,0.16918908,0.8642759,-0.95216644,-0.20896316,0.35800314,0.0,0.0,0.0,0.7493458390235901,0.7493458390235901,link6
1764103250.4236078,ddpg_train,FAR,train,12,1,-4.6722470377085825,0,164,1,-0.423,-0.435,0.488,-2.3829353,0.3018901,1.4278798,-0.93667793,-0.2277816,0.6460816,0.0,0.0,0.0,0.9599986672401428,0.9599986672401428,link6
1764103251.8220985,ddpg_train,FAR,train,12,2,-3.9104204852995847,0,165,1,-0.47,-0.34,0.297,-2.5592785,0.3901096,1.7383747,-0.85859233,-0.24269629,0.77324843,0.0,0.0,0.0,0.9951030611991882,0.9951030611991882,link6
1764103253.2149272,ddpg_train,FAR,train,12,3,-3.7801669410619323,0,166,1,-0.479,-0.303,0.275,-2.609922,0.3843256,1.8133361,-0.50165117,-0.3166241,0.58486515,0.0,0.0,0.0,0.9768989682197571,0.9768989682197571,link6
1764103254.6092722,ddpg_train,FAR,train,12,4,-3.492249820554789,0,167,1,-0.464,-0.286,0.204,-2.6151643,0.45160714,1.9070137,-0.39050442,-0.3031024,0.60457087,0.0,0.0,0.0,0.961892306804657,0.961892306804657,link6
1764103256.004326,ddpg_train,FAR,train,12,5,-3.357750038162015,0,168,1,-0.429,-0.303,0.19,-2.5298853,0.43882385,1.9705188,-0.3582346,-0.29016632,0.65368474,0.0,0.0,0.0,0.6629974842071533,0.6629974842071533,link6
1764103257.4071236,ddpg_train,FAR,train,12,6,-3.61166076277441,0,169,1,-0.227,-0.482,0.279,-2.0487466,0.30562735,1.8885391,-0.6561513,-0.26333576,0.778661,0.0,0.0,0.0,0.7353822588920593,0.7353822588920593,link6
1764103258.8173327,ddpg_train,FAR,train,12,7,-3.835295019229577,0,170,1,-0.258,-0.508,0.289,-2.0754688,0.37325966,1.7826174,-0.6591449,-0.2691066,0.5153074,0.0,0.0,0.0,0.7774010896682739,0.7774010896682739,link6
1764103260.201911,ddpg_train,FAR,train,12,8,-4.152052735785482,0,171,1,-0.278,-0.527,0.351,-2.088237,0.37353784,1.658962,-0.6527144,-0.2747344,0.24356906,0.0,0.0,0.0,0.7462319731712341,0.7462319731712341,link6
1764103261.5970886,ddpg_train,FAR,train,12,9,-4.110449791553562,0,172,1,-0.288,-0.465,0.412,-2.1503088,0.19129911,1.7367182,-0.33732873,-0.27776587,0.3311737,0.0,0.0,0.0,0.7920313477516174,0.7920313477516174,link6
1764103262.9939094,ddpg_train,FAR,train,12,10,-3.756769998152007,0,173,1,-0.296,-0.444,0.327,-2.1750383,0.25104755,1.8716499,-0.23732197,-0.29464749,0.47307137,0.0,0.0,0.0,0.7983851432800293,0.7983851432800293,link6
1764103264.432988,ddpg_train,FAR,train,12,11,-3.499505318109825,0,174,1,-0.29,-0.428,0.269,-2.1779404,0.29278183,1.9655968,-0.16705546,-0.30697507,0.6317926,0.0,0.0,0.0,0.7501557469367981,0.7501557469367981,link6
1764103265.8159792,ddpg_train,FAR,train,12,12,-3.262693785002852,0,175,1,-0.236,-0.417,0.256,-2.0874953,0.22811845,2.0722163,-0.023719765,-0.3180707,1.0917114,0.0,0.0,0.0,0.7356743216514587,0.7356743216514587,link6
1764103267.2038805,ddpg_train,FAR,train,12,13,-3.0878906133834594,0,176,1,-0.179,-0.432,0.211,-1.9519683,0.2857773,2.118728,0.11995307,-0.2876834,0.96866375,0.0,0.0,0.0,0.6235709190368652,0.6235709190368652,link6
1764103268.587649,ddpg_train,FAR,train,12,14,-2.9952650800813414,0,177,1,-0.123,-0.441,0.196,-1.826623,0.29706702,2.1435337,0.2375767,-0.25313857,0.8076137,0.0,0.0,0.0,0.6552523970603943,0.6552523970603943,link6
1764103272.26284,ddpg_train,FAR,train,13,0,-6.27808729217823,0,178,1,0.196,-0.192,0.986,-0.785602,0.0606243,0.5024104,-0.18797715,-0.11825992,0.46714303,0.0,0.0,0.0,0.3594946265220642,0.3594946265220642,link6
1764103273.6500053,ddpg_train,FAR,train,13,1,-5.689552589808144,0,179,1,0.141,-0.47,0.806,-1.3055009,0.17301248,0.92654747,-0.35529518,-0.18871322,0.6813368,0.0,0.0,0.0,0.5190790891647339,0.5190790891647339,link6
1764103275.038279,ddpg_train,FAR,train,13,2,-4.501391765353954,0,180,1,0.02,-0.578,0.468,-1.5452539,0.23852046,1.5613596,-0.18790062,-0.22461045,0.19260673,0.0,0.0,0.0,0.4892727732658386,0.4892727732658386,link6
1764103276.4153516,ddpg_train,FAR,train,13,3,-3.8618429133335193,0,181,1,-0.001,-0.55,0.325,-1.5788225,0.28396893,1.8068333,-0.1442996,-0.18463266,0.09581954,0.0,0.0,0.0,0.5158259272575378,0.5158259272575378,link6
1764103277.8025658,ddpg_train,FAR,train,13,4,-3.577756508349145,0,182,1,-0.011,-0.525,0.272,-1.5987499,0.29789677,1.909611,-0.1749455,-0.1678938,0.03911612,0.0,0.0,0.0,0.5133547186851501,0.5133547186851501,link6
1764103279.193001,ddpg_train,FAR,train,13,5,-3.237845106987677,0,183,1,-0.01,-0.474,0.247,-1.5964433,0.22544208,2.0519779,-0.11498584,-0.12262619,0.29212725,0.0,0.0,0.0,0.5105605125427246,0.5105605125427246,link6
1764103280.5914826,ddpg_train,FAR,train,13,6,-3.029809241747656,0,184,1,0.02,-0.455,0.199,-1.5277846,0.27503183,2.1201012,-0.08037575,-0.12719485,0.34595886,0.0,0.0,0.0,0.46521228551864624,0.46521228551864624,link6
1764103281.9998915,ddpg_train,FAR,train,13,7,-3.1209393691766687,0,185,1,0.026,-0.474,0.202,-1.5203544,0.31179696,2.0566685,-0.03213365,-0.13455069,0.29994497,0.0,0.0,0.0,0.5277698636054993,0.5277698636054993,link6
1764103283.3980825,ddpg_train,FAR,train,13,8,-3.9873185990885207,0,186,1,-0.16,-0.545,0.343,-1.851739,0.29958662,1.7297539,0.26590678,-0.14327388,-0.05719878,0.0,0.0,0.0,0.6704025864601135,0.6704025864601135,link6
1764103284.7815561,ddpg_train,FAR,train,13,9,-3.514250935488427,0,187,1,-0.02,-0.526,0.232,-1.5826252,0.3501536,1.9246712,0.16719697,-0.12722178,-0.10172795,0.0,0.0,0.0,0.4376976191997528,0.4376976191997528,link6
1764103286.1634293,ddpg_train,FAR,train,13,10,-3.537081640958324,0,188,1,0.082,-0.516,0.22,-1.4086989,0.36978433,1.9267889,0.10143491,-0.114609495,-0.16684951,0.0,0.0,0.0,0.36070531606674194,0.36070531606674194,link6
1764103287.5421686,ddpg_train,FAR,train,13,11,-4.684401053791202,0,189,1,0.29,-0.494,0.356,-1.0476774,0.30140564,1.6993777,-0.31953546,-0.13359867,-0.1723183,0.0,0.0,0.0,0.20592482388019562,0.20592482388019562,link6
1764103288.932618,ddpg_train,FAR,train,13,12,-4.402379704648507,0,190,1,0.29,-0.482,0.295,-1.0351604,0.33990726,1.7741135,-0.33764848,-0.099404536,-0.14110672,0.0,0.0,0.0,0.2134833186864853,0.2134833186864853,link6
1764103290.3261542,ddpg_train,FAR,train,13,13,-4.64716406453061,0,191,1,0.299,-0.463,0.26,-1.003073,0.36645168,1.8253801,-0.35225755,-0.084026724,-0.11339384,0.0,0.0,0.0,0.1618724912405014,0.1618724912405014,link6
1764103291.714952,ddpg_train,FAR,train,13,14,-4.538982990297393,0,192,1,0.333,-0.417,0.275,-0.91122,0.30732876,1.8693643,-0.5592122,-0.11198932,-0.14677069,0.0,0.0,0.0,0.16745434701442719,0.16745434701442719,link6
1764103295.3823094,ddpg_train,FAR,train,14,0,-1.8988953261845196,0,193,1,-0.056,-0.097,0.296,-2.083532,0.33431193,2.8146,0.13938573,-3.287615,0.64510757,0.0,0.0,0.0,1.474983811378479,1.474983811378479,link6
1764103296.794374,ddpg_train,FAR,train,14,1,-4.395965663508964,0,194,1,0.442,-0.425,0.401,-0.775765,0.37695345,1.5750817,-0.31222707,-0.21839514,-0.030822642,0.0,0.0,0.0,1.3293167352676392,1.3293167352676392,link6
1764103298.195103,ddpg_train,FAR,train,14,2,-3.0292994957400303,0,195,1,0.402,-0.201,0.23,-0.4647412,0.26624537,2.019996,-0.5720048,-0.042996857,-0.2766555,0.0,0.0,0.0,1.2903155088424683,1.2903155088424683,link6
1764103299.6370447,ddpg_train,FAR,train,14,3,-3.029307472225509,0,196,1,0.402,-0.201,0.23,-0.4647412,0.26624537,2.019996,-0.5720048,-0.042996857,-0.2766555,0.0,0.0,0.0,1.2408071756362915,1.2408071756362915,link6
1764103301.020798,ddpg_train,FAR,train,14,4,-2.878973244543491,0,197,1,0.455,-0.081,0.129,-0.2182007,0.44232398,2.1105502,-0.8184371,-0.2227673,-0.31548908,0.0,0.0,0.0,1.1423128843307495,1.1423128843307495,link6
1764103302.4125714,ddpg_train,FAR,train,14,5,-2.4099795686341494,0,198,1,0.375,-0.137,0.044,-0.39297917,0.5433006,2.2302213,-0.82617885,-0.15339868,-0.30360729,0.0,0.0,0.0,1.2197619676589966,1.2197619676589966,link6
1764103303.8079255,ddpg_train,FAR,train,14,6,-1.8180780880707428,0,199,1,-0.039,-0.101,0.283,-0.082350574,-1.8337315,2.7980149,-1.4238327,1.0086523,-1.1078779,0.0,0.0,0.0,1.1359583139419556,1.1359583139419556,link6
1764103305.214753,ddpg_train,FAR,train,14,7,-0.8138830856378932,0,200,1,0.037,-0.127,-0.03,0.83407265,-3.729914,2.7730951,-1.9869546,1.5476234,-0.99749213,0.0,0.0,0.0,1.155956745147705,1.155956745147705,link6
1764103306.6331882,ddpg_train,FAR,train,14,8,-1.040862265727464,0,201,1,-0.104,-0.086,0.109,0.43727022,-3.9108775,2.8100379,-0.8045534,0.38952142,2.5260243,0.0,0.0,0.0,1.2323938608169556,1.2323938608169556,link6
1764103308.0211635,ddpg_train,FAR,train,14,9,-1.8437417848516975,0,202,1,0.298,0.042,0.062,0.18070771,0.48156732,2.5239148,0.07500317,-0.5489916,0.032135095,0.0,0.0,0.0,1.0416722297668457,1.0416722297668457,link6
1764103309.4061766,ddpg_train,FAR,train,14,10,-1.472910375805141,0,203,1,0.136,0.012,0.204,0.2714007,-0.5418133,2.7518096,-0.73879415,0.32257286,0.21547066,0.0,0.0,0.0,1.0987954139709473,1.0987954139709473,link6
