QuanPM-doosan/DoosanRobot_Reinforcement_Learning/ros2_ws/rl_logs/20251127_005555_d4pg_demo.csv
ts,run_tag,mode,phase,ep,step,reward,done,mem_len,learn_flag,ee_x,ee_y,ee_z,j1,j2,j3,j4,j5,j6,sphere_x,sphere_y,sphere_z,dist_out,signed,closest_link
1764179759.381116,d4pg_demo,FAR,demo,1,0,-6.376500167411129,0,0,0,0.015,0.002,1.053,0.17855008,-0.06074419,0.1476837,0.2207467,-0.017178202,0.19636169,0.0,0.0,0.0,0.4459378123283386,0.4459378123283386,link6
1764179760.75811,d4pg_demo,FAR,demo,1,1,-6.0835100699883125,0,0,0,0.043,0.025,1.004,0.6682797,-0.30902743,0.68209356,0.9527925,-0.07071732,0.8101368,0.0,0.0,0.0,0.4563602805137634,0.4563602805137634,link6
1764179762.1370199,d4pg_demo,FAR,demo,1,2,-5.895862929181433,0,0,0,0.003,-0.007,0.977,0.24532855,-0.46183988,0.85190934,1.1200329,-0.06846348,0.79532075,0.0,0.0,0.0,0.5000145435333252,0.5000145435333252,link6
1764179765.7913263,d4pg_demo,FAR,demo,2,0,-6.357724151741235,0,0,0,-0.001,0.0,1.055,0.09666397,-0.011694648,0.016326165,0.014422552,0.005270595,0.0544162,0.0,0.0,0.0,0.5194991827011108,0.5194991827011108,link6
1764179767.1702552,d4pg_demo,FAR,demo,2,1,-6.342950546049045,0,0,0,-0.018,-0.02,1.052,0.84325904,-0.11547272,0.14431329,-0.02795973,0.050653055,0.5239024,0.0,0.0,0.0,0.5153827667236328,0.5153827667236328,link6
1764179768.5509462,d4pg_demo,FAR,demo,2,2,-6.342882719325618,0,0,0,-0.017,-0.018,1.052,0.8006217,-0.12148538,0.1555792,-0.04602799,0.0627631,0.72089356,0.0,0.0,0.0,0.5145257711410522,0.5145257711410522,link6
1764179772.2149403,d4pg_demo,FAR,demo,3,0,-6.350625589159799,0,0,0,0.081,0.056,1.041,0.59327555,-0.047171213,0.2898093,1.1698818,0.013519724,3.6153822,0.0,0.0,0.0,0.41767364740371704,0.41767364740371704,link6
1764179773.598497,d4pg_demo,FAR,demo,3,1,-6.235933120031859,0,0,0,0.02,0.0,1.034,-0.28448278,-0.21651451,0.4425706,2.0378466,0.053506013,5.211618,0.0,0.0,0.0,0.509056568145752,0.509056568145752,link6
1764179774.9761424,d4pg_demo,FAR,demo,3,2,-6.165306932998881,0,0,0,-0.05,0.058,1.021,-0.79067504,-0.37477878,0.54050404,2.5097876,0.07730531,5.9429855,0.0,0.0,0.0,0.5421573519706726,0.5421573519706726,link6
1764179778.6250727,d4pg_demo,FAR,demo,4,0,-6.104515724912882,0,0,0,-0.004,0.001,1.012,-0.40758577,-0.36316442,0.6546137,1.892852,-0.0055125807,4.6364746,0.0,0.0,0.0,0.5037020444869995,0.5037020444869995,link6
1764179780.0108654,d4pg_demo,FAR,demo,4,1,-5.835984650203628,0,0,0,-0.043,0.042,0.966,-0.76541877,-0.5648379,0.8969839,2.4635787,0.011755387,5.6873813,0.0,0.0,0.0,0.5157686471939087,0.5157686471939087,link6
1764179781.3913214,d4pg_demo,FAR,demo,4,2,-5.623501694657177,0,0,0,-0.031,0.069,0.929,-1.1309437,-0.690651,1.0743448,2.8097851,0.034691982,6.0992723,0.0,0.0,0.0,0.5081456303596497,0.5081456303596497,link6
1764179785.051119,d4pg_demo,FAR,demo,5,0,-6.2916312202541995,0,0,0,0.04,0.019,1.038,0.53484094,-0.1759196,0.43090773,0.5115552,-0.034176763,-0.25048244,0.0,0.0,0.0,0.44573336839675903,0.44573336839675903,link6
1764179786.4386733,d4pg_demo,FAR,demo,5,1,-6.027868480140316,0,0,0,0.043,0.046,0.994,0.90335816,-0.32748675,0.741714,0.88773596,-0.056225758,-0.41740552,0.0,0.0,0.0,0.45676112174987793,0.45676112174987793,link6
1764179787.8170135,d4pg_demo,FAR,demo,5,2,-5.972801387917875,0,0,0,0.035,0.036,0.986,0.88728446,-0.37152904,0.7935138,1.1662302,-0.040773407,-0.54141784,0.0,0.0,0.0,0.4622601866722107,0.4622601866722107,link6
1764179791.461946,d4pg_demo,FAR,demo,6,0,-6.357615322983847,0,0,0,0.017,0.004,1.051,0.28830528,-0.09408325,0.21587001,0.2817681,-0.018467413,-0.19969693,0.0,0.0,0.0,0.4590384364128113,0.4590384364128113,link6
1764179792.838878,d4pg_demo,FAR,demo,6,1,-6.009685463553041,0,0,0,0.034,0.047,0.992,1.0541767,-0.3388459,0.7523801,1.0637013,-0.059550196,-0.69381,0.0,0.0,0.0,0.46560901403427124,0.46560901403427124,link6
1764179794.2156286,d4pg_demo,FAR,demo,6,2,-5.926068186686865,0,0,0,0.013,0.014,0.981,1.0936137,-0.43079582,0.8300045,1.3037556,-0.046123613,-1.0059063,0.0,0.0,0.0,0.48548609018325806,0.48548609018325806,link6
1764179797.8715522,d4pg_demo,FAR,demo,7,0,-6.445495495176955,0,0,0,0.012,0.001,1.054,0.07010985,-0.053205468,0.1389029,0.089563414,-0.018166045,0.20181113,0.0,0.0,0.0,0.37207186222076416,0.37207186222076416,link6
1764179799.2571146,d4pg_demo,FAR,demo,7,1,-5.239407068955444,0,0,0,0.137,0.061,0.836,0.54437584,-0.5427332,1.3964735,1.0037127,-0.18600376,1.48627,0.0,0.0,0.0,0.35519713163375854,0.35519713163375854,link6
1764179800.6496427,d4pg_demo,FAR,demo,7,2,-5.005920788084646,0,0,0,0.104,-0.005,0.819,0.12996565,-0.6637211,1.4732213,1.3839561,-0.18116693,1.4915692,0.0,0.0,0.0,0.45588719844818115,0.45588719844818115,link6
1764179804.2999985,d4pg_demo,FAR,demo,8,0,-5.748603333985219,0,0,0,0.017,0.002,0.951,0.549355,-0.53755623,1.0249152,1.0855502,-0.07261719,-1.8236996,0.0,0.0,0.0,0.4787192940711975,0.4787192940711975,link6
1764179805.677251,d4pg_demo,FAR,demo,8,1,-5.588635464308562,0,0,0,-0.007,-0.033,0.925,1.185189,-0.6408216,1.0884192,1.4962293,-0.05268937,-2.0005636,0.0,0.0,0.0,0.49633926153182983,0.49633926153182983,link6
1764179807.058076,d4pg_demo,FAR,demo,8,2,-5.657981215015328,0,0,0,0.01,-0.048,0.936,1.7050995,-0.6398681,1.0396795,1.7837446,-0.026291315,-2.0146117,0.0,0.0,0.0,0.49825912714004517,0.49825912714004517,link6
1764179810.7127001,d4pg_demo,FAR,demo,9,0,-5.957684455209248,0,0,0,0.103,0.083,0.97,0.6947196,-0.29014194,0.84486556,0.18430822,-0.08870559,1.1238502,0.0,0.0,0.0,0.40885666012763977,0.40885666012763977,link6
1764179812.0923457,d4pg_demo,FAR,demo,9,1,-5.335516237203984,0,0,0,0.104,0.115,0.861,0.8431749,-0.49750924,1.31806,0.26579896,-0.12781404,1.5826899,0.0,0.0,0.0,0.4057996869087219,0.4057996869087219,link6
1764179813.4809175,d4pg_demo,FAR,demo,9,2,-5.064150052849635,0,0,0,0.063,-0.005,0.831,0.004420675,-0.7047119,1.4732677,0.32802787,-0.14500976,1.4483714,0.0,0.0,0.0,0.43621915578842163,0.43621915578842163,link6
1764179817.12934,d4pg_demo,FAR,demo,10,0,-6.3384643403638625,0,0,0,0.068,0.012,1.029,0.24307428,-0.19809218,0.54795516,0.35828206,-0.07292759,0.4887151,0.0,0.0,0.0,0.35027047991752625,0.35027047991752625,link6
1764179818.522947,d4pg_demo,FAR,demo,10,1,-5.1476654018278,0,0,0,0.119,0.009,0.831,0.24021229,-0.60915476,1.4303639,1.1190196,-0.17706479,1.056719,0.0,0.0,0.0,0.38120633363723755,0.38120633363723755,link6
1764179819.9106593,d4pg_demo,FAR,demo,10,2,-4.92523894715918,0,0,0,0.048,-0.04,0.81,-0.2756315,-0.748623,1.5059783,1.5683305,-0.20288822,0.9891091,0.0,0.0,0.0,0.4589274525642395,0.4589274525642395,link6
1764179823.572842,d4pg_demo,FAR,demo,11,0,-6.356501551460305,0,0,0,-0.01,-0.002,1.055,0.214108,-0.009359562,-0.0035657072,-0.04687139,0.0019519302,-0.0686995,0.0,0.0,0.0,0.5251211524009705,0.5251211524009705,link6
1764179824.9561994,d4pg_demo,FAR,demo,11,1,-6.356219610339215,0,0,0,-0.024,-0.038,1.054,1.0057138,-0.044404324,-0.014052379,-0.1885681,0.011932688,-0.26462883,0.0,0.0,0.0,0.5241079330444336,0.5241079330444336,link6
1764179826.330856,d4pg_demo,FAR,demo,11,2,-6.362630722693489,0,0,0,-0.019,-0.029,1.055,1.0044283,-0.03708575,-0.0047521633,-0.18470593,0.015861653,-0.06892653,0.0,0.0,0.0,0.5142557621002197,0.5142557621002197,link6
1764179829.970745,d4pg_demo,FAR,demo,12,0,-6.361446727741927,0,0,0,-0.015,-0.025,1.055,1.0377289,-0.015059422,-0.033259295,-0.27332154,0.0045054937,-0.58658236,0.0,0.0,0.0,0.5148859024047852,0.5148859024047852,link6
1764179831.3498418,d4pg_demo,FAR,demo,12,1,-6.363648040133412,0,0,0,-0.003,-0.004,1.055,1.0279771,0.005031862,-0.018294884,-0.22287755,0.0030730437,-0.30914655,0.0,0.0,0.0,0.5003353357315063,0.5003353357315063,link6
1764179832.7270048,d4pg_demo,FAR,demo,12,2,-6.361296733961279,0,0,0,-0.004,-0.006,1.055,1.025184,0.0036259408,-0.022848364,-0.23401226,0.0056445044,-0.29265037,0.0,0.0,0.0,0.5078415274620056,0.5078415274620056,link6
1764179836.3803797,d4pg_demo,FAR,demo,13,0,-5.547315894894226,0,0,0,0.113,0.156,0.889,0.9760826,-0.3753134,1.174695,0.3669498,-0.10712149,1.766901,0.0,0.0,0.0,0.4022526443004608,0.4022526443004608,link6
1764179837.7653186,d4pg_demo,FAR,demo,13,1,-5.134199067822213,0,0,0,0.113,0.025,0.837,0.23376031,-0.6196415,1.4282972,0.6044158,-0.11729548,1.2421432,0.0,0.0,0.0,0.43517816066741943,0.43517816066741943,link6
1764179839.1389413,d4pg_demo,FAR,demo,13,2,-4.955890531130187,0,0,0,0.024,-0.013,0.816,-0.11304887,-0.7952252,1.5240657,0.701398,-0.13366291,1.0104545,0.0,0.0,0.0,0.44714730978012085,0.44714730978012085,link6
1764179842.7876961,d4pg_demo,FAR,demo,14,0,-5.773713006098106,0,0,0,0.072,0.032,0.946,0.43343142,-0.44410595,1.0256525,0.078794,-0.13264856,1.1506053,0.0,0.0,0.0,0.41597163677215576,0.41597163677215576,link6
1764179844.1749418,d4pg_demo,FAR,demo,14,1,-5.1485738562713905,0,0,0,0.065,0.032,0.842,0.48535085,-0.6692206,1.4418828,0.10502613,-0.17868112,1.538347,0.0,0.0,0.0,0.4161684513092041,0.4161684513092041,link6
1764179845.5510688,d4pg_demo,FAR,demo,14,2,-5.100274694214721,0,0,0,0.058,-0.003,0.838,-0.0057151234,-0.6980937,1.4652953,0.092685305,-0.20579475,1.4973495,0.0,0.0,0.0,0.4419288635253906,0.4419288635253906,link6
1764179849.214635,d4pg_demo,FAR,demo,15,0,-6.28799576457835,0,0,0,0.053,0.025,1.035,0.45706886,-0.15839098,0.421185,0.33108658,-0.037016477,0.024337115,0.0,0.0,0.0,0.42969489097595215,0.42969489097595215,link6
1764179850.600316,d4pg_demo,FAR,demo,15,1,-5.812258483239058,0,0,0,0.067,0.093,0.951,1.0058664,-0.37561387,0.9552603,0.7358291,-0.08068818,0.059458334,0.0,0.0,0.0,0.4343373477458954,0.4343373477458954,link6
1764179851.9755242,d4pg_demo,FAR,demo,15,2,-5.580713179763175,0,0,0,0.053,0.058,0.917,0.9009907,-0.5109162,1.12299,0.9274922,-0.06373113,0.09163614,0.0,0.0,0.0,0.44472283124923706,0.44472283124923706,link6
1764179855.6445553,d4pg_demo,FAR,demo,16,0,-6.433768893910137,0,0,0,0.018,0.001,1.054,0.095274866,-0.059236754,0.1598194,0.06363688,-0.016756691,0.21385388,0.0,0.0,0.0,0.38272783160209656,0.38272783160209656,link6
1764179857.025498,d4pg_demo,FAR,demo,16,1,-5.337916405824742,0,0,0,0.125,0.095,0.855,0.7034008,-0.49747562,1.3293645,0.56098956,-0.14021777,1.4860122,0.0,0.0,0.0,0.37120068073272705,0.37120068073272705,link6
1764179858.4075267,d4pg_demo,FAR,demo,16,2,-5.099507531550366,0,0,0,0.102,0.014,0.834,0.24924129,-0.6344151,1.439024,0.7611731,-0.14804322,1.3567127,0.0,0.0,0.0,0.4465022087097168,0.4465022087097168,link6
1764179862.0543811,d4pg_demo,FAR,demo,17,0,-6.306350237245136,0,0,0,0.13,0.076,1.019,0.4705641,-0.078573056,0.43793583,0.66421086,0.12961653,2.9485462,0.0,0.0,0.0,0.3681298494338989,0.3681298494338989,link6
1764179863.4396622,d4pg_demo,FAR,demo,17,1,-6.4187048232568635,0,0,0,0.229,0.052,0.965,0.104035765,-0.10112814,0.6715593,1.0630661,0.2496849,4.321327,0.0,0.0,0.0,0.2386542707681656,0.2386542707681656,link6
1764179864.8218107,d4pg_demo,FAR,demo,17,2,-6.369504321902657,0,0,0,0.285,-0.006,0.915,-0.15742259,-0.11953056,0.85367626,1.3483789,0.32609287,5.111585,0.0,0.0,0.0,0.20886941254138947,0.20886941254138947,link6
1764179868.481412,d4pg_demo,FAR,demo,18,0,-5.604914009989367,0,0,0,0.026,-0.012,0.926,-0.43485984,-0.5966229,1.1770445,0.109823994,-0.08101648,-0.10702628,0.0,0.0,0.0,0.46829575300216675,0.46829575300216675,link6
1764179869.8719091,d4pg_demo,FAR,demo,18,1,-5.2300571517682855,0,0,0,0.019,-0.003,0.861,0.107245445,-0.717018,1.3767412,0.3095931,-0.13645494,0.35072672,0.0,0.0,0.0,0.4377745985984802,0.4377745985984802,link6
1764179871.2547624,d4pg_demo,FAR,demo,18,2,-5.351847748656356,0,0,0,0.067,0.029,0.878,0.5449113,-0.5984892,1.3033724,0.47271115,-0.17097126,1.0697712,0.0,0.0,0.0,0.4332592487335205,0.4332592487335205,link6
1764179874.921867,d4pg_demo,FAR,demo,19,0,-6.399269065276501,0,0,0,0.074,0.03,1.047,0.3410886,-0.019082464,0.1883398,0.5410312,0.045969285,1.8457056,0.0,0.0,0.0,0.392180860042572,0.392180860042572,link6
1764179876.2992098,d4pg_demo,FAR,demo,19,1,-6.403085474420403,0,0,0,0.12,0.081,1.028,0.4941355,-0.040766485,0.36718234,1.0635667,0.09896268,3.5889773,0.0,0.0,0.0,0.3356899619102478,0.3356899619102478,link6
1764179877.6839113,d4pg_demo,FAR,demo,19,2,-6.258369007963464,0,0,0,0.19,-0.06,0.986,-0.46124807,-0.10297338,0.64973027,2.061932,0.27096295,5.724531,0.0,0.0,0.0,0.3110979199409485,0.3110979199409485,link6
1764179881.3336554,d4pg_demo,FAR,demo,20,0,-6.391176740291806,0,0,0,0.045,0.003,1.04,0.104447335,-0.16641074,0.4270037,0.33342892,-0.058073636,0.25603276,0.0,0.0,0.0,0.35383087396621704,0.35383087396621704,link6
1764179882.7090383,d4pg_demo,FAR,demo,20,1,-5.170206514538609,0,0,0,0.126,0.022,0.832,0.34502506,-0.5903374,1.4227381,1.1174628,-0.19705796,1.4485679,0.0,0.0,0.0,0.3733369708061218,0.3733369708061218,link6
1764179884.0923076,d4pg_demo,FAR,demo,20,2,-4.912963684912465,0,0,0,0.055,-0.043,0.808,-0.34778085,-0.7444811,1.506378,1.7228744,-0.21019408,1.2144969,0.0,0.0,0.0,0.4669158458709717,0.4669158458709717,link6
1764179887.7453382,d4pg_demo,FAR,demo,21,0,-6.404254080618168,0,0,0,0.01,0.001,1.055,0.06663474,-0.029635664,0.07674424,0.14321645,-0.00795341,0.33427027,0.0,0.0,0.0,0.42135757207870483,0.42135757207870483,link6
1764179889.1287057,d4pg_demo,FAR,demo,21,1,-6.131173943122255,0,0,0,0.074,0.044,1.006,0.63047165,-0.2460242,0.64094627,1.1856728,-0.06778062,2.86414,0.0,0.0,0.0,0.42252159118652344,0.42252159118652344,link6
1764179890.514449,d4pg_demo,FAR,demo,21,2,-5.803038188136091,0,0,0,0.05,-0.006,0.959,-0.043455016,-0.46027616,0.9464783,1.7107649,-0.048948467,4.06762,0.0,0.0,0.0,0.48009324073791504,0.48009324073791504,link6
1764179894.1726341,d4pg_demo,FAR,demo,22,0,-5.381878168962731,0,0,0,0.036,-0.006,0.888,0.033865016,-0.6367431,1.2525227,0.9017498,-0.07057169,-1.7870046,0.0,0.0,0.0,0.4617646336555481,0.4617646336555481,link6
1764179895.5491865,d4pg_demo,FAR,demo,22,1,-5.3571769839518435,0,0,0,0.003,-0.009,0.887,1.0610833,-0.69329065,1.2469742,1.3557669,-0.057762012,-1.9267131,0.0,0.0,0.0,0.49654918909072876,0.49654918909072876,link6
1764179896.9363914,d4pg_demo,FAR,demo,22,2,-5.4291805761753,0,0,0,0.008,-0.027,0.899,1.6857787,-0.70194644,1.2011803,1.6389949,-0.03840361,-1.9508151,0.0,0.0,0.0,0.5034878253936768,0.5034878253936768,link6
1764179900.5882268,d4pg_demo,FAR,demo,23,0,-5.943651970607048,0,0,0,0.12,0.059,0.959,0.5445857,-0.3473662,0.987341,0.502492,-0.109055184,1.1155419,0.0,0.0,0.0,0.36194664239883423,0.36194664239883423,link6
1764179901.9658124,d4pg_demo,FAR,demo,23,1,-5.156841981348235,0,0,0,0.128,0.049,0.836,0.4523494,-0.57030547,1.408351,0.8126653,-0.14034757,1.366379,0.0,0.0,0.0,0.42147690057754517,0.42147690057754517,link6
1764179903.347203,d4pg_demo,FAR,demo,23,2,-4.961860488861171,0,0,0,0.045,-0.037,0.816,-0.37141764,-0.7429722,1.498919,1.3508424,-0.15216766,1.1168079,0.0,0.0,0.0,0.4539412260055542,0.4539412260055542,link6
1764179907.0095866,d4pg_demo,FAR,demo,24,0,-6.354776372546193,0,0,0,0.037,0.011,1.047,0.3668032,-0.11232408,0.3023332,0.5019922,-0.036781453,0.9350904,0.0,0.0,0.0,0.4290235638618469,0.4290235638618469,link6
1764179908.398247,d4pg_demo,FAR,demo,24,1,-5.908928172527279,0,0,0,0.045,0.001,0.975,0.24738158,-0.4127193,0.8558843,1.2806133,-0.08696488,2.5628724,0.0,0.0,0.0,0.4552622437477112,0.4552622437477112,link6
1764179909.7735898,d4pg_demo,FAR,demo,24,2,-5.421701381870498,0,0,0,0.009,-0.015,0.897,-0.5415213,-0.6512294,1.2136507,1.8367946,-0.06947398,3.7698243,0.0,0.0,0.0,0.4861920475959778,0.4861920475959778,link6
1764179913.4241095,d4pg_demo,FAR,demo,25,0,-6.407640082280789,0,0,0,0.014,0.001,1.053,0.07251211,-0.0781989,0.18759714,0.021143483,-0.025509872,0.14448541,0.0,0.0,0.0,0.4027671217918396,0.4027671217918396,link6
1764179914.831307,d4pg_demo,FAR,demo,25,1,-5.5181883090556365,0,0,0,0.097,0.1,0.894,0.8403514,-0.44725057,1.1979495,0.1939737,-0.16121674,1.4869037,0.0,0.0,0.0,0.402353435754776,0.402353435754776,link6
1764179916.2104723,d4pg_demo,FAR,demo,25,2,-5.319859179125131,0,0,0,0.098,0.048,0.869,0.45527864,-0.5623518,1.3333358,0.10929156,-0.18257634,1.6587481,0.0,0.0,0.0,0.4344181418418884,0.4344181418418884,link6
1764179919.8596034,d4pg_demo,FAR,demo,26,0,-5.233146255545912,0,0,0,0.114,0.014,0.846,0.35957974,-0.60028386,1.3951223,1.369589,-0.22798726,1.427802,0.0,0.0,0.0,0.3811456561088562,0.3811456561088562,link6
1764179921.2370143,d4pg_demo,FAR,demo,26,1,-4.893429409580202,0,0,0,0.058,-0.023,0.804,-0.0042156912,-0.75918245,1.5144691,1.8128921,-0.19348812,1.8014618,0.0,0.0,0.0,0.4511222839355469,0.4511222839355469,link6
1764179922.6174643,d4pg_demo,FAR,demo,26,2,-4.815228418480802,0,0,0,0.003,-0.02,0.794,-0.26165825,-0.8607649,1.5471065,2.0858853,-0.17589341,1.8922827,0.0,0.0,0.0,0.4611523747444153,0.4611523747444153,link6
1764179926.2726336,d4pg_demo,FAR,demo,27,0,-6.334014802907244,0,0,0,0.072,0.041,1.039,0.55382884,-0.09332022,0.34772825,0.8412102,-0.036356993,2.2191556,0.0,0.0,0.0,0.41323670744895935,0.41323670744895935,link6
1764179927.6525939,d4pg_demo,FAR,demo,27,1,-6.1236579482369535,0,0,0,0.088,0.039,1.008,0.46073475,-0.23110348,0.62641484,1.4357586,-0.04904195,3.7319412,0.0,0.0,0.0,0.46429526805877686,0.46429526805877686,link6
1764179929.0324388,d4pg_demo,FAR,demo,27,2,-5.437484261144072,0,0,0,0.008,-0.012,0.9,-0.89178115,-0.64225304,1.1949723,2.5589294,-0.01866622,5.8629193,0.0,0.0,0.0,0.49119406938552856,0.49119406938552856,link6
1764179932.6842852,d4pg_demo,FAR,demo,28,0,-6.373792132238852,0,0,0,0.022,0.006,1.053,0.27415624,-0.046882074,0.12873937,0.07914808,0.04062449,0.6460497,0.0,0.0,0.0,0.4522469639778137,0.4522469639778137,link6
1764179934.0746455,d4pg_demo,FAR,demo,28,1,-6.290480822126283,0,0,0,0.056,0.046,1.036,0.6368796,-0.123356216,0.3470138,0.20144857,0.11967247,1.8396322,0.0,0.0,0.0,0.443473756313324,0.443473756313324,link6
1764179935.4596417,d4pg_demo,FAR,demo,28,2,-6.265753465320744,0,0,0,0.11,0.067,1.016,0.49058515,-0.12714511,0.46304557,0.31608233,0.18317437,2.5482323,0.0,0.0,0.0,0.3721688389778137,0.3721688389778137,link6
1764179939.1051664,d4pg_demo,FAR,demo,29,0,-6.3803007627853585,0,0,0,0.004,0.0,1.055,0.06721738,-0.039793782,0.08492956,0.091130674,-0.0076686544,-0.027892418,0.0,0.0,0.0,0.46000778675079346,0.46000778675079346,link6
1764179940.490661,d4pg_demo,FAR,demo,29,1,-6.079949618668859,0,0,0,0.04,0.03,1.003,0.7714093,-0.30630112,0.68292785,0.8347788,-0.06727161,-0.04982752,0.0,0.0,0.0,0.4519420266151428,0.4519420266151428,link6
1764179941.8772132,d4pg_demo,FAR,demo,29,2,-6.042072552232033,0,0,0,0.028,0.015,0.999,0.68670994,-0.35798067,0.7284638,0.9343974,-0.06521252,-0.11858158,0.0,0.0,0.0,0.4709569215774536,0.4709569215774536,link6
1764179945.5448143,d4pg_demo,FAR,demo,30,0,-5.673523528840556,0,0,0,0.087,0.09,0.924,0.84208035,-0.41697782,1.0835438,0.29437357,-0.13696319,1.484425,0.0,0.0,0.0,0.4149247109889984,0.4149247109889984,link6
1764179946.9309928,d4pg_demo,FAR,demo,30,1,-5.323980084871254,0,0,0,0.079,0.023,0.873,0.33300948,-0.5934443,1.3238692,0.18722025,-0.1691962,1.5896538,0.0,0.0,0.0,0.43777650594711304,0.43777650594711304,link6
1764179948.3168006,d4pg_demo,FAR,demo,30,2,-5.120335399890719,0,0,0,0.029,-0.005,0.844,-0.1239299,-0.7335543,1.4479371,0.08103992,-0.19512355,1.5401443,0.0,0.0,0.0,0.454204261302948,0.454204261302948,link6
