QuanPM-doosan/DoosanRobot_Reinforcement_Learning/ros2_ws/rl_logs/20251118_100106_d4pg_train.csv
ts,run_tag,mode,phase,ep,step,reward,done,mem_len,learn_flag,ee_x,ee_y,ee_z,j1,j2,j3,j4,j5,j6,sphere_x,sphere_y,sphere_z,dist_out,signed,closest_link
1763434871.4626703,d4pg_train,FAR,train,1,0,-61.626208870840095,1,1,0,0.668,-0.214,0.853,-0.29382187,0.26095372,0.984358,-0.55745023,1.2071823,0.1049225,0.0,0.0,0.0,0.0,-0.13190795481204987,link6
1763434875.1033127,d4pg_train,FAR,train,2,0,-8.452955362522292,0,2,0,0.079,0.044,1.391,0.035948705,0.029373081,0.057824943,0.15741996,0.10952793,0.20500113,0.0,0.0,0.0,0.40247613191604614,0.40247613191604614,link6
1763434876.4927049,d4pg_train,FAR,train,2,1,-9.005976277023791,0,3,0,0.409,-0.251,1.233,-0.6407242,0.10398402,0.5987339,0.0019985056,0.11248385,0.55711466,0.0,0.0,0.0,0.15441863238811493,0.15441863238811493,link6
1763434877.8736959,d4pg_train,FAR,train,2,2,-8.286287263344015,0,4,0,0.229,-0.086,1.355,-0.49754313,0.038754977,0.31943586,0.35727337,-0.10737415,-0.046863582,0.0,0.0,0.0,0.5303571820259094,0.5303571820259094,link6
1763434879.2517655,d4pg_train,FAR,train,2,3,-8.368768196413987,0,5,0,-0.038,0.042,1.393,-0.15098949,-0.07537121,0.09479833,0.27119645,-0.115100764,-0.30514947,0.0,0.0,0.0,0.7165951132774353,0.7165951132774353,link6
1763434880.6408894,d4pg_train,FAR,train,2,4,-8.431152874506507,0,6,0,0.246,0.109,1.336,0.39330098,0.052838247,0.41825995,0.7014758,-0.45012972,0.88131464,0.0,0.0,0.0,0.29790693521499634,0.29790693521499634,link6
1763434882.0183606,d4pg_train,FAR,train,2,5,-8.543992331609502,0,7,0,0.376,-0.001,1.287,-0.16275333,0.02707393,0.53749967,0.29429457,0.14487727,0.74117476,0.0,0.0,0.0,0.230420783162117,0.230420783162117,link6
1763434883.4045148,d4pg_train,FAR,train,2,6,-8.069577790497624,0,8,0,0.287,-0.045,1.313,-0.28483844,-0.017614318,0.4323271,-0.030320175,0.39382598,0.5986956,0.0,0.0,0.0,0.8464121222496033,0.8464121222496033,link6
1763434884.7847672,d4pg_train,FAR,train,2,7,-8.318318577540058,0,9,0,0.371,-0.074,1.17,-0.08629897,-0.051203728,0.70730406,-0.8489159,1.0712397,1.4233756,0.0,0.0,0.0,0.1670810729265213,0.1670810729265213,link6
1763434886.1634116,d4pg_train,FAR,train,2,8,-61.640254513194506,1,10,0,0.614,-0.18,0.903,-0.29606846,0.06240268,1.172618,-0.49890593,0.57017726,0.7018261,0.0,0.0,0.0,0.0,-0.06805826723575592,link6
1763434889.7987008,d4pg_train,FAR,train,3,0,-6.982553925651323,0,11,0,0.548,0.337,0.969,0.49440864,0.07063355,1.1724643,-0.88548714,-0.011848561,-0.93623716,0.0,0.0,0.0,0.7163839936256409,0.7163839936256409,link6
1763434891.1752512,d4pg_train,FAR,train,3,1,-6.6402131980972365,0,12,0,0.677,-0.029,0.873,-0.17576006,0.07929035,1.3393315,-0.37615567,-0.334178,0.114992015,0.0,0.0,0.0,0.62691330909729,0.62691330909729,link6
1763434892.5540376,d4pg_train,FAR,train,3,2,-7.114348703827801,0,13,0,0.578,-0.279,0.997,-0.55081373,0.087562114,1.0245063,-0.09139816,-0.1629912,0.41466308,0.0,0.0,0.0,1.2270625829696655,1.2270625829696655,link6
1763434893.928284,d4pg_train,FAR,train,3,3,-8.32908368206267,0,14,0,-0.093,-0.013,1.385,0.4112447,-0.049991537,-0.1151843,-0.41633627,0.34798348,0.07923527,0.0,0.0,0.0,1.3772138357162476,1.3772138357162476,link6
1763434895.3192067,d4pg_train,FAR,train,3,4,-8.050981617910677,0,15,0,0.207,0.16,1.316,0.5097144,-0.08127834,0.58638734,-0.54050624,-0.0015410832,0.18871364,0.0,0.0,0.0,0.9304811358451843,0.9304811358451843,link6
1763434896.7028584,d4pg_train,FAR,train,3,5,-7.5164198381392655,0,16,0,0.446,0.213,1.151,0.30838746,-0.01405749,0.92334044,-0.5605816,-0.07531124,0.06876066,0.0,0.0,0.0,0.8979134559631348,0.8979134559631348,link6
1763434898.0858452,d4pg_train,FAR,train,3,6,-7.447137275701603,0,17,0,0.585,-0.048,1.092,-0.19041142,0.08076458,0.9608003,-0.92186177,-0.26461145,-0.08169757,0.0,0.0,0.0,0.6364737153053284,0.6364737153053284,link6
1763434899.466629,d4pg_train,FAR,train,3,7,-8.277938313489852,0,18,0,0.197,0.111,1.361,0.45077327,0.044523135,0.10450754,-0.3355888,0.3249844,-0.025523148,0.0,0.0,0.0,1.494620442390442,1.494620442390442,link6
1763434900.8522499,d4pg_train,FAR,train,3,8,-8.185068877944087,0,19,0,-0.26,-0.116,1.334,0.5387442,-0.09683479,-0.37235886,-0.04624982,0.5558819,-0.009016532,0.0,0.0,0.0,0.8723295331001282,0.8723295331001282,link6
1763434902.2294047,d4pg_train,FAR,train,3,9,-7.917444832495858,0,20,0,0.423,-0.204,1.233,-0.6317478,0.08642018,0.62764364,-1.4469274,-0.38394105,-0.20399208,0.0,0.0,0.0,0.8512480854988098,0.8512480854988098,link6
1763434903.6034167,d4pg_train,FAR,train,3,10,-8.254352229200418,0,21,0,0.235,-0.037,1.355,-0.39469802,0.024208067,0.32392827,-0.8815135,-0.19286457,-0.24392559,0.0,0.0,0.0,1.4384584426879883,1.4384584426879883,link6
1763434904.9880455,d4pg_train,FAR,train,3,11,-8.357162789799897,0,22,0,-0.192,0.084,1.377,-0.21491668,-0.17599966,0.017338628,-0.21656834,-0.057748698,-0.24436614,0.0,0.0,0.0,1.223511815071106,1.223511815071106,link6
1763434906.3631263,d4pg_train,FAR,train,3,12,-8.24069718508947,0,23,0,-0.002,0.035,1.373,0.24568129,-0.1781045,0.28988284,-0.1444305,0.28652436,-0.26096195,0.0,0.0,0.0,1.2918435335159302,1.2918435335159302,link6
1763434907.7370028,d4pg_train,FAR,train,3,13,-8.204495324621654,0,24,0,0.038,0.049,1.366,0.15972678,-0.15764691,0.32078937,0.10093047,0.3491925,0.23305516,0.0,0.0,0.0,1.141204595565796,1.141204595565796,link6
1763434909.110992,d4pg_train,FAR,train,3,14,-8.148013036352397,0,25,0,0.17,0.057,1.346,0.029164689,-0.098669976,0.43691576,0.34226847,0.2546348,0.44257542,0.0,0.0,0.0,0.8912321925163269,0.8912321925163269,link6
1763434910.4856863,d4pg_train,FAR,train,3,15,-8.096954203020976,0,26,0,0.212,0.044,1.332,0.06828573,0.005348475,0.19651443,-0.11231485,0.75037324,-0.2679254,0.0,0.0,0.0,1.138155460357666,1.138155460357666,link6
1763434911.8641827,d4pg_train,FAR,train,3,16,-8.351229204883056,0,27,0,0.02,0.045,1.391,0.21523994,-0.021948218,0.029413985,0.03808923,0.17954783,0.05230516,0.0,0.0,0.0,1.565782904624939,1.565782904624939,link6
1763434913.2411137,d4pg_train,FAR,train,3,17,-8.157194621881807,0,28,0,-0.367,-0.103,1.305,0.3364489,-0.25039,-0.043023482,0.14007117,-0.63209856,0.19280481,0.0,0.0,0.0,1.2938374280929565,1.2938374280929565,link6
1763434914.6158643,d4pg_train,FAR,train,3,18,-8.304511131011365,0,29,0,-0.187,0.081,1.369,-0.14446309,-0.11713252,-0.025649227,-0.31359208,-0.40762472,0.18441267,0.0,0.0,0.0,1.486329436302185,1.486329436302185,link6
1763434915.990652,d4pg_train,FAR,train,3,19,-8.314683450491986,0,30,0,-0.127,0.051,1.379,-0.06791873,-0.0814251,0.036343765,-0.036413882,-0.42272395,0.24216849,0.0,0.0,0.0,1.1831083297729492,1.1831083297729492,link6
1763434917.3668005,d4pg_train,FAR,train,3,20,-8.314160864328494,0,31,0,0.156,0.047,1.376,0.07087128,0.04222478,0.23406585,0.13464355,-0.23548459,0.23619384,0.0,0.0,0.0,0.9234572052955627,0.9234572052955627,link6
1763434918.750287,d4pg_train,FAR,train,3,21,-8.327206837931353,0,32,0,0.195,0.016,1.374,-0.106424116,0.0762012,0.19393262,0.124249,-0.17604832,0.4096298,0.0,0.0,0.0,1.1655981540679932,1.1655981540679932,link6
1763434920.1245472,d4pg_train,FAR,train,3,22,-8.245576113761471,0,33,0,0.323,0.032,1.335,-0.015822964,0.10758728,0.34770557,-0.09973234,-0.048004996,0.44322383,0.0,0.0,0.0,0.7716630101203918,0.7716630101203918,link6
1763434921.5041876,d4pg_train,FAR,train,3,23,-7.704036856019115,0,34,0,0.571,0.046,1.149,0.042663667,0.1487893,0.66967666,-0.39946735,0.37654245,0.4526961,0.0,0.0,0.0,0.8827599287033081,0.8827599287033081,link6
1763434922.8845267,d4pg_train,FAR,train,3,24,-8.370103013568153,0,35,0,0.041,0.082,1.392,0.73066664,0.06951972,-0.017256064,0.009844075,-0.17126691,-0.33132628,0.0,0.0,0.0,1.3297854661941528,1.3297854661941528,link6
1763434924.2670412,d4pg_train,FAR,train,3,25,-8.333172702744356,0,36,0,0.046,0.055,1.387,0.06015899,-0.02100888,0.1949987,-0.26724976,-0.31962574,-0.31524992,0.0,0.0,0.0,1.132331371307373,1.132331371307373,link6
1763434925.6481278,d4pg_train,FAR,train,3,26,-8.105959173549206,0,37,0,0.128,-0.126,1.339,-1.1191434,-0.122621305,0.54920506,-0.5947312,-0.3017327,-0.20878235,0.0,0.0,0.0,1.4148129224777222,1.4148129224777222,link6
1763434927.0274837,d4pg_train,FAR,train,3,27,-8.0236318385124,0,38,0,0.268,-0.001,1.31,-0.14810373,-0.020080848,0.40509993,-0.04205167,0.63101643,-0.15802136,0.0,0.0,0.0,0.8699824810028076,0.8699824810028076,link6
1763434928.4104085,d4pg_train,FAR,train,3,28,-7.628007579762723,0,39,0,0.417,-0.109,1.196,-0.4108001,-0.009786567,0.6467874,0.20943753,0.7157701,-0.15206632,0.0,0.0,0.0,0.9906193017959595,0.9906193017959595,link6
1763434929.7912445,d4pg_train,FAR,train,3,29,-8.273497050542499,0,40,0,-0.214,0.107,1.358,-0.32401907,-0.1228674,-0.06597455,0.12229466,-0.45589584,0.8900178,0.0,0.0,0.0,1.4848617315292358,1.4848617315292358,link6
1763434931.1700883,d4pg_train,FAR,train,3,30,-8.030059752218172,0,41,0,-0.017,0.173,1.327,-0.93276614,-0.017638713,-0.04648344,-0.5494749,-1.0418289,0.1352073,0.0,0.0,0.0,1.185982584953308,1.185982584953308,link6
1763434932.5465643,d4pg_train,FAR,train,3,31,-8.100467111280146,0,42,0,-0.003,0.138,1.343,-0.89318407,-0.043443207,0.05335758,-0.4303628,-0.9444508,-0.2836356,0.0,0.0,0.0,1.2521615028381348,1.2521615028381348,link6
1763434933.9305038,d4pg_train,FAR,train,3,32,-6.50158306894756,0,43,0,0.53,0.043,0.943,0.036841825,-0.10874379,1.2573414,-0.21214819,0.61151767,-0.37826753,0.0,0.0,0.0,0.6716856956481934,0.6716856956481934,link6
1763434935.3107395,d4pg_train,FAR,train,3,33,-7.705475498833325,0,44,0,0.486,0.04,1.188,0.035649873,0.04073292,0.69710076,-0.58603287,0.22887844,0.39592308,0.0,0.0,0.0,0.958215594291687,0.958215594291687,link6
1763434936.6896148,d4pg_train,FAR,train,3,34,-8.240901007956552,0,45,0,0.268,0.054,1.346,0.06615092,0.040634524,0.3325798,-0.6755661,-0.052774772,0.53496987,0.0,0.0,0.0,1.4717962741851807,1.4717962741851807,link6
1763434938.071778,d4pg_train,FAR,train,3,35,-7.887190026013814,0,46,0,0.001,-0.295,1.281,-1.5375172,-0.021404186,0.4683359,-0.8063844,0.7649443,0.8970245,0.0,0.0,0.0,1.272585153579712,1.272585153579712,link6
1763434939.4699967,d4pg_train,FAR,train,3,36,-8.28592526586999,0,47,0,0.05,-0.015,1.38,-0.83165026,-0.031488836,0.012435679,-0.17714652,0.4878522,0.86409485,0.0,0.0,0.0,1.4180667400360107,1.4180667400360107,link6
1763434940.857054,d4pg_train,FAR,train,3,37,-8.32894911779569,0,48,0,-0.13,0.118,1.377,-0.4882208,-0.09905909,-0.12266173,0.08898839,0.301549,0.6517366,0.0,0.0,0.0,1.1248118877410889,1.1248118877410889,link6
1763434942.2528396,d4pg_train,FAR,train,3,38,-8.242086033948741,0,49,0,0.116,-0.087,1.366,-0.7311553,0.013918392,0.11783467,-0.44834355,0.5161875,0.8053127,0.0,0.0,0.0,1.1725770235061646,1.1725770235061646,link6
1763434943.6382906,d4pg_train,FAR,train,3,39,-8.335396662979887,0,50,0,-0.036,0.07,1.387,-0.6043415,-0.17047335,0.19059117,-0.52268124,0.025488164,0.15389822,0.0,0.0,0.0,1.3658454418182373,1.3658454418182373,link6
1763434945.0195022,d4pg_train,FAR,train,3,40,-8.337464168480707,0,51,0,-0.245,0.102,1.364,-0.2613246,-0.26899418,0.05934554,-0.34166706,0.14694306,-0.11793493,0.0,0.0,0.0,1.6068578958511353,1.6068578958511353,link6
1763434946.4055312,d4pg_train,FAR,train,3,41,-7.879968487144199,0,52,0,0.186,-0.21,1.283,-1.0209423,-0.12842472,0.76129544,-0.26731473,-0.29297245,-0.107877105,0.0,0.0,0.0,1.0777915716171265,1.0777915716171265,link6
1763434947.8018622,d4pg_train,FAR,train,3,42,-8.291094569231445,0,53,0,-0.077,0.044,1.379,-0.28808534,-0.16516668,0.088642254,-0.44459468,0.41035286,0.070889615,0.0,0.0,0.0,1.47320556640625,1.47320556640625,link6
1763434949.1804426,d4pg_train,FAR,train,3,43,-8.244869166646941,0,54,0,-0.421,-0.013,1.308,0.11319668,-0.22702849,-0.27690572,-0.5277697,0.123443365,0.61378217,0.0,0.0,0.0,1.6953686475753784,1.6953686475753784,link6
1763434950.5614152,d4pg_train,FAR,train,3,44,-8.176244165116735,0,55,0,0.261,0.096,1.334,0.17379093,0.017138094,0.45517814,-0.34376702,-0.24521738,-0.036797605,0.0,0.0,0.0,1.0274596214294434,1.0274596214294434,link6
1763434951.9367156,d4pg_train,FAR,train,3,45,-7.783053458462265,0,56,0,0.366,0.195,1.229,0.44600594,-0.02508803,0.71001935,-0.44971487,0.31074554,0.6445645,0.0,0.0,0.0,0.9095586538314819,0.9095586538314819,link6
1763434953.3135855,d4pg_train,FAR,train,3,46,-7.113718971277174,0,57,0,0.486,0.19,1.064,0.28839293,-0.036026012,0.9758112,0.0095508015,0.62534696,0.5679264,0.0,0.0,0.0,0.732442319393158,0.732442319393158,link6
1763434954.694576,d4pg_train,FAR,train,3,47,-8.038540919399288,0,58,0,0.152,0.016,1.331,-0.09157676,-0.1864748,0.55566794,-0.42415828,0.18527226,1.060115,0.0,0.0,0.0,1.1310598850250244,1.1310598850250244,link6
1763434956.080239,d4pg_train,FAR,train,3,48,-8.087403789004826,0,59,0,0.295,0.02,1.315,-0.103963256,-0.011636443,0.54588944,-0.6239279,-0.19814989,0.4382352,0.0,0.0,0.0,0.9398508071899414,0.9398508071899414,link6
1763434957.466257,d4pg_train,FAR,train,3,49,-8.00946807727884,0,60,0,0.423,0.052,1.265,0.023624973,0.06855814,0.5912218,-0.4557093,-0.080135405,-0.061847325,0.0,0.0,0.0,0.9745326042175293,0.9745326042175293,link6
1763434958.841493,d4pg_train,FAR,train,3,50,-8.324707859270264,0,61,0,0.069,0.045,1.385,0.014272313,0.093605764,-0.0006706667,-0.110898755,-0.38258517,-0.024313496,0.0,0.0,0.0,1.2337583303451538,1.2337583303451538,link6
1763434960.2185986,d4pg_train,FAR,train,3,51,-8.293094787243522,0,62,0,0.297,0.069,1.348,0.10164722,0.13556094,0.24305782,-0.0649172,-0.02251622,-0.016154492,0.0,0.0,0.0,0.8779625296592712,0.8779625296592712,link6
1763434961.608119,d4pg_train,FAR,train,3,52,-7.989811412054558,0,63,0,0.49,0.088,1.235,0.09182227,0.14089394,0.51627797,-0.056700528,0.28480437,0.10301077,0.0,0.0,0.0,0.9401048421859741,0.9401048421859741,link6
1763434962.9894576,d4pg_train,FAR,train,3,53,-8.294343992093822,0,64,0,-0.079,0.019,1.38,0.11821321,-0.17054729,0.24790387,0.281605,-0.37375876,0.25863186,0.0,0.0,0.0,1.3981478214263916,1.3981478214263916,link6
1763434964.3836753,d4pg_train,FAR,train,3,54,-8.068309519936468,0,65,1,0.215,0.054,1.326,0.022484366,-0.108902454,0.5982915,-0.38070226,-0.22430435,0.25740924,0.0,0.0,0.0,0.7876954078674316,0.7876954078674316,link6
1763434965.773342,d4pg_train,FAR,train,3,55,-7.560497578368281,0,66,1,0.53,0.018,1.143,-0.0537269,0.03632706,0.89048344,-0.8042893,-0.07996969,0.2985217,0.0,0.0,0.0,0.9644912481307983,0.9644912481307983,link6
1763434967.1606534,d4pg_train,FAR,train,3,56,-8.030869634942263,0,67,1,0.338,-0.052,1.294,-0.29956985,-0.0041052843,0.6092911,-0.22780053,-0.28822166,0.06316812,0.0,0.0,0.0,0.9675593972206116,0.9675593972206116,link6
1763434968.560391,d4pg_train,FAR,train,3,57,-8.060694830244627,0,68,1,0.335,0.051,1.3,0.040528268,0.031374346,0.405281,0.09259093,0.44441295,0.17912719,0.0,0.0,0.0,1.123422384262085,1.123422384262085,link6
1763434969.9497714,d4pg_train,FAR,train,3,58,-7.984143358788413,0,69,1,0.169,0.144,1.312,0.34389162,0.011548806,0.17244999,0.3901777,0.9848877,0.255396,0.0,0.0,0.0,1.0043867826461792,1.0043867826461792,link6
1763434971.3271027,d4pg_train,FAR,train,3,59,-7.6093600770186365,0,70,1,0.563,-0.094,1.131,-0.29770613,0.09938831,0.83490765,0.623659,0.1870046,-0.46478385,0.0,0.0,0.0,0.6422258019447327,0.6422258019447327,link6
1763434975.006751,d4pg_train,FAR,train,4,0,-8.357743390201891,0,71,1,0.061,0.038,1.391,-0.00053004705,0.010747762,0.0526765,-0.08901522,0.18437728,0.07910198,0.0,0.0,0.0,0.9009284973144531,0.9009284973144531,link6
1763434976.39252,d4pg_train,FAR,train,4,1,-8.212438505792312,0,72,1,0.061,0.211,1.351,0.9513352,-0.011830233,0.39244884,-0.96738815,-0.33226708,-0.088394634,0.0,0.0,0.0,1.2934410572052002,1.2934410572052002,link6
1763434977.792685,d4pg_train,FAR,train,4,2,-7.959201132368035,0,73,1,0.311,0.23,1.268,0.43717754,0.0098454775,0.67514694,-0.7478937,-0.18061106,-0.12677568,0.0,0.0,0.0,0.6891597509384155,0.6891597509384155,link6
1763434979.1760986,d4pg_train,FAR,train,4,3,-7.580114546054404,0,74,1,0.384,-0.032,1.203,-0.18673483,-0.12458537,0.9254574,-0.033922132,-0.0797936,0.7202998,0.0,0.0,0.0,0.8645603656768799,0.8645603656768799,link6
1763434980.5546145,d4pg_train,FAR,train,4,4,-8.291555910131688,0,75,1,0.049,0.054,1.38,0.3105754,-0.10751413,0.29028976,0.2029482,-0.08592632,-0.102249645,0.0,0.0,0.0,1.376271367073059,1.376271367073059,link6
1763434981.9422588,d4pg_train,FAR,train,4,5,-8.320541173290785,0,76,1,-0.029,0.035,1.386,0.14977303,-0.14446701,0.24973482,-0.0938831,-0.035010137,-0.08623588,0.0,0.0,0.0,1.1169143915176392,1.1169143915176392,link6
1763434983.3259895,d4pg_train,FAR,train,4,6,-7.857344157253827,0,77,1,0.212,-0.026,1.292,-0.48766607,-0.19665012,0.7749284,-0.7402599,-0.46165672,0.34298754,0.0,0.0,0.0,1.0562167167663574,1.0562167167663574,link6
1763434984.7137914,d4pg_train,FAR,train,4,7,-7.467041676458206,0,78,1,0.445,0.042,1.161,0.0645365,-0.072307415,0.9189521,-0.63799775,0.25222516,0.31108937,0.0,0.0,0.0,0.7553227543830872,0.7553227543830872,link6
1763434986.1116152,d4pg_train,FAR,train,4,8,-7.958718682061716,0,79,1,0.394,0.129,1.26,0.24006628,0.039185006,0.57302433,-0.6081194,0.07056206,0.2399226,0.0,0.0,0.0,1.4756436347961426,1.4756436347961426,link6
1763434987.4951298,d4pg_train,FAR,train,4,9,-8.117297714517042,0,80,1,0.04,0.059,1.351,-0.13939041,-0.25102645,0.5605395,-0.8890306,-0.25287366,0.54901946,0.0,0.0,0.0,1.2298085689544678,1.2298085689544678,link6
1763434988.8774402,d4pg_train,FAR,train,4,10,-8.319321333753363,0,81,1,-0.119,0.063,1.38,-0.05170278,-0.20134902,0.19317436,-0.6013407,-0.22213413,0.8165404,0.0,0.0,0.0,1.4924155473709106,1.4924155473709106,link6
1763434990.2640567,d4pg_train,FAR,train,4,11,-8.281943308102491,0,82,1,-0.374,0.067,1.327,-0.0422396,-0.25990087,-0.09096274,-0.3506878,-0.33682823,0.8137315,0.0,0.0,0.0,1.82744300365448,1.82744300365448,link6
1763434991.644392,d4pg_train,FAR,train,4,12,-8.101631820466793,0,83,1,0.073,-0.059,1.347,-0.6916793,-0.17699331,0.43822172,-0.88311815,0.40572834,0.8436222,0.0,0.0,0.0,1.1892715692520142,1.1892715692520142,link6
1763434993.0272233,d4pg_train,FAR,train,4,13,-8.30086462691148,0,84,1,0.049,0.041,1.382,-0.10028225,-0.10686262,0.2985191,-0.3106189,-0.1907551,0.19104932,0.0,0.0,0.0,1.3310436010360718,1.3310436010360718,link6
1763434994.4075918,d4pg_train,FAR,train,4,14,-8.267610245600682,0,85,1,0.01,0.049,1.377,0.32079124,-0.100548185,0.3371493,-0.0957553,-0.4443335,-0.047368843,0.0,0.0,0.0,1.032973051071167,1.032973051071167,link6
1763434995.7987797,d4pg_train,FAR,train,4,15,-7.613721300486418,0,86,1,0.31,-0.16,1.22,-0.47896042,-0.112672344,0.7481089,-0.627347,0.5542712,0.40035772,0.0,0.0,0.0,0.9600877165794373,0.9600877165794373,link6
1763434997.187896,d4pg_train,FAR,train,4,16,-8.011146159895823,0,87,1,0.291,-0.115,1.298,-0.48887712,-0.036237743,0.52618825,-0.055722006,0.20993747,0.6231944,0.0,0.0,0.0,1.139343023300171,1.139343023300171,link6
1763434998.5834517,d4pg_train,FAR,train,4,17,-8.276440476906078,0,88,1,0.16,-0.016,1.37,-0.33160883,-0.03343393,0.32691357,0.25211912,-0.086255975,0.9514631,0.0,0.0,0.0,1.2706183195114136,1.2706183195114136,link6
1763434999.96612,d4pg_train,FAR,train,4,18,-7.777531092343896,0,89,1,0.186,0.085,1.28,0.23608159,-0.24629804,0.83941925,0.011583382,-0.18844318,0.44762266,0.0,0.0,0.0,1.055161952972412,1.055161952972412,link6
1763435001.3729806,d4pg_train,FAR,train,4,19,-7.757093081067436,0,90,1,0.233,0.065,1.27,0.080837525,-0.20906009,0.841587,-0.09711149,-0.261488,0.24725887,0.0,0.0,0.0,1.0795793533325195,1.0795793533325195,link6
1763435002.7624192,d4pg_train,FAR,train,4,20,-7.877717214796979,0,91,1,0.229,0.046,1.292,0.036441825,-0.16893822,0.7923756,-0.187909,-0.34767014,0.14948563,0.0,0.0,0.0,1.1410748958587646,1.1410748958587646,link6
1763435004.141113,d4pg_train,FAR,train,4,21,-6.3267785693061915,0,92,1,0.509,0.069,0.92,0.0030873837,-0.16392559,1.558699,-0.1271882,-0.53230083,0.42074355,0.0,0.0,0.0,0.6970212459564209,0.6970212459564209,link6
1763435005.5328553,d4pg_train,FAR,train,4,22,-6.6648185349342794,0,93,1,0.473,-0.046,1.004,-0.20845161,-0.19001326,1.370881,-0.27030936,-0.46385413,0.44493744,0.0,0.0,0.0,1.1317771673202515,1.1317771673202515,link6
1763435006.9131818,d4pg_train,FAR,train,4,23,-7.692425896580588,0,94,1,0.236,0.201,1.244,0.6266841,-0.14383575,0.72770524,-0.2823511,0.45249805,0.98765546,0.0,0.0,0.0,1.0284276008605957,1.0284276008605957,link6
1763435008.2977786,d4pg_train,FAR,train,4,24,-6.57346900892185,0,95,1,0.486,0.197,0.961,0.296453,-0.14107952,1.438434,-0.0566811,-0.26514786,0.6944683,0.0,0.0,0.0,0.6941048502922058,0.6941048502922058,link6
1763435009.6880865,d4pg_train,FAR,train,4,25,-6.455569220788241,0,96,1,0.551,0.105,0.918,0.10901874,-0.10176877,1.4363971,-0.16847305,-0.17479229,0.3573142,0.0,0.0,0.0,0.8795502781867981,0.8795502781867981,link6
1763435009.8851593,d4pg_train,FAR,train,4,26,-6.455568916259564,0,97,1,0.551,0.105,0.918,0.10901874,-0.10176877,1.4363971,-0.16847305,-0.17479229,0.3573142,0.0,0.0,0.0,0.8795905113220215,0.8795905113220215,link6
1763435011.272971,d4pg_train,FAR,train,4,27,-6.206210215673922,0,98,1,0.488,-0.182,0.893,-0.4754022,-0.18662055,1.5552585,-0.8343583,-0.20062675,1.2012618,0.0,0.0,0.0,0.726900041103363,0.726900041103363,link6
1763435012.6513388,d4pg_train,FAR,train,4,28,-6.076573021071284,0,99,1,0.516,-0.018,0.871,-0.08576713,-0.20183316,1.5949708,0.082583986,-0.17701076,1.6739079,0.0,0.0,0.0,0.8194260597229004,0.8194260597229004,link6
1763435014.0343478,d4pg_train,FAR,train,4,29,-6.382456749482902,0,100,1,0.409,0.192,0.963,0.4239608,-0.26411954,1.5054848,0.96154296,-0.19312574,1.8335993,0.0,0.0,0.0,1.0840615034103394,1.0840615034103394,link6
1763435015.418989,d4pg_train,FAR,train,4,30,-7.1663622529594235,0,101,1,0.4,0.085,1.122,0.103070706,-0.17161763,1.1976712,-0.069133066,-0.51797533,1.1367056,0.0,0.0,0.0,0.8356853723526001,0.8356853723526001,link6
1763435016.8071716,d4pg_train,FAR,train,4,31,-7.061308801670886,0,102,1,0.474,-0.139,1.068,-0.3774805,-0.09720288,1.2249179,-0.047440734,-0.42307472,1.1913648,0.0,0.0,0.0,0.8409577012062073,0.8409577012062073,link6
1763435018.1945636,d4pg_train,FAR,train,4,32,-7.827113912152248,0,103,1,-0.024,0.128,1.298,0.17665574,-0.17316312,0.4789323,-0.88113093,-1.2589141,0.4691432,0.0,0.0,0.0,1.283721923828125,1.283721923828125,link6
1763435019.5912619,d4pg_train,FAR,train,4,33,-7.625515653658166,0,104,1,0.123,0.166,1.254,0.7467294,-0.15102226,0.8671027,0.0060568126,-1.1115863,0.73874116,0.0,0.0,0.0,1.101630687713623,1.101630687713623,link6
1763435020.9711604,d4pg_train,FAR,train,4,34,-7.559735738782957,0,105,1,0.222,0.206,1.223,0.5946225,-0.14649163,0.95481986,0.06264051,-0.76526165,0.82919616,0.0,0.0,0.0,1.0868221521377563,1.0868221521377563,link6
1763435022.3525584,d4pg_train,FAR,train,4,35,-6.866115013934116,0,106,1,0.249,-0.22,1.095,-0.6604153,-0.24390905,1.3133143,0.6289972,-1.0292954,-0.3940488,0.0,0.0,0.0,0.970197856426239,0.970197856426239,link6
1763435023.7426727,d4pg_train,FAR,train,4,36,-6.872540892176501,0,107,1,0.382,-0.1,1.075,-0.2480555,-0.2134674,1.3274298,0.533156,-0.74247116,0.27786002,0.0,0.0,0.0,0.8361811637878418,0.8361811637878418,link6
1763435023.926154,d4pg_train,FAR,train,4,37,-6.872540906797717,0,108,1,0.382,-0.1,1.075,-0.2480555,-0.2134674,1.3274298,0.533156,-0.74247116,0.27786002,0.0,0.0,0.0,0.8361799120903015,0.8361799120903015,link6
1763435025.3179557,d4pg_train,FAR,train,4,38,-6.8083461875812645,0,109,1,0.43,-0.012,1.05,-0.034424596,-0.18750077,1.3507088,0.50885355,-0.6911949,0.6657686,0.0,0.0,0.0,1.043843150138855,1.043843150138855,link6
1763435026.7128851,d4pg_train,FAR,train,4,39,-6.105833984817026,0,110,1,0.431,0.163,0.907,0.41341358,-0.23999394,1.6232406,0.8916024,-0.6286108,0.27650726,0.0,0.0,0.0,0.793000340461731,0.793000340461731,link6
1763435028.1121902,d4pg_train,FAR,train,4,40,-5.909624828177259,0,111,1,0.521,0.12,0.826,0.25272548,-0.14041631,1.6559914,0.9019487,-0.622637,0.93490404,0.0,0.0,0.0,0.6717362403869629,0.6717362403869629,link6
1763435029.5108,d4pg_train,FAR,train,4,41,-6.36443931880338,0,112,1,0.572,-0.011,0.893,0.040690392,-0.040070914,1.4658705,0.9594369,-0.71277934,1.7693337,0.0,0.0,0.0,0.8356674909591675,0.8356674909591675,link6
1763435030.8688202,d4pg_train,FAR,train,4,42,-7.243400895587453,0,113,1,0.034,-0.065,1.205,-0.16811885,-0.34333283,0.93194395,0.91740906,-1.4494475,1.3313234,0.0,0.0,0.0,1.2615323066711426,1.2615323066711426,link6
1763435032.2547724,d4pg_train,FAR,train,4,43,-6.901723718740302,0,114,1,0.149,-0.058,1.139,-0.17774986,-0.37033775,1.2916323,0.57921636,-1.2897637,1.0961747,0.0,0.0,0.0,0.8850101828575134,0.8850101828575134,link6
1763435033.6576903,d4pg_train,FAR,train,4,44,-6.035122261079979,0,115,1,0.373,0.011,0.934,0.056416254,-0.32830808,1.7094148,0.40688777,-0.97758555,0.9660882,0.0,0.0,0.0,0.9421793818473816,0.9421793818473816,link6
1763435035.0619445,d4pg_train,FAR,train,4,45,-6.6207256660941445,0,116,1,0.109,0.067,1.096,0.13041995,-0.2666628,1.1033534,-0.13760589,-2.275555,2.2294652,0.0,0.0,0.0,1.119227647781372,1.119227647781372,link6
1763435036.4400835,d4pg_train,FAR,train,4,46,-6.0078342571542995,0,117,1,0.255,0.1,0.963,0.10882974,-0.2509821,1.5502709,-0.31410244,-2.1071143,1.5362175,0.0,0.0,0.0,0.8937948942184448,0.8937948942184448,link6
1763435037.8319044,d4pg_train,FAR,train,4,47,-5.786949112034125,0,118,1,0.297,0.118,0.91,0.1949882,-0.23734364,1.6663605,-0.17204261,-2.0090473,1.1612656,0.0,0.0,0.0,1.1902371644973755,1.1902371644973755,link6
1763435039.221192,d4pg_train,FAR,train,4,48,-6.352988458632872,0,119,1,0.293,0.145,1.007,0.69994974,-0.22069669,1.3349905,1.2259909,-1.5862845,0.81199485,0.0,0.0,0.0,0.9080379605293274,0.9080379605293274,link6
1763435040.6059878,d4pg_train,FAR,train,4,49,-6.70215417522373,0,120,1,0.215,0.017,1.096,0.41378656,-0.26423448,1.1425463,1.1142159,-1.7034414,0.8705054,0.0,0.0,0.0,1.163940191268921,1.163940191268921,link6
1763435041.9954014,d4pg_train,FAR,train,4,50,-6.836775195400525,0,121,1,0.118,-0.025,1.133,0.2928222,-0.31753337,1.0806081,0.9218691,-1.7965086,0.8607136,0.0,0.0,0.0,0.9537885189056396,0.9537885189056396,link6
1763435043.3846388,d4pg_train,FAR,train,4,51,-5.940322881144588,0,122,1,0.288,-0.124,0.939,-0.18060407,-0.22837721,1.411469,1.3906672,-1.9193333,0.8664318,0.0,0.0,0.0,0.9207002520561218,0.9207002520561218,link6
1763435044.7788599,d4pg_train,FAR,train,4,52,-5.975280944902052,0,123,1,0.32,0.087,0.939,0.48768064,-0.1490157,1.2376739,1.743369,-2.1321907,1.3370345,0.0,0.0,0.0,0.9852972030639648,0.9852972030639648,link6
1763435046.1927176,d4pg_train,FAR,train,4,53,-6.262601062655689,0,124,1,0.261,0.139,1.001,0.6633074,-0.124178156,1.03604,1.7723246,-2.2613795,1.6033654,0.0,0.0,0.0,1.254073143005371,1.254073143005371,link6
1763435047.594835,d4pg_train,FAR,train,4,54,-5.9437646857259425,0,125,1,0.102,0.068,0.983,0.9400128,-0.37934998,1.3269047,1.3653613,-2.4838638,1.3282489,0.0,0.0,0.0,1.1068867444992065,1.1068867444992065,link6
1763435048.9862695,d4pg_train,FAR,train,4,55,-5.248618119751143,0,126,1,0.165,0.059,0.857,0.5593276,-0.4632446,1.8184044,0.8865948,-2.173562,1.6672804,0.0,0.0,0.0,0.9987757802009583,0.9987757802009583,link6
1763435050.364605,d4pg_train,FAR,train,4,56,-4.721069405549483,0,127,1,0.202,0.026,0.76,0.21305524,-0.49579942,2.1207914,0.52302253,-1.9983102,1.8040519,0.0,0.0,0.0,1.0282198190689087,1.0282198190689087,link6
1763435051.7480195,d4pg_train,FAR,train,4,57,-5.606183790221374,0,128,1,0.223,0.024,0.907,0.34618086,-0.3454554,1.5712157,1.1707535,-2.1691,0.9533257,0.0,0.0,0.0,0.9851470589637756,0.9851470589637756,link6
1763435053.1570747,d4pg_train,FAR,train,4,58,-5.007182432720546,0,129,1,0.299,0.039,0.778,0.27362484,-0.29527777,1.9270147,0.83684796,-2.0490346,1.280691,0.0,0.0,0.0,0.8685790300369263,0.8685790300369263,link6
1763435054.5605545,d4pg_train,FAR,train,4,59,-4.37624063421384,0,130,1,0.338,0.082,0.641,0.291845,-0.20908426,2.202722,0.52954465,-1.9914126,1.5011708,0.0,0.0,0.0,0.9093546271324158,0.9093546271324158,link6
1763435058.2171202,d4pg_train,FAR,train,5,0,-7.999651533815933,0,131,1,0.044,0.038,1.332,-0.12611257,-0.11577701,0.4849193,-0.039052125,-1.0902698,0.6164774,0.0,0.0,0.0,1.1674424409866333,1.1674424409866333,link6
1763435059.6193268,d4pg_train,FAR,train,5,1,-7.2053617000477646,0,132,1,0.081,0.019,1.198,-0.14062436,-0.22697109,0.8878012,0.08236183,-1.8146669,1.1837637,0.0,0.0,0.0,1.154008388519287,1.154008388519287,link6
1763435060.9982939,d4pg_train,FAR,train,5,2,-6.540375462294035,0,133,1,0.134,-0.041,1.081,0.058368925,-0.25980964,0.8397778,2.0489795,-2.2676299,1.2726163,0.0,0.0,0.0,1.0763936042785645,1.0763936042785645,link6
1763435062.407494,d4pg_train,FAR,train,5,3,-6.168978481354056,0,134,1,0.12,0.016,1.021,0.31956065,-0.3184948,1.0186421,2.0950246,-2.528352,1.1360507,0.0,0.0,0.0,1.1248642206192017,1.1248642206192017,link6
1763435063.8135743,d4pg_train,FAR,train,5,4,-5.863623737919931,0,135,1,0.1,0.046,0.971,0.6031243,-0.38542333,1.2184774,1.9618661,-2.6119943,1.0891681,0.0,0.0,0.0,0.9689480066299438,0.9689480066299438,link6
1763435065.1916862,d4pg_train,FAR,train,5,5,-6.178076013528802,0,136,1,0.144,0.072,1.017,0.6427223,-0.26706228,1.1524215,1.163808,-2.5198135,1.3093369,0.0,0.0,0.0,1.0936731100082397,1.0936731100082397,link6
1763435066.5731227,d4pg_train,FAR,train,5,6,-6.24041780996815,0,137,1,0.125,0.056,1.031,0.51721025,-0.2560002,1.0206579,1.4664311,-2.6940548,1.0384516,0.0,0.0,0.0,1.1236858367919922,1.1236858367919922,link6
1763435067.9505336,d4pg_train,FAR,train,5,7,-6.373651648066176,0,138,1,-0.024,-0.001,1.062,1.0926139,-0.3715015,0.9247285,0.7714006,-2.930268,1.4547617,0.0,0.0,0.0,1.233786940574646,1.233786940574646,link6
1763435069.3399875,d4pg_train,FAR,train,5,8,-5.059929114176563,0,139,1,0.129,0.208,0.807,0.9030207,-0.25651532,1.6848085,0.94286036,-3.016228,0.88626575,0.0,0.0,0.0,1.0540025234222412,1.0540025234222412,link6
1763435070.7243516,d4pg_train,FAR,train,5,9,-5.059076105446211,0,140,1,0.161,0.237,0.793,0.93503296,-0.19356853,1.6414769,1.1782622,-2.9021003,0.9034733,0.0,0.0,0.0,1.1636625528335571,1.1636625528335571,link6
1763435072.1097932,d4pg_train,FAR,train,5,10,-6.797600236069764,0,141,1,-0.012,-0.065,1.131,0.46923068,-0.34036145,0.6512773,1.6970716,-2.2960382,1.5408597,0.0,0.0,0.0,1.2368342876434326,1.2368342876434326,link6
1763435073.4996674,d4pg_train,FAR,train,5,11,-5.801704017343639,0,142,1,0.125,0.194,0.939,1.185175,-0.2604934,1.3107641,1.6710759,-2.4149194,1.1970005,0.0,0.0,0.0,1.184194803237915,1.184194803237915,link6
1763435074.881883,d4pg_train,FAR,train,5,12,-5.447258875609419,0,143,1,0.114,0.325,0.84,1.3137611,-0.11466077,1.4616679,1.4378388,-2.4813616,0.993919,0.0,0.0,0.0,1.1301074028015137,1.1301074028015137,link6
1763435076.265458,d4pg_train,FAR,train,5,13,-6.069720086027982,0,144,1,0.174,0.13,0.988,0.6611501,-0.18875225,1.1602204,1.2555343,-2.7703931,2.1942887,0.0,0.0,0.0,1.0329571962356567,1.0329571962356567,link6
1763435077.6531303,d4pg_train,FAR,train,5,14,-6.596348197599926,0,145,1,0.068,0.025,1.097,0.52186877,-0.2201784,0.6748379,1.6063949,-2.7010043,2.3201437,0.0,0.0,0.0,1.320433497428894,1.320433497428894,link6
1763435079.0383165,d4pg_train,FAR,train,5,15,-6.836849557946382,0,146,1,-0.108,-0.087,1.131,0.6075974,-0.30949917,0.34349528,1.9306372,-2.7029989,2.4083605,0.0,0.0,0.0,1.2247779369354248,1.2247779369354248,link6
1763435080.4187047,d4pg_train,FAR,train,5,16,-6.629115618729626,0,147,1,-0.005,0.092,1.101,1.2207509,-0.1490861,0.59678763,1.87925,-3.1226442,1.9875493,0.0,0.0,0.0,1.2198764085769653,1.2198764085769653,link6
1763435081.8019273,d4pg_train,FAR,train,5,17,-5.932206961948276,0,148,1,-0.012,0.191,0.97,1.4728401,-0.24812756,1.2526242,2.2362804,-3.1238906,1.7480252,0.0,0.0,0.0,1.2708653211593628,1.2708653211593628,link6
1763435083.2082174,d4pg_train,FAR,train,5,18,-4.860850390782832,0,149,1,-0.018,0.225,0.778,1.5134474,-0.29700965,1.6905249,2.4878118,-2.9490368,1.6068826,0.0,0.0,0.0,0.9544909596443176,0.9544909596443176,link6
1763435084.5936246,d4pg_train,FAR,train,5,19,-5.995791488778061,0,150,1,-0.063,0.185,0.98,1.9094793,-0.22841157,1.1077963,2.0546174,-2.8131106,1.6469349,0.0,0.0,0.0,1.3029561042785645,1.3029561042785645,link6
1763435085.9799,d4pg_train,FAR,train,5,20,-6.029270115662797,0,151,1,-0.064,0.166,0.989,1.77236,-0.2271121,1.0829906,1.8827128,-3.0177844,1.7057085,0.0,0.0,0.0,1.231582522392273,1.231582522392273,link6
1763435087.3632708,d4pg_train,FAR,train,5,21,-6.3508288999458635,0,152,1,-0.021,0.147,1.048,1.4598583,-0.18796366,0.86939186,1.6953137,-3.127251,1.7589617,0.0,0.0,0.0,1.231870412826538,1.231870412826538,link6
1763435088.7424393,d4pg_train,FAR,train,5,22,-6.757291887873518,0,153,1,-0.015,0.05,1.125,1.0941776,-0.13699834,0.4361848,1.674953,-3.1135135,1.550055,0.0,0.0,0.0,1.205323338508606,1.205323338508606,link6
1763435090.1363575,d4pg_train,FAR,train,5,23,-6.731088287354569,0,154,1,0.065,0.094,1.116,1.1113919,-0.108365305,0.54249686,1.7207264,-2.627553,1.7329799,0.0,0.0,0.0,1.1181576251983643,1.1181576251983643,link6
1763435091.5262175,d4pg_train,FAR,train,5,24,-6.801466145863794,0,155,1,-0.013,-0.089,1.13,1.7785656,-0.23232545,0.34940568,1.4276543,-3.0776687,1.4197375,0.0,0.0,0.0,1.2325688600540161,1.2325688600540161,link6
1763435092.9046197,d4pg_train,FAR,train,5,25,-6.502852192386799,0,156,1,0.037,0.218,1.061,1.3401443,-0.04139811,0.72670686,1.9109464,-2.8791797,1.3074155,0.0,0.0,0.0,1.1100091934204102,1.1100091934204102,link6
1763435094.3020415,d4pg_train,FAR,train,5,26,-6.562045005537177,0,157,1,0.094,0.312,1.044,1.2546365,0.101251945,0.601103,2.069614,-2.8537052,1.2178764,0.0,0.0,0.0,1.2443902492523193,1.2443902492523193,link6
1763435095.68415,d4pg_train,FAR,train,5,27,-7.131429153293179,0,158,1,-0.047,0.333,1.14,1.8390926,0.30013654,-0.02609796,2.1627753,-2.2299585,0.9428922,0.0,0.0,0.0,1.304715871810913,1.304715871810913,link6
1763435097.070496,d4pg_train,FAR,train,5,28,-6.9761750884237745,0,159,1,-0.006,0.213,1.143,1.5368184,0.21728995,-0.17967007,2.645912,-2.6558957,0.84533936,0.0,0.0,0.0,1.244431734085083,1.244431734085083,link6
1763435098.49517,d4pg_train,FAR,train,5,29,-6.927834813952131,0,160,1,-0.021,0.032,1.154,1.5288181,0.11265023,-0.31631407,2.7837672,-2.7315392,0.7147433,0.0,0.0,0.0,1.2115552425384521,1.2115552425384521,link6
1763435099.8794525,d4pg_train,FAR,train,5,30,-6.728369721261006,0,161,1,-0.005,-0.087,1.118,1.6630865,0.111161456,-0.5113947,1.7921546,-2.9260945,1.5893095,0.0,0.0,0.0,1.2284293174743652,1.2284293174743652,link6
1763435101.270244,d4pg_train,FAR,train,5,31,-6.721114824584964,0,162,1,0.006,-0.135,1.112,1.6203071,0.07130158,-0.55030227,1.8230096,-2.8120918,1.1449711,0.0,0.0,0.0,1.2020732164382935,1.2020732164382935,link6
1763435102.6568413,d4pg_train,FAR,train,5,32,-6.617580492170131,0,163,1,0.017,-0.208,1.083,1.6054349,0.044455897,-0.6986533,1.862926,-2.7170498,0.67935884,0.0,0.0,0.0,1.1877530813217163,1.1877530813217163,link6
1763435104.058782,d4pg_train,FAR,train,5,33,-6.883565588676952,0,164,1,0.018,-0.152,1.137,1.5677317,0.035149995,-0.5430634,2.297058,-2.4819999,1.4947182,0.0,0.0,0.0,1.2098637819290161,1.2098637819290161,link6
1763435105.4396565,d4pg_train,FAR,train,5,34,-6.939073649997598,0,165,1,-0.005,-0.034,1.156,1.8764672,-0.002487678,-0.16340798,2.5661426,-2.7762444,0.9742337,0.0,0.0,0.0,1.3179149627685547,1.3179149627685547,link6
1763435106.8289626,d4pg_train,FAR,train,5,35,-6.84582890834163,0,166,1,-0.109,0.079,1.133,2.2221954,0.050628338,0.20704769,2.7491307,-3.1358612,0.30020094,0.0,0.0,0.0,1.2863088846206665,1.2863088846206665,link6
1763435108.2108023,d4pg_train,FAR,train,5,36,-6.710653443252454,0,167,1,-0.037,-0.043,1.117,1.5658088,0.16273282,-0.5354306,2.8992217,-3.124433,0.33245224,0.0,0.0,0.0,1.2638969421386719,1.2638969421386719,link6
1763435109.6065817,d4pg_train,FAR,train,5,37,-6.657042824392994,0,168,1,-0.027,-0.051,1.108,1.5254405,0.1895746,-0.64762396,2.497149,-2.9065955,0.18445112,0.0,0.0,0.0,1.193804144859314,1.193804144859314,link6
1763435110.9864872,d4pg_train,FAR,train,5,38,-6.426775836801436,0,169,1,-0.068,-0.092,1.065,1.1940916,0.20553276,-0.82353795,1.84361,-3.0661175,1.4045825,0.0,0.0,0.0,1.278752088546753,1.278752088546753,link6
1763435112.3692303,d4pg_train,FAR,train,5,39,-5.437435635336374,0,170,1,-0.036,-0.187,0.886,1.601651,0.32034278,-1.5091103,1.7258724,-3.1205108,1.1856238,0.0,0.0,0.0,1.2073898315429688,1.2073898315429688,link6
1763435113.7487874,d4pg_train,FAR,train,5,40,-5.094514023069393,0,171,1,-0.024,-0.182,0.829,1.6105865,0.35722896,-1.6228201,1.6334491,-3.1001174,0.99740976,0.0,0.0,0.0,1.2462388277053833,1.2462388277053833,link6
1763435115.139853,d4pg_train,FAR,train,5,41,-5.632614253869063,0,172,1,-0.057,-0.097,0.932,1.3901243,0.39976156,-1.3746094,2.0109477,-3.139123,0.87869334,0.0,0.0,0.0,1.2592653036117554,1.2592653036117554,link6
1763435116.5408816,d4pg_train,FAR,train,5,42,-5.267905122393437,0,173,1,0.022,-0.116,0.87,1.8409624,0.44404596,-1.601608,1.913893,-2.8711288,0.7719869,0.0,0.0,0.0,1.140917420387268,1.140917420387268,link6
1763435117.9334347,d4pg_train,FAR,train,5,43,-5.5875655255918355,0,174,1,0.047,-0.097,0.925,2.0352695,0.4092764,-1.4112765,1.9478753,-2.8273551,0.7221635,0.0,0.0,0.0,1.2893410921096802,1.2893410921096802,link6
1763435119.3123949,d4pg_train,FAR,train,5,44,-7.02587658497142,0,175,1,0.049,-0.083,1.167,1.3505814,0.19582799,-0.6835637,1.8890615,-2.033033,0.37863865,0.0,0.0,0.0,1.185752034187317,1.185752034187317,link6
1763435120.6921036,d4pg_train,FAR,train,5,45,-7.058283797503688,0,176,1,0.016,-0.073,1.174,1.127619,0.1741911,-0.65568787,2.2615454,-2.1367643,0.40432754,0.0,0.0,0.0,1.2147595882415771,1.2147595882415771,link6
1763435122.077482,d4pg_train,FAR,train,5,46,-6.975075077145992,0,177,1,0.004,-0.034,1.162,1.0864717,0.18984932,-0.66417444,2.4390366,-2.3180993,0.417071,0.0,0.0,0.0,1.151460886001587,1.151460886001587,link6
1763435123.465697,d4pg_train,FAR,train,5,47,-6.700246392687267,0,178,1,-0.018,0.059,1.115,1.9275782,0.30330795,-0.5767102,1.7422304,-2.7904165,0.46399227,0.0,0.0,0.0,1.2618811130523682,1.2618811130523682,link6
1763435124.853653,d4pg_train,FAR,train,5,48,-6.667679679758695,0,179,1,-0.052,0.125,1.103,1.9900123,0.42125872,-0.74800503,2.3073843,-2.6732721,0.7706337,0.0,0.0,0.0,1.2798737287521362,1.2798737287521362,link6
1763435126.2488015,d4pg_train,FAR,train,5,49,-5.68032416472389,0,180,1,0.046,-0.07,0.943,2.6359448,0.43366686,-1.3448454,2.5828538,-3.1411986,1.200013,0.0,0.0,0.0,1.155869722366333,1.155869722366333,link6
1763435127.6368937,d4pg_train,FAR,train,5,50,-5.542412644027863,0,181,1,0.023,-0.157,0.91,1.9558632,0.34521288,-1.4170833,2.4810247,-3.1407528,-0.60224545,0.0,0.0,0.0,1.203168272972107,1.203168272972107,link6
1763435129.0237393,d4pg_train,FAR,train,5,51,-5.7304929847667285,0,182,1,0.034,-0.141,0.944,2.0291815,0.33332536,-1.3271105,2.3177478,-3.0597641,-0.6643042,0.0,0.0,0.0,1.2089813947677612,1.2089813947677612,link6
1763435130.4046903,d4pg_train,FAR,train,5,52,-5.628431650534548,0,183,1,0.11,-0.033,0.931,3.138055,0.393736,-1.3888153,2.1107972,-3.0748544,0.080772184,0.0,0.0,0.0,1.0896210670471191,1.0896210670471191,link6
1763435131.8025033,d4pg_train,FAR,train,5,53,-5.031338180237582,0,184,1,0.114,-0.054,0.829,2.779914,0.46070886,-1.7381637,2.116643,-2.8727765,0.72665477,0.0,0.0,0.0,1.0981638431549072,1.0981638431549072,link6
1763435133.1894503,d4pg_train,FAR,train,5,54,-5.157034103784464,0,185,1,0.109,-0.066,0.85,2.5194442,0.46405885,-1.7268806,2.2146535,-2.632726,0.70003444,0.0,0.0,0.0,1.1608388423919678,1.1608388423919678,link6
1763435134.592037,d4pg_train,FAR,train,5,55,-4.720059849884729,0,186,1,0.255,-0.014,0.744,3.1104934,0.2610784,-1.8824975,2.0862262,-2.7840624,0.69694316,0.0,0.0,0.0,0.9450283646583557,0.9450283646583557,link6
1763435135.9957697,d4pg_train,FAR,train,5,56,-4.98874433981019,0,187,1,0.231,-0.052,0.797,3.0358186,0.28182116,-1.6890994,2.6432173,-3.0164323,0.7061589,0.0,0.0,0.0,1.0283304452896118,1.0283304452896118,link6
1763435137.380842,d4pg_train,FAR,train,5,57,-5.120070141699997,0,188,1,0.183,-0.076,0.83,2.9297173,0.33839282,-1.6776232,2.8720436,-3.080191,0.57412016,0.0,0.0,0.0,1.067946195602417,1.067946195602417,link6
1763435138.7732265,d4pg_train,FAR,train,5,58,-4.435553320013849,0,189,1,0.071,-0.075,0.732,2.680026,0.5480795,-1.9641826,2.3932285,-3.1079936,-0.19328067,0.0,0.0,0.0,1.1406716108322144,1.1406716108322144,link6
1763435140.157643,d4pg_train,FAR,train,5,59,-4.855849591494584,0,190,1,0.059,-0.091,0.802,2.5159013,0.50749606,-1.7686565,2.629086,-3.1407096,-0.18073598,0.0,0.0,0.0,1.1485157012939453,1.1485157012939453,link6
1763435143.8088336,d4pg_train,FAR,train,6,0,-5.8421866503593245,0,191,1,-0.064,-0.392,0.889,1.2218329,0.1290794,-1.4462714,1.6882703,-1.8789341,0.28480476,0.0,0.0,0.0,1.2450098991394043,1.2450098991394043,link6
1763435145.1941903,d4pg_train,FAR,train,6,1,-5.3642668076549604,0,192,1,0.175,-0.291,0.827,2.1017742,0.14287561,-1.5902419,2.031854,-2.524604,0.15946929,0.0,0.0,0.0,0.9825921654701233,0.9825921654701233,link6
1763435146.5751991,d4pg_train,FAR,train,6,2,-5.217522800914073,0,193,1,0.239,-0.158,0.821,2.6221833,0.18374036,-1.6061566,2.2405944,-2.9221842,0.046657376,0.0,0.0,0.0,1.0165116786956787,1.0165116786956787,link6
1763435147.962468,d4pg_train,FAR,train,6,3,-4.479617963999562,0,194,1,0.079,-0.181,0.72,2.1605759,0.36797813,-1.9432342,2.2622535,-3.1404178,-0.39834675,0.0,0.0,0.0,1.1392863988876343,1.1392863988876343,link6
1763435149.3503032,d4pg_train,FAR,train,6,4,-5.203648030716793,0,195,1,0.169,-0.134,0.84,2.668048,0.2955346,-1.5707346,2.4594128,-3.1359477,-0.5238179,0.0,0.0,0.0,1.0305323600769043,1.0305323600769043,link6
1763435150.7336707,d4pg_train,FAR,train,6,5,-5.820258146078569,0,196,1,0.192,-0.059,0.949,3.0071695,0.24314715,-1.2757211,2.620522,-3.0616803,-0.4871952,0.0,0.0,0.0,1.06723952293396,1.06723952293396,link6
1763435152.1497462,d4pg_train,FAR,train,6,6,-3.564419576538042,0,197,1,-0.062,-0.208,0.553,1.3757154,0.22929838,-2.3449135,2.3613863,-3.0841994,-0.10871327,0.0,0.0,0.0,1.3072706460952759,1.3072706460952759,link6
1763435153.5352662,d4pg_train,FAR,train,6,7,-3.7202303205340916,0,198,1,0.033,-0.232,0.574,1.9336292,0.22275425,-2.2107947,2.0013638,-3.1397893,-0.28602353,0.0,0.0,0.0,0.9777571558952332,0.9777571558952332,link6
1763435154.9224513,d4pg_train,FAR,train,6,8,-3.676154376276595,0,199,1,0.148,-0.025,0.594,3.1415927,0.43843296,-2.3732433,2.7723737,-2.8203573,-0.04557966,0.0,0.0,0.0,1.0541620254516602,1.0541620254516602,link6
1763435156.3166015,d4pg_train,FAR,train,6,9,-4.445603484687725,0,200,1,0.148,-0.093,0.72,2.7982733,0.41223213,-2.01046,3.0622168,-2.9589474,-0.21653567,0.0,0.0,0.0,1.0623114109039307,1.0623114109039307,link6
1763435157.702776,d4pg_train,FAR,train,6,10,-4.113609860441175,0,201,1,0.148,-0.085,0.664,2.873563,0.4207184,-2.2141626,3.0055406,-2.9164362,-0.29879728,0.0,0.0,0.0,1.0745571851730347,1.0745571851730347,link6
1763435159.0919528,d4pg_train,FAR,train,6,11,-4.723646658982694,0,202,1,0.18,-0.072,0.763,2.9183576,0.38706833,-1.9591322,2.96409,-2.7164245,0.21264586,0.0,0.0,0.0,1.0214920043945312,1.0214920043945312,link6
1763435160.4838758,d4pg_train,FAR,train,6,12,-4.122593094489943,0,203,1,0.176,-0.039,0.663,3.08777,0.41398618,-2.2182586,2.924375,-2.728695,-0.3491307,0.0,0.0,0.0,1.029188632965088,1.029188632965088,link6
1763435161.8695898,d4pg_train,FAR,train,6,13,-3.745656333925084,0,204,1,0.176,-0.033,0.598,3.0844133,0.3819962,-2.3570404,2.80215,-2.7526312,-0.30457422,0.0,0.0,0.0,0.9911741614341736,0.9911741614341736,link6
1763435163.2483103,d4pg_train,FAR,train,6,14,-5.538977466699238,0,205,1,0.116,-0.039,0.915,3.1386354,0.40266716,-1.4483836,3.0564985,-3.0482917,-1.2197711,0.0,0.0,0.0,1.0922765731811523,1.0922765731811523,link6
1763435164.6304514,d4pg_train,FAR,train,6,15,-4.086854863560089,0,206,1,0.179,-0.074,0.653,2.9203308,0.36110252,-2.201651,2.9970841,-2.9267776,-0.35214016,0.0,0.0,0.0,1.0572481155395508,1.0572481155395508,link6
1763435166.0267487,d4pg_train,FAR,train,6,16,-3.15655326029335,0,207,1,0.133,-0.071,0.504,2.8981385,0.33579528,-2.5638564,3.0064847,-2.9049249,0.13006517,0.0,0.0,0.0,1.0387697219848633,1.0387697219848633,link6
1763435167.4155025,d4pg_train,FAR,train,6,17,-4.310647975426699,0,208,1,0.094,-0.068,0.709,2.8438196,0.53212035,-2.0259895,3.0444171,-3.0813053,-0.44872317,0.0,0.0,0.0,1.116576910018921,1.116576910018921,link6
1763435168.8049242,d4pg_train,FAR,train,6,18,-4.310624451640795,0,209,1,0.142,-0.056,0.702,3.0357773,0.44563568,-2.0349445,3.0951517,-3.0514252,-0.7620554,0.0,0.0,0.0,1.0117995738983154,1.0117995738983154,link6
1763435170.1967103,d4pg_train,FAR,train,6,19,-4.167201354834752,0,210,1,0.181,-0.058,0.668,3.0295126,0.3740712,-2.1118894,3.0483057,-3.0000014,-0.9109832,0.0,0.0,0.0,1.0634443759918213,1.0634443759918213,link6
1763435171.5759602,d4pg_train,FAR,train,6,20,-5.011431262063084,0,211,1,0.175,-0.066,0.814,3.0085258,0.3600606,-1.666677,3.1179204,-3.1101093,0.3114268,0.0,0.0,0.0,1.0308446884155273,1.0308446884155273,link6
1763435172.9591758,d4pg_train,FAR,train,6,21,-4.916912287681839,0,212,1,0.158,-0.081,0.8,2.8761992,0.38991883,-1.7984424,3.1279337,-2.9402783,-0.41522226,0.0,0.0,0.0,1.0683943033218384,1.0683943033218384,link6
1763435174.3423395,d4pg_train,FAR,train,6,22,-4.786325727416475,0,213,1,0.148,-0.087,0.779,2.8189704,0.41092667,-1.9011948,2.9229565,-2.8562584,-0.97409517,0.0,0.0,0.0,1.029987096786499,1.029987096786499,link6
1763435175.730729,d4pg_train,FAR,train,6,23,-4.1593168359667985,0,214,1,0.244,-0.032,0.648,3.1419296,0.26407778,-2.1667254,3.0107913,-2.7830539,-0.7631499,0.0,0.0,0.0,0.9468582272529602,0.9468582272529602,link6
1763435177.11792,d4pg_train,FAR,train,6,24,-3.4697313625475505,0,215,1,0.195,-0.039,0.543,3.141808,0.28194535,-2.431675,3.126737,-2.9395306,-0.64052373,0.0,0.0,0.0,1.0658074617385864,1.0658074617385864,link6
1763435178.5025444,d4pg_train,FAR,train,6,25,-3.122950436062001,0,216,1,0.139,-0.039,0.5,3.1411738,0.3288868,-2.4892597,3.1291451,-3.1412048,-0.6213328,0.0,0.0,0.0,0.9429797530174255,0.9429797530174255,link6
1763435179.9050548,d4pg_train,FAR,train,6,26,-3.933511482456087,0,217,1,0.184,-0.039,0.628,3.1414218,0.37091485,-2.1929932,2.1720216,-3.1407208,-1.108088,0.0,0.0,0.0,1.0469582080841064,1.0469582080841064,link6
1763435181.2817805,d4pg_train,FAR,train,6,27,-3.8715174489925523,0,218,1,0.167,-0.088,0.617,2.7936888,0.3508437,-2.2223752,2.3238535,-2.9877982,-0.86447954,0.0,0.0,0.0,1.051008939743042,1.051008939743042,link6
1763435182.6631846,d4pg_train,FAR,train,6,28,-4.871104929711195,0,219,1,0.078,-0.058,0.806,2.9202156,0.5590208,-1.9255822,3.1407237,-2.677314,-1.0408834,0.0,0.0,0.0,1.1241135597229004,1.1241135597229004,link6
1763435184.0432835,d4pg_train,FAR,train,6,29,-4.931253493335188,0,220,1,0.186,-0.049,0.799,3.093927,0.42129555,-1.9651495,3.1328692,-2.4049973,-0.98128116,0.0,0.0,0.0,0.9729872345924377,0.9729872345924377,link6
1763435185.4387105,d4pg_train,FAR,train,6,30,-4.754585479022713,0,221,1,0.231,-0.038,0.757,3.1429372,0.3298204,-1.9746376,3.122511,-2.6182053,-0.92870337,0.0,0.0,0.0,0.9563718438148499,0.9563718438148499,link6
1763435186.8263373,d4pg_train,FAR,train,6,31,-4.865771731358472,0,222,1,0.32,-0.039,0.744,3.141609,0.12748735,-1.7132047,3.1407688,-3.1417089,-1.3568,0.0,0.0,0.0,0.8807008862495422,0.8807008862495422,link6
1763435188.2078886,d4pg_train,FAR,train,6,32,-4.416907878316115,0,223,1,0.326,-0.108,0.651,2.9310434,0.1119111,-2.0858543,3.1307895,-2.5865867,-0.9035857,0.0,0.0,0.0,0.8839524388313293,0.8839524388313293,link6
1763435189.6112604,d4pg_train,FAR,train,6,33,-4.00435388247124,0,224,1,0.291,-0.152,0.581,2.774742,0.095171496,-2.2490768,3.1248317,-2.588687,-0.77829874,0.0,0.0,0.0,0.972471296787262,0.972471296787262,link6
1763435190.9938793,d4pg_train,FAR,train,6,34,-5.5623092163065015,0,225,1,0.177,-0.042,0.909,3.1290848,0.3111107,-1.3910298,2.4364934,-3.1410348,-1.9457524,0.0,0.0,0.0,1.0327602624893188,1.0327602624893188,link6
1763435192.3910234,d4pg_train,FAR,train,6,35,-3.8945317612865513,0,226,1,0.146,-0.103,0.624,2.7299387,0.3799358,-2.219542,2.91181,-3.0279505,-1.3789684,0.0,0.0,0.0,1.1183059215545654,1.1183059215545654,link6
1763435193.7779484,d4pg_train,FAR,train,6,36,-3.268718249563275,0,227,1,0.11,-0.1,0.524,2.6866133,0.35277864,-2.4773104,3.1167302,-3.0148861,-1.3296001,0.0,0.0,0.0,0.8963612914085388,0.8963612914085388,link6
1763435195.2422943,d4pg_train,FAR,train,6,37,-3.872102925925601,0,228,1,0.106,-0.204,0.603,2.2151203,0.2906462,-2.3143325,3.137544,-2.6930053,-2.0192869,0.0,0.0,0.0,1.1100153923034668,1.1100153923034668,link6
1763435196.621151,d4pg_train,FAR,train,6,38,-4.195415353809514,0,229,1,0.208,-0.179,0.643,2.5649848,0.23097776,-2.1685343,2.9107661,-2.562388,-1.6273565,0.0,0.0,0.0,0.8793272376060486,0.8793272376060486,link6
1763435198.004547,d4pg_train,FAR,train,6,39,-4.665968859721701,0,230,1,0.331,-0.089,0.698,2.8869414,0.12959905,-1.9948208,2.651158,-2.5447123,-1.3577566,0.0,0.0,0.0,0.9806933999061584,0.9806933999061584,link6
1763435199.4052122,d4pg_train,FAR,train,6,40,-4.120154235880216,0,231,1,0.275,-0.072,0.625,2.9601293,0.17309028,-2.1082394,2.4076364,-2.8586318,-1.6360737,0.0,0.0,0.0,0.9228213429450989,0.9228213429450989,link6
1763435200.790556,d4pg_train,FAR,train,6,41,-3.7079815217634495,0,232,1,0.255,-0.046,0.561,3.0753014,0.16270834,-2.2825708,2.691384,-2.9477806,-1.7370348,0.0,0.0,0.0,0.978125274181366,0.978125274181366,link6
1763435202.1776576,d4pg_train,FAR,train,6,42,-3.2773207232319423,0,233,1,0.236,-0.039,0.491,3.141587,0.13230532,-2.513344,3.1409845,-2.7569404,-1.5690496,0.0,0.0,0.0,0.9653894305229187,0.9653894305229187,link6
1763435203.5706842,d4pg_train,FAR,train,6,43,-3.1465234901771444,0,234,1,0.245,-0.049,0.461,3.0394108,0.05477827,-2.551164,2.8370736,-2.727995,-1.8342782,0.0,0.0,0.0,0.9433080554008484,0.9433080554008484,link6
1763435204.9581895,d4pg_train,FAR,train,6,44,-3.459566047349435,0,235,1,0.276,-0.119,0.492,2.8041167,0.001981837,-2.3622973,2.732768,-2.8476548,-1.7848868,0.0,0.0,0.0,0.9680758118629456,0.9680758118629456,link6
1763435206.3439677,d4pg_train,FAR,train,6,45,-4.830248258287261,0,236,1,0.306,-0.061,0.742,3.0747123,0.14822328,-1.7392505,3.09705,-3.1284845,-2.5686698,0.0,0.0,0.0,0.8969983458518982,0.8969983458518982,link6
1763435207.7323878,d4pg_train,FAR,train,6,46,-4.435229930903509,0,237,1,0.288,-0.08,0.676,2.9980571,0.16359879,-1.9158366,3.1186953,-3.1376579,-1.785701,0.0,0.0,0.0,0.9379573464393616,0.9379573464393616,link6
1763435209.1222632,d4pg_train,FAR,train,6,47,-4.086062065412976,0,238,1,0.275,-0.078,0.618,3.0026617,0.15485963,-2.1382082,3.0319579,-2.9542105,-1.6287347,0.0,0.0,0.0,0.8985628485679626,0.8985628485679626,link6
1763435210.5083592,d4pg_train,FAR,train,6,48,-4.4045311471400055,0,239,1,0.253,-0.038,0.688,3.1408303,0.24598509,-1.953322,2.7919426,-3.103065,-1.5591097,0.0,0.0,0.0,0.9528961777687073,0.9528961777687073,link6
1763435211.8919003,d4pg_train,FAR,train,6,49,-4.803329517485423,0,240,1,0.267,-0.031,0.754,3.1364918,0.26280826,-1.9199181,2.993407,-2.5966394,-1.812729,0.0,0.0,0.0,0.9298349022865295,0.9298349022865295,link6
1763435213.288919,d4pg_train,FAR,train,6,50,-4.964985555795606,0,241,1,0.298,-0.067,0.769,3.0130076,0.23712943,-1.956997,3.0617552,-2.3461533,-1.9668839,0.0,0.0,0.0,0.9549275040626526,0.9549275040626526,link6
1763435214.6699824,d4pg_train,FAR,train,6,51,-3.2119348573245907,0,242,1,0.235,-0.053,0.478,3.0876462,0.076987624,-2.436288,2.6099296,-3.114178,-2.1570845,0.0,0.0,0.0,0.9747212529182434,0.9747212529182434,link6
1763435216.0740662,d4pg_train,FAR,train,6,52,-3.0070308676175586,0,243,1,0.155,-0.113,0.463,2.6556633,0.15432504,-2.5379894,2.730537,-3.1210287,-2.4749699,0.0,0.0,0.0,1.1314661502838135,1.1314661502838135,link6
1763435217.4581704,d4pg_train,FAR,train,6,53,-2.984952999117995,0,244,1,0.076,-0.134,0.473,2.3341956,0.2526966,-2.583943,2.8649602,-3.0745158,-2.627116,0.0,0.0,0.0,1.0004962682724,1.0004962682724,link6
1763435218.8403554,d4pg_train,FAR,train,6,54,-3.3660609631512637,0,245,1,0.198,-0.132,0.508,2.6966894,0.14697577,-2.4468076,3.1160662,-2.8586485,-2.2727325,0.0,0.0,0.0,1.0049452781677246,1.0049452781677246,link6
1763435220.2265165,d4pg_train,FAR,train,6,55,-3.9103139451859255,0,246,1,0.288,-0.115,0.573,2.8420515,0.079498775,-2.1926079,2.677866,-2.8900454,-2.3212054,0.0,0.0,0.0,0.841890275478363,0.841890275478363,link6
1763435221.6142995,d4pg_train,FAR,train,6,56,-4.521239345694716,0,247,1,0.373,-0.03,0.654,3.1085215,0.01282043,-1.891527,2.1721594,-2.9269176,-2.357504,0.0,0.0,0.0,0.9694765210151672,0.9694765210151672,link6
1763435223.0557451,d4pg_train,FAR,train,6,57,-3.7837891517659847,0,248,1,0.328,-0.039,0.537,3.1404724,-0.0068751494,-2.1583102,3.076933,-3.1034515,-2.2463574,0.0,0.0,0.0,0.8461942076683044,0.8461942076683044,link6
1763435224.4614348,d4pg_train,FAR,train,6,58,-3.825385746801785,0,249,1,0.365,-0.04,0.521,3.1383986,-0.085944936,-2.1118536,2.6875918,-3.1409886,-1.8346668,0.0,0.0,0.0,0.8472407460212708,0.8472407460212708,link6
1763435225.8447695,d4pg_train,FAR,train,6,59,-4.1776044028039685,0,250,1,0.3,-0.039,0.627,3.1415002,0.13075782,-2.0183048,3.1241121,-3.1415632,-2.4759712,0.0,0.0,0.0,0.9034869074821472,0.9034869074821472,link6
1763435229.4857001,d4pg_train,FAR,train,7,0,-7.220588272454579,0,251,1,-0.179,-0.238,1.166,0.66054356,0.096469745,-0.7188311,1.2666082,-1.4189862,-0.40594125,0.0,0.0,0.0,1.2705957889556885,1.2705957889556885,link6
1763435230.8672233,d4pg_train,FAR,train,7,1,-5.209139282294232,0,252,1,-0.166,-0.486,0.7,1.3055089,0.029840203,-1.9388018,3.0866566,-1.5626525,-0.6329829,0.0,0.0,0.0,1.3673126697540283,1.3673126697540283,link6
1763435232.2712367,d4pg_train,FAR,train,7,2,-3.3515485466213457,0,253,1,0.226,-0.2,0.47,2.5900097,-0.028225532,-2.4445555,3.124635,-2.8444304,-2.0143397,0.0,0.0,0.0,0.9864885210990906,0.9864885210990906,link6
1763435233.6712813,d4pg_train,FAR,train,7,3,-3.072833916625829,0,254,1,0.244,-0.08,0.443,2.9778748,-0.030328622,-2.462481,2.819539,-3.1404212,-2.4755776,0.0,0.0,0.0,0.9038588404655457,0.9038588404655457,link6
1763435235.0580626,d4pg_train,FAR,train,7,4,-3.081897329830534,0,255,1,0.209,-0.045,0.467,3.111729,0.10825673,-2.4915469,3.082224,-3.1411543,-2.2087948,0.0,0.0,0.0,0.9949801564216614,0.9949801564216614,link6
1763435236.4372132,d4pg_train,FAR,train,7,5,-3.1811244155472447,0,256,1,0.206,-0.114,0.475,2.7874408,0.08378165,-2.4734485,3.1214068,-3.0061214,-2.1794627,0.0,0.0,0.0,0.9961708188056946,0.9961708188056946,link6
1763435237.8200366,d4pg_train,FAR,train,7,6,-3.4211498144585653,0,257,1,0.238,-0.149,0.496,2.7348757,0.030553073,-2.351746,3.1289964,-2.9924283,-2.3045044,0.0,0.0,0.0,0.8213329911231995,0.8213329911231995,link6
1763435239.2237844,d4pg_train,FAR,train,7,7,-3.326901344092029,0,258,1,0.298,-0.057,0.464,3.083171,-0.009060561,-2.4979768,3.139914,-2.6108873,-2.4005044,0.0,0.0,0.0,0.9101656079292297,0.9101656079292297,link6
1763435240.6073186,d4pg_train,FAR,train,7,8,-3.094021031150322,0,259,1,0.255,-0.053,0.445,3.0852945,-0.001537221,-2.5557892,3.1362445,-2.7853818,-2.8458717,0.0,0.0,0.0,0.9625759720802307,0.9625759720802307,link6
1763435241.9918082,d4pg_train,FAR,train,7,9,-2.98628096147157,0,260,1,0.224,-0.055,0.441,3.0633986,0.02296119,-2.5753527,3.0826926,-2.9494812,-3.0543756,0.0,0.0,0.0,1.0025200843811035,1.0025200843811035,link6
1763435243.3958058,d4pg_train,FAR,train,7,10,-3.289131779122971,0,261,1,0.28,-0.013,0.471,3.1237705,0.034778886,-2.49476,2.6116111,-2.6095564,-2.3192844,0.0,0.0,0.0,0.9112237095832825,0.9112237095832825,link6
1763435244.78837,d4pg_train,FAR,train,7,11,-3.0620573928234625,0,262,1,0.248,-0.042,0.444,3.0879385,0.001281014,-2.5518844,2.8569841,-2.844552,-2.48341,0.0,0.0,0.0,0.9827713370323181,0.9827713370323181,link6
1763435246.1741593,d4pg_train,FAR,train,7,12,-2.9348260573628253,0,263,1,0.219,-0.061,0.433,3.0451481,0.001279057,-2.5302277,3.118333,-3.1403673,-2.6813219,0.0,0.0,0.0,0.9172418713569641,0.9172418713569641,link6
1763435247.5557277,d4pg_train,FAR,train,7,13,-3.071055171770882,0,264,1,0.093,-0.202,0.461,2.171216,0.07550587,-2.4911454,2.918394,-3.1408262,-2.9525633,0.0,0.0,0.0,1.148478388786316,1.148478388786316,link6
1763435248.9525118,d4pg_train,FAR,train,7,14,-2.8381286766265448,0,265,1,0.148,-0.167,0.417,2.5336235,-0.049257524,-2.570079,3.011648,-3.1401317,-2.5054204,0.0,0.0,0.0,0.9368657469749451,0.9368657469749451,link6
1763435250.3612647,d4pg_train,FAR,train,7,15,-2.831160715653427,0,266,1,0.267,-0.048,0.386,3.10001,-0.19867633,-2.524405,3.1388934,-3.1398664,-1.9965243,0.0,0.0,0.0,0.9432500004768372,0.9432500004768372,link6
1763435251.7479107,d4pg_train,FAR,train,7,16,-3.3195310673652294,0,267,1,0.265,-0.096,0.476,2.948769,0.001293968,-2.3556952,3.1368945,-3.141199,-3.0795383,0.0,0.0,0.0,0.9426338076591492,0.9426338076591492,link6
1763435253.1401656,d4pg_train,FAR,train,7,17,-3.4014653995748905,0,268,1,0.28,-0.061,0.489,3.0716074,0.01078249,-2.304111,2.9245715,-3.1408098,-3.0503874,0.0,0.0,0.0,0.8775278925895691,0.8775278925895691,link6
1763435254.5239964,d4pg_train,FAR,train,7,18,-3.0158737103870195,0,269,1,0.26,-0.088,0.421,2.9548926,-0.10494607,-2.5123127,3.1408074,-2.9947348,-3.0657923,0.0,0.0,0.0,0.9424529671669006,0.9424529671669006,link6
1763435255.9193118,d4pg_train,FAR,train,7,19,-3.0995229458082787,0,270,1,0.287,-0.054,0.426,3.0975893,-0.08996335,-2.5299644,3.139187,-2.7570581,-2.5759401,0.0,0.0,0.0,0.9047728180885315,0.9047728180885315,link6
1763435257.3064854,d4pg_train,FAR,train,7,20,-2.9809718168662385,0,271,1,0.279,-0.064,0.406,3.0528517,-0.14030483,-2.5631676,3.1352856,-2.8105712,-2.428998,0.0,0.0,0.0,0.944175660610199,0.944175660610199,link6
1763435258.7067683,d4pg_train,FAR,train,7,21,-2.8908352606825045,0,272,1,0.194,-0.202,0.392,2.470248,-0.18917188,-2.5143373,3.1414726,-3.088162,-2.7861102,0.0,0.0,0.0,1.010252594947815,1.010252594947815,link6
1763435260.0971477,d4pg_train,FAR,train,7,22,-3.194324005897953,0,273,1,0.288,-0.152,0.421,2.7656198,-0.15571134,-2.4365396,2.7884743,-2.8116655,-2.5858858,0.0,0.0,0.0,0.8703529238700867,0.8703529238700867,link6
1763435261.4795825,d4pg_train,FAR,train,7,23,-3.273409761511842,0,274,1,0.318,-0.085,0.435,2.9354978,-0.13814712,-2.448838,2.7082577,-2.7573502,-2.5561066,0.0,0.0,0.0,0.9461013674736023,0.9461013674736023,link6
1763435262.860687,d4pg_train,FAR,train,7,24,-3.8337001969308173,0,275,1,0.406,-0.044,0.491,3.1338809,-0.19108737,-2.0809114,3.140738,-3.0998433,-3.1295867,0.0,0.0,0.0,0.7876387238502502,0.7876387238502502,link6
1763435264.2473195,d4pg_train,FAR,train,7,25,-3.3279286590698987,0,276,1,0.275,-0.234,0.421,2.4681904,-0.20294651,-2.4012434,3.0475528,-2.803114,-2.9895303,0.0,0.0,0.0,1.0745130777359009,1.0745130777359009,link6
1763435265.6262813,d4pg_train,FAR,train,7,26,-3.3622434786331103,0,277,1,0.164,-0.307,0.439,2.1725914,-0.15050374,-2.3883467,3.027489,-2.7299662,-2.766282,0.0,0.0,0.0,0.8717132210731506,0.8717132210731506,link6
1763435267.022682,d4pg_train,FAR,train,7,27,-3.028680889367905,0,278,1,0.283,-0.057,0.414,3.0983493,-0.14335799,-2.4666493,2.5229578,-3.1404207,-2.2390025,0.0,0.0,0.0,0.9408558011054993,0.9408558011054993,link6
1763435268.404557,d4pg_train,FAR,train,7,28,-3.7800954381370313,0,279,1,0.406,-0.043,0.479,3.1328917,-0.20808479,-2.0508525,2.8446395,-3.140742,-2.3387494,0.0,0.0,0.0,0.7186688780784607,0.7186688780784607,link6
1763435269.7906806,d4pg_train,FAR,train,7,29,-4.3666168694037255,0,280,1,0.496,-0.089,0.525,3.0387414,-0.30517095,-1.8204606,3.1244235,-3.1415284,-2.4099286,0.0,0.0,0.0,0.9549381136894226,0.9549381136894226,link6
1763435271.190621,d4pg_train,FAR,train,7,30,-3.3708803762222677,0,281,1,0.298,-0.228,0.418,2.6006331,-0.25291255,-2.2473726,3.1399264,-3.141079,-2.6351717,0.0,0.0,0.0,0.8943242430686951,0.8943242430686951,link6
1763435272.5856512,d4pg_train,FAR,train,7,31,-2.98342661913759,0,282,1,0.293,-0.133,0.379,2.8365712,-0.2768144,-2.4271057,2.7783988,-3.1401143,-2.8930824,0.0,0.0,0.0,0.9431888461112976,0.9431888461112976,link6
1763435273.967893,d4pg_train,FAR,train,7,32,-2.9034573076076233,0,283,1,0.27,-0.072,0.395,3.0150795,-0.18432711,-2.4944172,2.4654107,-3.1391187,-3.0816655,0.0,0.0,0.0,0.9515215754508972,0.9515215754508972,link6
1763435275.3493571,d4pg_train,FAR,train,7,33,-3.0084874119548832,0,284,1,0.185,-0.234,0.403,2.3729868,-0.18286014,-2.453933,3.1368215,-3.1407664,-2.564425,0.0,0.0,0.0,1.0356217622756958,1.0356217622756958,link6
1763435276.7370107,d4pg_train,FAR,train,7,34,-2.873251155197221,0,285,1,0.21,-0.186,0.388,2.5828788,-0.19911668,-2.495136,3.0421863,-3.1400347,-2.6885097,0.0,0.0,0.0,0.9189942479133606,0.9189942479133606,link6
1763435278.1303024,d4pg_train,FAR,train,7,35,-3.6744274516627877,0,286,1,0.313,-0.141,0.507,2.7856534,-0.053414196,-2.2642791,2.6614354,-2.8582366,-3.1411583,0.0,0.0,0.0,0.8891642689704895,0.8891642689704895,link6
1763435279.5134547,d4pg_train,FAR,train,7,36,-3.888567467695735,0,287,1,0.439,-0.061,0.472,3.0541184,-0.21621504,-2.2065065,2.8251817,-2.494379,-2.831358,0.0,0.0,0.0,0.7206801772117615,0.7206801772117615,link6
1763435280.8955774,d4pg_train,FAR,train,7,37,-3.47489048462614,0,288,1,0.416,-0.026,0.402,3.1334226,-0.29676515,-2.3408117,2.8682332,-2.6410341,-2.758937,0.0,0.0,0.0,0.9437764286994934,0.9437764286994934,link6
1763435282.2767954,d4pg_train,FAR,train,7,38,-2.733002722165967,0,289,1,0.306,-0.039,0.335,3.141469,-0.38390794,-2.5133247,3.013568,-3.125524,-2.4121594,0.0,0.0,0.0,0.8948145508766174,0.8948145508766174,link6
1763435283.6880758,d4pg_train,FAR,train,7,39,-2.9265951205476157,0,290,1,0.34,-0.118,0.329,2.8507316,-0.38761944,-2.5230758,2.7373054,-2.628347,-2.9371035,0.0,0.0,0.0,0.8594110608100891,0.8594110608100891,link6
1763435285.082506,d4pg_train,FAR,train,7,40,-2.9387702942993363,0,291,1,0.312,-0.162,0.341,2.6941745,-0.34121656,-2.53434,2.716799,-2.6181152,-3.0512512,0.0,0.0,0.0,1.0205023288726807,1.0205023288726807,link6
1763435286.463958,d4pg_train,FAR,train,7,41,-3.868381307190479,0,292,1,0.473,-0.079,0.43,3.02721,-0.25939843,-2.2704358,2.9825583,-2.1875951,-3.1326602,0.0,0.0,0.0,0.7193536758422852,0.7193536758422852,link6
1763435287.8665862,d4pg_train,FAR,train,7,42,-3.9645098297745314,0,293,1,0.48,-0.046,0.451,3.1047196,-0.32327178,-2.078716,2.8670723,-2.7752764,-2.785283,0.0,0.0,0.0,0.7395781874656677,0.7395781874656677,link6
1763435289.2605665,d4pg_train,FAR,train,7,43,-3.833390436016926,0,294,1,0.452,-0.087,0.443,3.0164495,-0.33435822,-2.0595846,2.8582685,-3.0760338,-2.6318562,0.0,0.0,0.0,0.964167058467865,0.964167058467865,link6
1763435290.6679773,d4pg_train,FAR,train,7,44,-3.411146491022517,0,295,1,0.272,-0.243,0.436,2.5237687,-0.20929918,-2.266677,3.1391654,-3.1051075,-3.1150014,0.0,0.0,0.0,0.9250578284263611,0.9250578284263611,link6
1763435292.096036,d4pg_train,FAR,train,7,45,-3.2654555787666166,0,296,1,0.336,-0.162,0.396,2.828657,-0.29491752,-2.3147886,2.9661686,-3.040703,-2.4985378,0.0,0.0,0.0,0.8220586180686951,0.8220586180686951,link6
1763435293.4777288,d4pg_train,FAR,train,7,46,-4.0280149221221375,0,297,1,0.471,-0.039,0.476,3.141595,-0.30976334,-1.9572331,3.141098,-3.141539,-2.3456757,0.0,0.0,0.0,0.7302326560020447,0.7302326560020447,link6
1763435294.870385,d4pg_train,FAR,train,7,47,-3.256961400183623,0,298,1,0.366,-0.149,0.372,2.8289835,-0.36119765,-2.2808979,3.1355042,-3.1416655,-2.4639082,0.0,0.0,0.0,0.8927416205406189,0.8927416205406189,link6
1763435296.261224,d4pg_train,FAR,train,7,48,-3.2269625516717055,0,299,1,0.343,-0.171,0.377,2.7861125,-0.34430385,-2.2827106,3.1371038,-3.1234267,-2.6996627,0.0,0.0,0.0,0.8229528069496155,0.8229528069496155,link6
1763435297.6463542,d4pg_train,FAR,train,7,49,-3.2737493910316564,0,300,1,0.406,-0.028,0.363,3.1382825,-0.38645113,-2.3504348,2.8287752,-2.7895072,-2.9050941,0.0,0.0,0.0,0.7959674000740051,0.7959674000740051,link6
1763435299.070653,d4pg_train,FAR,train,7,50,-3.092443080013289,0,301,1,0.349,-0.029,0.378,3.151802,-0.3101805,-2.3933437,2.6696892,-3.0279536,-3.056389,0.0,0.0,0.0,0.8887997269630432,0.8887997269630432,link6
1763435300.4566264,d4pg_train,FAR,train,7,51,-3.0140794240537687,0,302,1,0.324,-0.045,0.381,3.079536,-0.28259248,-2.4618862,2.7068565,-2.942563,-3.061138,0.0,0.0,0.0,0.8390253186225891,0.8390253186225891,link6
1763435301.8654869,d4pg_train,FAR,train,7,52,-2.8856517855197423,0,303,1,0.278,-0.043,0.39,3.1270647,-0.19253086,-2.515222,2.944807,-3.102509,-3.1280506,0.0,0.0,0.0,0.9315183758735657,0.9315183758735657,link6
1763435303.250341,d4pg_train,FAR,train,7,53,-3.02027258568858,0,304,1,0.311,-0.103,0.382,2.9185603,-0.27531263,-2.3936462,2.9539278,-3.1401124,-3.1415706,0.0,0.0,0.0,0.8725809454917908,0.8725809454917908,link6
1763435304.6897206,d4pg_train,FAR,train,7,54,-3.2310122907134367,0,305,1,0.346,-0.16,0.38,2.8237839,-0.34685147,-2.2889998,2.9479587,-3.1404135,-3.1072962,0.0,0.0,0.0,0.8114452958106995,0.8114452958106995,link6
1763435306.0815158,d4pg_train,FAR,train,7,55,-4.530478699818526,0,306,1,0.508,-0.023,0.557,3.1429708,-0.26852152,-1.8579834,2.75222,-2.8038852,-3.0805757,0.0,0.0,0.0,0.6872040033340454,0.6872040033340454,link6
1763435307.4698634,d4pg_train,FAR,train,7,56,-3.799906997396485,0,307,1,0.464,-0.096,0.42,3.0073855,-0.38189888,-2.0968487,2.9003136,-2.9209845,-3.1201222,0.0,0.0,0.0,0.8679391741752625,0.8679391741752625,link6
1763435308.8574188,d4pg_train,FAR,train,7,57,-3.2285184534881095,0,308,1,0.348,-0.124,0.391,2.8702626,-0.19763397,-2.5124984,2.9910536,-2.3500514,-3.1421902,0.0,0.0,0.0,0.8536058068275452,0.8536058068275452,link6
1763435310.2432673,d4pg_train,FAR,train,7,58,-3.156499056602605,0,309,1,0.329,-0.142,0.385,2.8412924,-0.29803684,-2.3945441,3.1064687,-2.961896,-2.7853854,0.0,0.0,0.0,0.8789756894111633,0.8789756894111633,link6
1763435311.655644,d4pg_train,FAR,train,7,59,-3.22525009540059,0,310,1,0.374,-0.115,0.368,2.948386,-0.37752542,-2.2953556,3.1371522,-3.0830894,-2.655675,0.0,0.0,0.0,0.7650637030601501,0.7650637030601501,link6
1763435315.333371,d4pg_train,FAR,train,8,0,-4.353829428290516,0,311,1,0.287,-0.266,0.611,2.4732306,-0.024132345,-2.0522718,2.095925,-2.8114433,-1.0324395,0.0,0.0,0.0,0.9353027939796448,0.9353027939796448,link6
1763435316.7201865,d4pg_train,FAR,train,8,1,-3.256734641433286,0,312,1,0.244,-0.212,0.436,2.5197136,-0.15860198,-2.3386219,2.5552733,-3.1400173,-2.025728,0.0,0.0,0.0,0.993074357509613,0.993074357509613,link6
1763435318.1100814,d4pg_train,FAR,train,8,2,-3.2395519728912867,0,313,1,0.218,-0.284,0.404,2.361352,-0.2824062,-2.329476,2.7959137,-3.1397014,-2.958354,0.0,0.0,0.0,0.8894793391227722,0.8894793391227722,link6
1763435319.4943843,d4pg_train,FAR,train,8,3,-2.7653479275856183,0,314,1,0.296,-0.039,0.351,3.1420348,-0.31811553,-2.514035,2.1472366,-3.1400695,-2.5457165,0.0,0.0,0.0,0.9135096669197083,0.9135096669197083,link6
1763435320.8403864,d4pg_train,FAR,train,8,4,-2.73014515539159,0,315,1,0.292,-0.036,0.347,3.1467204,-0.33110484,-2.5310316,2.385915,-3.1249907,-2.8110824,0.0,0.0,0.0,0.9181925654411316,0.9181925654411316,link6
1763435322.2257154,d4pg_train,FAR,train,8,5,-2.9655780309506583,0,316,1,0.311,-0.158,0.35,2.7826347,-0.34677818,-2.5125034,3.141637,-2.7608478,-2.5409386,0.0,0.0,0.0,0.8912741541862488,0.8912741541862488,link6
1763435323.6367822,d4pg_train,FAR,train,8,6,-2.7398598995908903,0,317,1,0.323,-0.065,0.316,3.0689082,-0.44340688,-2.5223372,3.1415532,-3.0001643,-2.5771618,0.0,0.0,0.0,0.8813911080360413,0.8813911080360413,link6
1763435325.15232,d4pg_train,FAR,train,8,7,-2.6358842983209603,0,318,1,0.166,-0.036,0.405,3.1205454,0.059262946,-2.791279,2.9830985,-2.7708614,-2.5723884,0.0,0.0,0.0,0.8717530369758606,0.8717530369758606,link6
1763435326.5373883,d4pg_train,FAR,train,8,8,-2.677755667744471,0,319,1,0.291,-0.039,0.336,3.1382358,-0.36794835,-2.535583,3.3484788,-3.1670544,-1.7811521,0.0,0.0,0.0,0.9148808121681213,0.9148808121681213,link6
1763435327.9216492,d4pg_train,FAR,train,8,9,-1.678425729262306,0,320,1,0.237,-0.055,0.138,2.9793932,-0.14121573,-2.681543,0.5613812,-0.3544563,-0.2795941,0.0,0.0,0.0,1.0335248708724976,1.0335248708724976,link6
1763435329.305282,d4pg_train,FAR,train,8,10,-1.4749052888246261,0,321,1,0.123,-0.128,0.17,2.4519653,6.210683,2.7946444,0.9466782,1.1651665,0.3456243,0.0,0.0,0.0,1.0337837934494019,1.0337837934494019,link6
1763435330.6986809,d4pg_train,FAR,train,8,11,-4.215905013824388,0,322,1,0.517,-0.21,0.427,2.8450003,-0.43131936,-2.0823593,3.2895336,-2.5269282,-1.8200045,0.0,0.0,0.0,1.5598896741867065,1.5598896741867065,link6
1763435332.0804887,d4pg_train,FAR,train,8,12,-2.2720997402616083,0,323,1,-0.236,0.069,0.288,-0.24140607,-0.46973845,-2.7819557,5.4483852,-3.499368,-2.2700884,0.0,0.0,0.0,1.6732032299041748,1.6732032299041748,link6
1763435333.4611762,d4pg_train,FAR,train,8,13,-4.41940249017486,0,324,1,0.003,-0.329,0.659,1.2710664,-0.18542174,-1.6848785,-0.21185778,4.0496726,2.229579,0.0,0.0,0.0,1.6741141080856323,1.6741141080856323,link6
1763435334.8524227,d4pg_train,FAR,train,8,14,-2.838386879640816,0,325,1,0.29,-0.153,0.341,2.6815524,-0.35277268,-2.430361,0.26274782,3.243855,1.6532248,0.0,0.0,0.0,1.9705770015716553,1.9705770015716553,link6
1763435336.2429197,d4pg_train,FAR,train,8,15,-1.2025323353269524,0,326,1,-0.148,0.133,0.024,2.0430129,-2.6852484,-3.0420606,-0.50577706,1.252477,1.4652617,0.0,0.0,0.0,2.034768581390381,2.034768581390381,link6
1763435337.6244237,d4pg_train,FAR,train,8,16,-6.782439932749969,0,327,1,-0.395,-0.363,0.995,3.9426198,-0.14126869,1.1700972,-0.6184477,-0.06355146,2.3575327,0.0,0.0,0.0,1.6025378704071045,1.6025378704071045,link6
1763435339.019001,d4pg_train,FAR,train,8,17,-2.9311586819530633,0,328,1,0.452,-0.055,0.177,3.1362202,-0.56462544,-2.4244614,3.1886399,-2.5065393,-0.09643689,0.0,0.0,0.0,1.60244882106781,1.60244882106781,link6
1763435340.4055538,d4pg_train,FAR,train,8,18,-0.8997001143819919,0,329,1,-0.121,0.088,-0.01,1.9936087,-2.7788851,-2.7931838,4.3229713,-2.795784,-5.455703,0.0,0.0,0.0,1.7230409383773804,1.7230409383773804,link6
1763435341.865547,d4pg_train,FAR,train,8,19,-1.74403008339319,0,330,1,0.085,-0.033,0.276,-0.9483688,0.12260742,2.7927794,-0.07580563,2.1409643,-0.09412798,0.0,0.0,0.0,1.6744952201843262,1.6744952201843262,link6
1763435343.2532072,d4pg_train,FAR,train,8,20,-2.969393897387955,0,331,1,0.104,-0.075,0.478,2.8341057,0.5776216,-2.7917304,0.00543344,-4.1913323,0.054495055,0.0,0.0,0.0,1.9344840049743652,1.9344840049743652,link6
1763435344.6375465,d4pg_train,FAR,train,8,21,-2.8337167305126796,0,332,1,0.234,-0.283,0.297,2.3701234,-0.523409,-2.3797255,3.1212087,-3.2051206,-1.5852585,0.0,0.0,0.0,1.5286531448364258,1.5286531448364258,link6
1763435346.0339904,d4pg_train,FAR,train,8,22,-3.4701225222915566,0,333,1,0.075,-0.448,0.358,1.6576765,-0.48213,-2.159873,3.0915394,-3.1339793,-2.7448964,0.0,0.0,0.0,1.6520841121673584,1.6520841121673584,link6
1763435347.4177744,d4pg_train,FAR,train,8,23,-6.733192702702538,0,334,1,0.565,-0.597,0.764,2.451764,-0.5450238,-0.78199655,0.024104973,-1.7601453,0.0011111259,0.0,0.0,0.0,1.6645944118499756,1.6645944118499756,link6
1763435348.8208938,d4pg_train,FAR,train,8,24,-3.0628753270059503,0,335,1,0.128,-0.374,0.323,1.9996191,-0.46354282,-2.3031719,2.5479984,-3.0835905,2.430864,0.0,0.0,0.0,1.699939250946045,1.699939250946045,link6
1763435350.2335544,d4pg_train,FAR,train,8,25,-4.115815029010223,0,336,1,0.547,-0.04,0.412,3.1415982,-0.493484,-1.8298643,3.228865,-3.1572208,-1.3263628,0.0,0.0,0.0,1.4300034046173096,1.4300034046173096,link6
1763435351.6232417,d4pg_train,FAR,train,8,26,-2.9441728758425123,0,337,1,-0.217,-0.043,0.438,3.2183063,-4.0874996,-2.7944684,-0.16675504,-4.627553,-0.010878814,0.0,0.0,0.0,1.6544116735458374,1.6544116735458374,link6
1763435353.0164723,d4pg_train,FAR,train,8,27,-2.2117647741000326,0,338,1,-0.075,0.106,0.345,-0.13324083,-0.17138453,-2.7616065,0.20076743,-3.1811152,0.99836856,0.0,0.0,0.0,1.4908252954483032,1.4908252954483032,link6
1763435354.4056916,d4pg_train,FAR,train,8,28,-4.766169081168508,0,339,1,0.376,-0.365,0.597,2.5125833,-0.2937216,-1.6403092,3.2522972,-3.1515148,-1.1140921,0.0,0.0,0.0,1.5637083053588867,1.5637083053588867,link6
1763435355.7984114,d4pg_train,FAR,train,8,29,-2.443978161073706,0,340,1,-0.16,0.021,0.374,0.10870741,-4.7530823,-2.7876987,0.45514637,0.72554564,-2.281439,0.0,0.0,0.0,1.416380524635315,1.416380524635315,link6
1763435357.1839757,d4pg_train,FAR,train,8,30,-4.650340649171501,0,341,1,0.208,-0.707,-0.24,4.9064837,-4.4664755,0.876633,-0.6923092,-3.140737,-1.6736853,0.0,0.0,0.0,1.9530154466629028,1.9530154466629028,link6
1763435358.5742972,d4pg_train,FAR,train,8,31,-2.2929504107541674,0,342,1,0.248,-0.021,0.29,3.1194408,-0.42484677,-2.594342,3.8982034,-3.2211792,1.7903678,0.0,0.0,0.0,1.6486607789993286,1.6486607789993286,link6
1763435359.9534292,d4pg_train,FAR,train,8,32,-2.8453037987198537,0,343,1,-0.375,-0.271,0.104,3.6588373,0.41149572,2.1211505,0.059582803,-0.018709678,-0.36205217,0.0,0.0,0.0,1.6629022359848022,1.6629022359848022,link6
1763435361.3443236,d4pg_train,FAR,train,8,33,-0.7985638581210308,0,344,1,0.12,0.055,-0.017,0.12085374,-1.9855523,-2.782129,0.053107362,0.17565036,0.054916214,0.0,0.0,0.0,1.7339211702346802,1.7339211702346802,link6
1763435362.750039,d4pg_train,FAR,train,8,34,-3.2406055960590257,0,345,1,0.174,-0.388,0.333,2.2343202,-0.26504627,-2.122848,2.5371792,-3.173806,-1.9105366,0.0,0.0,0.0,1.7757147550582886,1.7757147550582886,link6
1763435364.1339812,d4pg_train,FAR,train,8,35,-4.228012826080833,0,346,1,-0.003,-0.69,0.143,1.7293575,-0.83148074,-1.7079613,-0.6249615,-1.9889328,-0.71612823,0.0,0.0,0.0,1.606523871421814,1.606523871421814,link6
1763435365.5140896,d4pg_train,FAR,train,8,36,-3.653655212351931,0,347,1,0.031,-0.225,0.565,1.7237664,0.32175282,-2.4389045,2.8330197,-2.409888,-2.6654098,0.0,0.0,0.0,1.8303602933883667,1.8303602933883667,link6
1763435366.907427,d4pg_train,FAR,train,8,37,-3.004832133368993,0,348,1,0.37,-0.209,0.265,2.634823,-0.5453389,-2.3100386,1.4179814,-3.0675924,0.11270743,0.0,0.0,0.0,1.9117259979248047,1.9117259979248047,link6
1763435368.2992926,d4pg_train,FAR,train,8,38,-1.2859892121282197,0,349,1,0.108,0.007,0.185,3.0744135,-1.0463222,-2.799296,-2.6541996,1.9919397,-2.6024885,0.0,0.0,0.0,1.7741186618804932,1.7741186618804932,link6
1763435369.703765,d4pg_train,FAR,train,8,39,-1.586883764252709,0,350,1,0.214,-0.095,0.123,2.982508,-1.4671364,-2.7413735,-1.5092652,-3.134078,2.0907805,0.0,0.0,0.0,1.909010648727417,1.909010648727417,link6
1763435371.0951383,d4pg_train,FAR,train,8,40,-1.2891067301604138,0,351,1,0.214,-0.002,0.019,3.3001838,-1.3026251,-2.7855046,6.1857624,-3.3433084,0.06241185,0.0,0.0,0.0,1.8193780183792114,1.8193780183792114,link6
1763435372.483134,d4pg_train,FAR,train,8,41,-4.69128260255677,0,352,1,0.598,-0.082,-0.497,-2.7364833,-2.4817483,0.36603847,-0.42436594,-2.9776726,-1.1169088,0.0,0.0,0.0,1.8446760177612305,1.8446760177612305,link6
1763435373.897925,d4pg_train,FAR,train,8,42,-2.382672450727918,0,353,1,-0.008,-0.097,0.385,1.9595149,-5.0245314,-2.6796927,3.0289843,-1.622242,2.3192809,0.0,0.0,0.0,2.188481569290161,2.188481569290161,link6
1763435375.289837,d4pg_train,FAR,train,8,43,-2.55531687022223,0,354,1,0.127,-0.345,0.215,2.2789755,-0.6672215,-2.4755478,2.544054,-3.2095418,-2.3452272,0.0,0.0,0.0,1.8236390352249146,1.8236390352249146,link6
1763435376.6774733,d4pg_train,FAR,train,8,44,-1.5181187019640332,0,355,1,0.245,-0.063,0.005,2.9451067,-1.1822538,-2.7778304,-0.21902634,-4.3238487,0.028947383,0.0,0.0,0.0,1.746886968612671,1.746886968612671,link6
1763435378.0848489,d4pg_train,FAR,train,8,45,-1.7059275696247052,0,356,1,-0.219,-0.114,-0.141,0.36583906,3.0679564,-2.4296784,2.2654152,-2.6735566,1.2020341,0.0,0.0,0.0,1.3613755702972412,1.3613755702972412,link6
1763435379.4864376,d4pg_train,FAR,train,8,46,-5.054492441789284,0,357,1,0.743,0.163,0.362,0.0,2.0946348,-1.571,1.571,1.571,1.571,0.0,0.0,0.0,1.3613755702972412,1.3613755702972412,link6
1763435380.8709936,d4pg_train,FAR,train,8,47,-5.054492441789284,0,358,1,0.743,0.163,0.362,0.0,2.0946348,-1.571,1.571,1.571,1.571,0.0,0.0,0.0,1.3613755702972412,1.3613755702972412,link6
1763435382.2502344,d4pg_train,FAR,train,8,48,-5.054492441789284,0,359,1,0.743,0.163,0.362,0.0,2.0946348,-1.571,1.571,1.571,1.571,0.0,0.0,0.0,1.3613755702972412,1.3613755702972412,link6
1763435383.6712224,d4pg_train,FAR,train,8,49,-5.054492441789284,0,360,1,0.743,0.163,0.362,0.0,2.0946348,-1.571,1.571,1.571,1.571,0.0,0.0,0.0,1.3613755702972412,1.3613755702972412,link6
1763435385.052471,d4pg_train,FAR,train,8,50,-5.054492441789284,0,361,1,0.743,0.163,0.362,0.0,2.0946348,-1.571,1.571,1.571,1.571,0.0,0.0,0.0,1.3613755702972412,1.3613755702972412,link6
1763435386.4424164,d4pg_train,FAR,train,8,51,-5.054492441789284,0,362,1,0.743,0.163,0.362,0.0,2.0946348,-1.571,1.571,1.571,1.571,0.0,0.0,0.0,1.3613755702972412,1.3613755702972412,link6
1763435389.225078,d4pg_train,FAR,train,8,52,-5.054492441789284,0,363,1,0.743,0.163,0.362,0.0,2.0946348,-1.571,1.571,1.571,1.571,0.0,0.0,0.0,1.3613755702972412,1.3613755702972412,link6
1763435390.6130967,d4pg_train,FAR,train,8,53,-5.054492441789284,0,364,1,0.743,0.163,0.362,-0.0,2.0946348,-1.571,1.571,1.571,1.571,0.0,0.0,0.0,1.3613755702972412,1.3613755702972412,link6
1763435392.0109463,d4pg_train,FAR,train,8,54,-5.054492441789284,0,365,1,0.743,0.163,0.362,0.0,2.0946348,-1.571,1.571,1.571,1.571,0.0,0.0,0.0,1.3613755702972412,1.3613755702972412,link6
1763435393.3917844,d4pg_train,FAR,train,8,55,-5.054492441789284,0,366,1,0.743,0.163,0.362,0.0,2.0946348,-1.571,1.571,1.571,1.571,0.0,0.0,0.0,1.3613755702972412,1.3613755702972412,link6
1763435394.7841802,d4pg_train,FAR,train,8,56,-5.054492441789284,0,367,1,0.743,0.163,0.362,0.0,2.0946348,-1.571,1.571,1.571,1.571,0.0,0.0,0.0,1.3613755702972412,1.3613755702972412,link6
1763435396.17203,d4pg_train,FAR,train,8,57,-5.054492441789284,0,368,1,0.743,0.163,0.362,0.0,2.0946348,-1.571,1.571,1.571,1.571,0.0,0.0,0.0,1.3613755702972412,1.3613755702972412,link6
1763435398.9409785,d4pg_train,FAR,train,8,58,-5.054492441789284,0,369,1,0.743,0.163,0.362,0.0,2.0946348,-1.571,1.571,1.571,1.571,0.0,0.0,0.0,1.3613755702972412,1.3613755702972412,link6
1763435400.3256128,d4pg_train,FAR,train,8,59,-5.054492441789284,0,370,1,0.743,0.163,0.362,0.0,2.0946348,-1.571,1.571,1.571,1.571,0.0,0.0,0.0,1.3613755702972412,1.3613755702972412,link6
1763435404.0753028,d4pg_train,FAR,train,9,0,-5.054492441789284,0,371,1,0.743,0.163,0.362,0.0,2.0946348,-1.571,1.571,1.571,1.571,0.0,0.0,0.0,1.3613755702972412,1.3613755702972412,link6
1763435405.4650602,d4pg_train,FAR,train,9,1,-5.054492441789284,0,372,1,0.743,0.163,0.362,0.0,2.0946348,-1.571,1.571,1.571,1.571,0.0,0.0,0.0,1.3613755702972412,1.3613755702972412,link6
1763435406.8676784,d4pg_train,FAR,train,9,2,-5.054492441789284,0,373,1,0.743,0.163,0.362,0.0,2.0946348,-1.571,1.571,1.571,1.571,0.0,0.0,0.0,1.3613755702972412,1.3613755702972412,link6
1763435408.2525165,d4pg_train,FAR,train,9,3,-5.054492441789284,0,374,1,0.743,0.163,0.362,0.0,2.0946348,-1.571,1.571,1.571,1.571,0.0,0.0,0.0,1.3613755702972412,1.3613755702972412,link6
1763435409.6381676,d4pg_train,FAR,train,9,4,-5.054492441789284,0,375,1,0.743,0.163,0.362,0.0,2.0946348,-1.571,1.571,1.571,1.571,0.0,0.0,0.0,1.3613755702972412,1.3613755702972412,link6
1763435412.4334133,d4pg_train,FAR,train,9,5,-5.054492441789284,0,376,1,0.743,0.163,0.362,0.0,2.0946348,-1.571,1.571,1.571,1.571,0.0,0.0,0.0,1.3613755702972412,1.3613755702972412,link6
1763435413.8161685,d4pg_train,FAR,train,9,6,-5.054492441789284,0,377,1,0.743,0.163,0.362,0.0,2.0946348,-1.571,1.571,1.571,1.571,0.0,0.0,0.0,1.3613755702972412,1.3613755702972412,link6
1763435415.2144194,d4pg_train,FAR,train,9,7,-5.054492441789284,0,378,1,0.743,0.163,0.362,0.0,2.0946348,-1.571,1.571,1.571,1.571,0.0,0.0,0.0,1.3613755702972412,1.3613755702972412,link6
1763435416.6006367,d4pg_train,FAR,train,9,8,-5.054492441789284,0,379,1,0.743,0.163,0.362,0.0,2.0946348,-1.571,1.571,1.571,1.571,0.0,0.0,0.0,1.3613755702972412,1.3613755702972412,link6
1763435417.9874558,d4pg_train,FAR,train,9,9,-5.054492441789284,0,380,1,0.743,0.163,0.362,0.0,2.0946348,-1.571,1.571,1.571,1.571,0.0,0.0,0.0,1.3613755702972412,1.3613755702972412,link6
1763435419.3735857,d4pg_train,FAR,train,9,10,-5.054492441789284,0,381,1,0.743,0.163,0.362,0.0,2.0946348,-1.571,1.571,1.571,1.571,0.0,0.0,0.0,1.3613755702972412,1.3613755702972412,link6
1763435422.1615124,d4pg_train,FAR,train,9,11,-5.054492441789284,0,382,1,0.743,0.163,0.362,0.0,2.0946348,-1.571,1.571,1.571,1.571,0.0,0.0,0.0,1.3613755702972412,1.3613755702972412,link6
1763435423.5496428,d4pg_train,FAR,train,9,12,-5.054492441789284,0,383,1,0.743,0.163,0.362,0.0,2.0946348,-1.571,1.571,1.571,1.571,0.0,0.0,0.0,1.3613755702972412,1.3613755702972412,link6
1763435424.9411767,d4pg_train,FAR,train,9,13,-5.054492441789284,0,384,1,0.743,0.163,0.362,0.0,2.0946348,-1.571,1.571,1.571,1.571,0.0,0.0,0.0,1.3613755702972412,1.3613755702972412,link6
1763435426.3394766,d4pg_train,FAR,train,9,14,-5.054492441789284,0,385,1,0.743,0.163,0.362,0.0,2.0946348,-1.571,1.571,1.571,1.571,0.0,0.0,0.0,1.3613755702972412,1.3613755702972412,link6
1763435427.7275555,d4pg_train,FAR,train,9,15,-5.054492441789284,0,386,1,0.743,0.163,0.362,0.0,2.0946348,-1.571,1.571,1.571,1.571,0.0,0.0,0.0,1.3613755702972412,1.3613755702972412,link6
1763435429.10423,d4pg_train,FAR,train,9,16,-5.054492441789284,0,387,1,0.743,0.163,0.362,0.0,2.0946348,-1.571,1.571,1.571,1.571,0.0,0.0,0.0,1.3613755702972412,1.3613755702972412,link6
1763435431.858762,d4pg_train,FAR,train,9,17,-5.054492441789284,0,388,1,0.743,0.163,0.362,0.0,2.0946348,-1.571,1.571,1.571,1.571,0.0,0.0,0.0,1.3613755702972412,1.3613755702972412,link6
1763435433.241233,d4pg_train,FAR,train,9,18,-5.054492441789284,0,389,1,0.743,0.163,0.362,0.0,2.0946348,-1.571,1.571,1.571,1.571,0.0,0.0,0.0,1.3613755702972412,1.3613755702972412,link6
1763435434.6350858,d4pg_train,FAR,train,9,19,-5.054492441789284,0,390,1,0.743,0.163,0.362,0.0,2.0946348,-1.571,1.571,1.571,1.571,0.0,0.0,0.0,1.3613755702972412,1.3613755702972412,link6
1763435436.0213733,d4pg_train,FAR,train,9,20,-5.054492441789284,0,391,1,0.743,0.163,0.362,0.0,2.0946348,-1.571,1.571,1.571,1.571,0.0,0.0,0.0,1.3613755702972412,1.3613755702972412,link6
1763435437.4311655,d4pg_train,FAR,train,9,21,-5.054492441789284,0,392,1,0.743,0.163,0.362,0.0,2.0946348,-1.571,1.571,1.571,1.571,0.0,0.0,0.0,1.3613755702972412,1.3613755702972412,link6
1763435438.8212905,d4pg_train,FAR,train,9,22,-5.054492441789284,0,393,1,0.743,0.163,0.362,0.0,2.0946348,-1.571,1.571,1.571,1.571,0.0,0.0,0.0,1.3613755702972412,1.3613755702972412,link6
1763435441.631601,d4pg_train,FAR,train,9,23,-5.054492441789284,0,394,1,0.743,0.163,0.362,0.0,2.0946348,-1.571,1.571,1.571,1.571,0.0,0.0,0.0,1.3613755702972412,1.3613755702972412,link6
1763435443.0408416,d4pg_train,FAR,train,9,24,-5.054492441789284,0,395,1,0.743,0.163,0.362,0.0,2.0946348,-1.571,1.571,1.571,1.571,0.0,0.0,0.0,1.3613755702972412,1.3613755702972412,link6
1763435444.4267678,d4pg_train,FAR,train,9,25,-5.054492441789284,0,396,1,0.743,0.163,0.362,0.0,2.0946348,-1.571,1.571,1.571,1.571,0.0,0.0,0.0,1.3613755702972412,1.3613755702972412,link6
1763435445.8092134,d4pg_train,FAR,train,9,26,-5.054492441789284,0,397,1,0.743,0.163,0.362,-0.0,2.0946348,-1.571,1.571,1.571,1.571,0.0,0.0,0.0,1.3613755702972412,1.3613755702972412,link6
1763435447.197379,d4pg_train,FAR,train,9,27,-5.054492441789284,0,398,1,0.743,0.163,0.362,0.0,2.0946348,-1.571,1.571,1.571,1.571,0.0,0.0,0.0,1.3613755702972412,1.3613755702972412,link6
1763435448.5534453,d4pg_train,FAR,train,9,28,-5.054492441789284,0,399,1,0.743,0.163,0.362,0.0,2.0946348,-1.571,1.571,1.571,1.571,0.0,0.0,0.0,1.3613755702972412,1.3613755702972412,link6
1763435451.3282008,d4pg_train,FAR,train,9,29,-5.054492441789284,0,400,1,0.743,0.163,0.362,0.0,2.0946348,-1.571,1.571,1.571,1.571,0.0,0.0,0.0,1.3613755702972412,1.3613755702972412,link6
1763435452.709842,d4pg_train,FAR,train,9,30,-5.054492441789284,0,401,1,0.743,0.163,0.362,0.0,2.0946348,-1.571,1.571,1.571,1.571,0.0,0.0,0.0,1.3613755702972412,1.3613755702972412,link6
1763435454.105594,d4pg_train,FAR,train,9,31,-5.054492441789284,0,402,1,0.743,0.163,0.362,0.0,2.0946348,-1.571,1.571,1.571,1.571,0.0,0.0,0.0,1.3613755702972412,1.3613755702972412,link6
1763435455.5027065,d4pg_train,FAR,train,9,32,-5.054492441789284,0,403,1,0.743,0.163,0.362,0.0,2.0946348,-1.571,1.571,1.571,1.571,0.0,0.0,0.0,1.3613755702972412,1.3613755702972412,link6
1763435456.901016,d4pg_train,FAR,train,9,33,-5.054492441789284,0,404,1,0.743,0.163,0.362,0.0,2.0946348,-1.571,1.571,1.571,1.571,0.0,0.0,0.0,1.3613755702972412,1.3613755702972412,link6
1763435458.2961178,d4pg_train,FAR,train,9,34,-5.054492441789284,0,405,1,0.743,0.163,0.362,0.0,2.0946348,-1.571,1.571,1.571,1.571,0.0,0.0,0.0,1.3613755702972412,1.3613755702972412,link6
1763435461.065088,d4pg_train,FAR,train,9,35,-5.054492441789284,0,406,1,0.743,0.163,0.362,0.0,2.0946348,-1.571,1.571,1.571,1.571,0.0,0.0,0.0,1.3613755702972412,1.3613755702972412,link6
1763435462.4655902,d4pg_train,FAR,train,9,36,-5.054492441789284,0,407,1,0.743,0.163,0.362,0.0,2.0946348,-1.571,1.571,1.571,1.571,0.0,0.0,0.0,1.3613755702972412,1.3613755702972412,link6
1763435463.8799744,d4pg_train,FAR,train,9,37,-5.054492441789284,0,408,1,0.743,0.163,0.362,0.0,2.0946348,-1.571,1.571,1.571,1.571,0.0,0.0,0.0,1.3613755702972412,1.3613755702972412,link6
1763435465.2688255,d4pg_train,FAR,train,9,38,-5.054492441789284,0,409,1,0.743,0.163,0.362,0.0,2.0946348,-1.571,1.571,1.571,1.571,0.0,0.0,0.0,1.3613755702972412,1.3613755702972412,link6
1763435466.6532116,d4pg_train,FAR,train,9,39,-5.054492441789284,0,410,1,0.743,0.163,0.362,0.0,2.0946348,-1.571,1.571,1.571,1.571,0.0,0.0,0.0,1.3613755702972412,1.3613755702972412,link6
1763435468.037857,d4pg_train,FAR,train,9,40,-5.054492441789284,0,411,1,0.743,0.163,0.362,0.0,2.0946348,-1.571,1.571,1.571,1.571,0.0,0.0,0.0,1.3613755702972412,1.3613755702972412,link6
1763435470.8013687,d4pg_train,FAR,train,9,41,-5.054492441789284,0,412,1,0.743,0.163,0.362,0.0,2.0946348,-1.571,1.571,1.571,1.571,0.0,0.0,0.0,1.3613755702972412,1.3613755702972412,link6
1763435472.1919565,d4pg_train,FAR,train,9,42,-5.054492441789284,0,413,1,0.743,0.163,0.362,0.0,2.0946348,-1.571,1.571,1.571,1.571,0.0,0.0,0.0,1.3613755702972412,1.3613755702972412,link6
1763435473.57827,d4pg_train,FAR,train,9,43,-5.054492441789284,0,414,1,0.743,0.163,0.362,0.0,2.0946348,-1.571,1.571,1.571,1.571,0.0,0.0,0.0,1.3613755702972412,1.3613755702972412,link6
1763435474.9713535,d4pg_train,FAR,train,9,44,-5.054492441789284,0,415,1,0.743,0.163,0.362,0.0,2.0946348,-1.571,1.571,1.571,1.571,0.0,0.0,0.0,1.3613755702972412,1.3613755702972412,link6
1763435476.367361,d4pg_train,FAR,train,9,45,-5.054492441789284,0,416,1,0.743,0.163,0.362,0.0,2.0946348,-1.571,1.571,1.571,1.571,0.0,0.0,0.0,1.3613755702972412,1.3613755702972412,link6
1763435477.7467804,d4pg_train,FAR,train,9,46,-5.054492441789284,0,417,1,0.743,0.163,0.362,0.0,2.0946348,-1.571,1.571,1.571,1.571,0.0,0.0,0.0,1.3613755702972412,1.3613755702972412,link6
1763435480.520313,d4pg_train,FAR,train,9,47,-5.054492441789284,0,418,1,0.743,0.163,0.362,0.0,2.0946348,-1.571,1.571,1.571,1.571,0.0,0.0,0.0,1.3613755702972412,1.3613755702972412,link6
1763435481.9252794,d4pg_train,FAR,train,9,48,-5.054492441789284,0,419,1,0.743,0.163,0.362,0.0,2.0946348,-1.571,1.571,1.571,1.571,0.0,0.0,0.0,1.3613755702972412,1.3613755702972412,link6
1763435483.313871,d4pg_train,FAR,train,9,49,-5.054492441789284,0,420,1,0.743,0.163,0.362,0.0,2.0946348,-1.571,1.571,1.571,1.571,0.0,0.0,0.0,1.3613755702972412,1.3613755702972412,link6
1763435484.7053154,d4pg_train,FAR,train,9,50,-5.054492441789284,0,421,1,0.743,0.163,0.362,0.0,2.0946348,-1.571,1.571,1.571,1.571,0.0,0.0,0.0,1.3613755702972412,1.3613755702972412,link6
1763435486.1224597,d4pg_train,FAR,train,9,51,-5.054492441789284,0,422,1,0.743,0.163,0.362,0.0,2.0946348,-1.571,1.571,1.571,1.571,0.0,0.0,0.0,1.3613755702972412,1.3613755702972412,link6
1763435487.5291615,d4pg_train,FAR,train,9,52,-5.054492441789284,0,423,1,0.743,0.163,0.362,0.0,2.0946348,-1.571,1.571,1.571,1.571,0.0,0.0,0.0,1.3613755702972412,1.3613755702972412,link6
1763435490.249672,d4pg_train,FAR,train,9,53,-5.054492441789284,0,424,1,0.743,0.163,0.362,0.0,2.0946348,-1.571,1.571,1.571,1.571,0.0,0.0,0.0,1.3613755702972412,1.3613755702972412,link6
1763435491.6555603,d4pg_train,FAR,train,9,54,-5.054492441789284,0,425,1,0.743,0.163,0.362,0.0,2.0946348,-1.571,1.571,1.571,1.571,0.0,0.0,0.0,1.3613755702972412,1.3613755702972412,link6
1763435493.0360453,d4pg_train,FAR,train,9,55,-5.054492441789284,0,426,1,0.743,0.163,0.362,0.0,2.0946348,-1.571,1.571,1.571,1.571,0.0,0.0,0.0,1.3613755702972412,1.3613755702972412,link6
1763435494.4390707,d4pg_train,FAR,train,9,56,-5.054492441789284,0,427,1,0.743,0.163,0.362,0.0,2.0946348,-1.571,1.571,1.571,1.571,0.0,0.0,0.0,1.3613755702972412,1.3613755702972412,link6
1763435495.8233926,d4pg_train,FAR,train,9,57,-5.054492441789284,0,428,1,0.743,0.163,0.362,0.0,2.0946348,-1.571,1.571,1.571,1.571,0.0,0.0,0.0,1.3613755702972412,1.3613755702972412,link6
1763435497.223889,d4pg_train,FAR,train,9,58,-5.054492441789284,0,429,1,0.743,0.163,0.362,0.0,2.0946348,-1.571,1.571,1.571,1.571,0.0,0.0,0.0,1.3613755702972412,1.3613755702972412,link6
1763435499.996235,d4pg_train,FAR,train,9,59,-5.054492441789284,0,430,1,0.743,0.163,0.362,0.0,2.0946348,-1.571,1.571,1.571,1.571,0.0,0.0,0.0,1.3613755702972412,1.3613755702972412,link6
1763435503.6739316,d4pg_train,FAR,train,10,0,-5.054492441789284,0,431,1,0.743,0.163,0.362,0.0,2.0946348,-1.571,1.571,1.571,1.571,0.0,0.0,0.0,1.3613755702972412,1.3613755702972412,link6
1763435505.059844,d4pg_train,FAR,train,10,1,-5.054492441789284,0,432,1,0.743,0.163,0.362,-0.0,2.0946348,-1.571,1.571,1.571,1.571,0.0,0.0,0.0,1.3613755702972412,1.3613755702972412,link6
1763435506.4462492,d4pg_train,FAR,train,10,2,-5.054492441789284,0,433,1,0.743,0.163,0.362,0.0,2.0946348,-1.571,1.571,1.571,1.571,0.0,0.0,0.0,1.3613755702972412,1.3613755702972412,link6
1763435507.824079,d4pg_train,FAR,train,10,3,-5.054492441789284,0,434,1,0.743,0.163,0.362,0.0,2.0946348,-1.571,1.571,1.571,1.571,0.0,0.0,0.0,1.3613755702972412,1.3613755702972412,link6
1763435509.209788,d4pg_train,FAR,train,10,4,-5.054492441789284,0,435,1,0.743,0.163,0.362,0.0,2.0946348,-1.571,1.571,1.571,1.571,0.0,0.0,0.0,1.3613755702972412,1.3613755702972412,link6
1763435511.977715,d4pg_train,FAR,train,10,5,-5.054492441789284,0,436,1,0.743,0.163,0.362,0.0,2.0946348,-1.571,1.571,1.571,1.571,0.0,0.0,0.0,1.3613755702972412,1.3613755702972412,link6
1763435513.356693,d4pg_train,FAR,train,10,6,-5.054492441789284,0,437,1,0.743,0.163,0.362,0.0,2.0946348,-1.571,1.571,1.571,1.571,0.0,0.0,0.0,1.3613755702972412,1.3613755702972412,link6
1763435514.7496548,d4pg_train,FAR,train,10,7,-5.054492441789284,0,438,1,0.743,0.163,0.362,0.0,2.0946348,-1.571,1.571,1.571,1.571,0.0,0.0,0.0,1.3613755702972412,1.3613755702972412,link6
1763435516.142159,d4pg_train,FAR,train,10,8,-5.054492441789284,0,439,1,0.743,0.163,0.362,0.0,2.0946348,-1.571,1.571,1.571,1.571,0.0,0.0,0.0,1.3613755702972412,1.3613755702972412,link6
1763435517.5386598,d4pg_train,FAR,train,10,9,-5.054492441789284,0,440,1,0.743,0.163,0.362,0.0,2.0946348,-1.571,1.571,1.571,1.571,0.0,0.0,0.0,1.3613755702972412,1.3613755702972412,link6
1763435518.926572,d4pg_train,FAR,train,10,10,-5.054492441789284,0,441,1,0.743,0.163,0.362,0.0,2.0946348,-1.571,1.571,1.571,1.571,0.0,0.0,0.0,1.3613755702972412,1.3613755702972412,link6
1763435521.7035148,d4pg_train,FAR,train,10,11,-5.054492441789284,0,442,1,0.743,0.163,0.362,0.0,2.0946348,-1.571,1.571,1.571,1.571,0.0,0.0,0.0,1.3613755702972412,1.3613755702972412,link6
1763435523.0840666,d4pg_train,FAR,train,10,12,-5.054492441789284,0,443,1,0.743,0.163,0.362,0.0,2.0946348,-1.571,1.571,1.571,1.571,0.0,0.0,0.0,1.3613755702972412,1.3613755702972412,link6
1763435524.4662714,d4pg_train,FAR,train,10,13,-5.054492441789284,0,444,1,0.743,0.163,0.362,0.0,2.0946348,-1.571,1.571,1.571,1.571,0.0,0.0,0.0,1.3613755702972412,1.3613755702972412,link6
1763435525.8595119,d4pg_train,FAR,train,10,14,-5.054492441789284,0,445,1,0.743,0.163,0.362,0.0,2.0946348,-1.571,1.571,1.571,1.571,0.0,0.0,0.0,1.3613755702972412,1.3613755702972412,link6
1763435527.2433956,d4pg_train,FAR,train,10,15,-5.054492441789284,0,446,1,0.743,0.163,0.362,0.0,2.0946348,-1.571,1.571,1.571,1.571,0.0,0.0,0.0,1.3613755702972412,1.3613755702972412,link6
1763435528.6263871,d4pg_train,FAR,train,10,16,-5.054492441789284,0,447,1,0.743,0.163,0.362,0.0,2.0946348,-1.571,1.571,1.571,1.571,0.0,0.0,0.0,1.3613755702972412,1.3613755702972412,link6
1763435531.405652,d4pg_train,FAR,train,10,17,-5.054492441789284,0,448,1,0.743,0.163,0.362,0.0,2.0946348,-1.571,1.571,1.571,1.571,0.0,0.0,0.0,1.3613755702972412,1.3613755702972412,link6
1763435532.866103,d4pg_train,FAR,train,10,18,-5.054492441789284,0,449,1,0.743,0.163,0.362,0.0,2.0946348,-1.571,1.571,1.571,1.571,0.0,0.0,0.0,1.3613755702972412,1.3613755702972412,link6
1763435534.2598052,d4pg_train,FAR,train,10,19,-5.054492441789284,0,450,1,0.743,0.163,0.362,0.0,2.0946348,-1.571,1.571,1.571,1.571,0.0,0.0,0.0,1.3613755702972412,1.3613755702972412,link6
1763435535.662177,d4pg_train,FAR,train,10,20,-5.054492441789284,0,451,1,0.743,0.163,0.362,0.0,2.0946348,-1.571,1.571,1.571,1.571,0.0,0.0,0.0,1.3613755702972412,1.3613755702972412,link6
1763435537.0514925,d4pg_train,FAR,train,10,21,-5.054492441789284,0,452,1,0.743,0.163,0.362,0.0,2.0946348,-1.571,1.571,1.571,1.571,0.0,0.0,0.0,1.3613755702972412,1.3613755702972412,link6
1763435538.4517984,d4pg_train,FAR,train,10,22,-5.054492441789284,0,453,1,0.743,0.163,0.362,0.0,2.0946348,-1.571,1.571,1.571,1.571,0.0,0.0,0.0,1.3613755702972412,1.3613755702972412,link6
1763435541.229936,d4pg_train,FAR,train,10,23,-5.054492441789284,0,454,1,0.743,0.163,0.362,0.0,2.0946348,-1.571,1.571,1.571,1.571,0.0,0.0,0.0,1.3613755702972412,1.3613755702972412,link6
1763435542.6169121,d4pg_train,FAR,train,10,24,-5.054492441789284,0,455,1,0.743,0.163,0.362,0.0,2.0946348,-1.571,1.571,1.571,1.571,0.0,0.0,0.0,1.3613755702972412,1.3613755702972412,link6
1763435544.0092926,d4pg_train,FAR,train,10,25,-5.054492441789284,0,456,1,0.743,0.163,0.362,0.0,2.0946348,-1.571,1.571,1.571,1.571,0.0,0.0,0.0,1.3613755702972412,1.3613755702972412,link6
1763435545.3941436,d4pg_train,FAR,train,10,26,-5.054492441789284,0,457,1,0.743,0.163,0.362,0.0,2.0946348,-1.571,1.571,1.571,1.571,0.0,0.0,0.0,1.3613755702972412,1.3613755702972412,link6
1763435546.8109798,d4pg_train,FAR,train,10,27,-5.054492441789284,0,458,1,0.743,0.163,0.362,0.0,2.0946348,-1.571,1.571,1.571,1.571,0.0,0.0,0.0,1.3613755702972412,1.3613755702972412,link6
1763435548.2132068,d4pg_train,FAR,train,10,28,-5.054492441789284,0,459,1,0.743,0.163,0.362,0.0,2.0946348,-1.571,1.571,1.571,1.571,0.0,0.0,0.0,1.3613755702972412,1.3613755702972412,link6
1763435550.9752238,d4pg_train,FAR,train,10,29,-5.054492441789284,0,460,1,0.743,0.163,0.362,0.0,2.0946348,-1.571,1.571,1.571,1.571,0.0,0.0,0.0,1.3613755702972412,1.3613755702972412,link6
1763435552.3631983,d4pg_train,FAR,train,10,30,-5.054492441789284,0,461,1,0.743,0.163,0.362,0.0,2.0946348,-1.571,1.571,1.571,1.571,0.0,0.0,0.0,1.3613755702972412,1.3613755702972412,link6
1763435553.756225,d4pg_train,FAR,train,10,31,-5.054492441789284,0,462,1,0.743,0.163,0.362,0.0,2.0946348,-1.571,1.571,1.571,1.571,0.0,0.0,0.0,1.3613755702972412,1.3613755702972412,link6
1763435555.1507382,d4pg_train,FAR,train,10,32,-5.054492441789284,0,463,1,0.743,0.163,0.362,-0.0,2.0946348,-1.571,1.571,1.571,1.571,0.0,0.0,0.0,1.3613755702972412,1.3613755702972412,link6
1763435556.5327315,d4pg_train,FAR,train,10,33,-5.054492441789284,0,464,1,0.743,0.163,0.362,0.0,2.0946348,-1.571,1.571,1.571,1.571,0.0,0.0,0.0,1.3613755702972412,1.3613755702972412,link6
1763435557.9182892,d4pg_train,FAR,train,10,34,-5.054492441789284,0,465,1,0.743,0.163,0.362,0.0,2.0946348,-1.571,1.571,1.571,1.571,0.0,0.0,0.0,1.3613755702972412,1.3613755702972412,link6
1763435560.6878035,d4pg_train,FAR,train,10,35,-5.054492441789284,0,466,1,0.743,0.163,0.362,0.0,2.0946348,-1.571,1.571,1.571,1.571,0.0,0.0,0.0,1.3613755702972412,1.3613755702972412,link6
1763435562.072075,d4pg_train,FAR,train,10,36,-5.054492441789284,0,467,1,0.743,0.163,0.362,0.0,2.0946348,-1.571,1.571,1.571,1.571,0.0,0.0,0.0,1.3613755702972412,1.3613755702972412,link6
1763435563.4756563,d4pg_train,FAR,train,10,37,-5.054492441789284,0,468,1,0.743,0.163,0.362,0.0,2.0946348,-1.571,1.571,1.571,1.571,0.0,0.0,0.0,1.3613755702972412,1.3613755702972412,link6
1763435564.8634398,d4pg_train,FAR,train,10,38,-5.054492441789284,0,469,1,0.743,0.163,0.362,0.0,2.0946348,-1.571,1.571,1.571,1.571,0.0,0.0,0.0,1.3613755702972412,1.3613755702972412,link6
1763435566.2621977,d4pg_train,FAR,train,10,39,-5.054492441789284,0,470,1,0.743,0.163,0.362,0.0,2.0946348,-1.571,1.571,1.571,1.571,0.0,0.0,0.0,1.3613755702972412,1.3613755702972412,link6
1763435567.6536844,d4pg_train,FAR,train,10,40,-5.054492441789284,0,471,1,0.743,0.163,0.362,0.0,2.0946348,-1.571,1.571,1.571,1.571,0.0,0.0,0.0,1.3613755702972412,1.3613755702972412,link6
1763435570.412998,d4pg_train,FAR,train,10,41,-5.054492441789284,0,472,1,0.743,0.163,0.362,0.0,2.0946348,-1.571,1.571,1.571,1.571,0.0,0.0,0.0,1.3613755702972412,1.3613755702972412,link6
1763435571.8173811,d4pg_train,FAR,train,10,42,-5.054492441789284,0,473,1,0.743,0.163,0.362,0.0,2.0946348,-1.571,1.571,1.571,1.571,0.0,0.0,0.0,1.3613755702972412,1.3613755702972412,link6
1763435573.199371,d4pg_train,FAR,train,10,43,-5.054492441789284,0,474,1,0.743,0.163,0.362,0.0,2.0946348,-1.571,1.571,1.571,1.571,0.0,0.0,0.0,1.3613755702972412,1.3613755702972412,link6
1763435574.5846999,d4pg_train,FAR,train,10,44,-5.054492441789284,0,475,1,0.743,0.163,0.362,-0.0,2.0946348,-1.571,1.571,1.571,1.571,0.0,0.0,0.0,1.3613755702972412,1.3613755702972412,link6
1763435575.9842975,d4pg_train,FAR,train,10,45,-5.054492441789284,0,476,1,0.743,0.163,0.362,0.0,2.0946348,-1.571,1.571,1.571,1.571,0.0,0.0,0.0,1.3613755702972412,1.3613755702972412,link6
1763435577.3863726,d4pg_train,FAR,train,10,46,-5.054492441789284,0,477,1,0.743,0.163,0.362,0.0,2.0946348,-1.571,1.571,1.571,1.571,0.0,0.0,0.0,1.3613755702972412,1.3613755702972412,link6
1763435580.1451998,d4pg_train,FAR,train,10,47,-5.054492441789284,0,478,1,0.743,0.163,0.362,0.0,2.0946348,-1.571,1.571,1.571,1.571,0.0,0.0,0.0,1.3613755702972412,1.3613755702972412,link6
1763435581.5348003,d4pg_train,FAR,train,10,48,-5.054492441789284,0,479,1,0.743,0.163,0.362,0.0,2.0946348,-1.571,1.571,1.571,1.571,0.0,0.0,0.0,1.3613755702972412,1.3613755702972412,link6
1763435582.9237084,d4pg_train,FAR,train,10,49,-5.054492441789284,0,480,1,0.743,0.163,0.362,0.0,2.0946348,-1.571,1.571,1.571,1.571,0.0,0.0,0.0,1.3613755702972412,1.3613755702972412,link6
1763435584.343046,d4pg_train,FAR,train,10,50,-5.054492441789284,0,481,1,0.743,0.163,0.362,0.0,2.0946348,-1.571,1.571,1.571,1.571,0.0,0.0,0.0,1.3613755702972412,1.3613755702972412,link6
1763435585.7265463,d4pg_train,FAR,train,10,51,-5.054492441789284,0,482,1,0.743,0.163,0.362,0.0,2.0946348,-1.571,1.571,1.571,1.571,0.0,0.0,0.0,1.3613755702972412,1.3613755702972412,link6
1763435587.1413872,d4pg_train,FAR,train,10,52,-5.054492441789284,0,483,1,0.743,0.163,0.362,0.0,2.0946348,-1.571,1.571,1.571,1.571,0.0,0.0,0.0,1.3613755702972412,1.3613755702972412,link6
1763435589.916766,d4pg_train,FAR,train,10,53,-5.054492441789284,0,484,1,0.743,0.163,0.362,0.0,2.0946348,-1.571,1.571,1.571,1.571,0.0,0.0,0.0,1.3613755702972412,1.3613755702972412,link6
1763435591.304308,d4pg_train,FAR,train,10,54,-5.054492441789284,0,485,1,0.743,0.163,0.362,0.0,2.0946348,-1.571,1.571,1.571,1.571,0.0,0.0,0.0,1.3613755702972412,1.3613755702972412,link6
1763435592.70616,d4pg_train,FAR,train,10,55,-5.054492441789284,0,486,1,0.743,0.163,0.362,0.0,2.0946348,-1.571,1.571,1.571,1.571,0.0,0.0,0.0,1.3613755702972412,1.3613755702972412,link6
1763435594.1733181,d4pg_train,FAR,train,10,56,-5.054492441789284,0,487,1,0.743,0.163,0.362,0.0,2.0946348,-1.571,1.571,1.571,1.571,0.0,0.0,0.0,1.3613755702972412,1.3613755702972412,link6
1763435595.570627,d4pg_train,FAR,train,10,57,-5.054492441789284,0,488,1,0.743,0.163,0.362,0.0,2.0946348,-1.571,1.571,1.571,1.571,0.0,0.0,0.0,1.3613755702972412,1.3613755702972412,link6
