QuanPM-doosan/DoosanRobot_Reinforcement_Learning/ros2_ws/rl_logs/20251126_045944_d4pg_train.csv
ts,run_tag,mode,phase,ep,step,reward,done,mem_len,learn_flag,ee_x,ee_y,ee_z,j1,j2,j3,j4,j5,j6,sphere_x,sphere_y,sphere_z,dist_out,signed,closest_link
1764107988.6252596,d4pg_train,FAR,train,1,0,-6.346091915639461,0,1,1,-0.013,-0.001,1.055,0.118420646,-0.0023080136,-0.029603936,-0.024032062,-0.0015682945,-0.220792,0.0,0.0,0.0,0.5769376158714294,0.5769376158714294,link6
1764107990.003003,d4pg_train,FAR,train,1,1,-6.30593689252,0,2,1,-0.185,-0.149,1.023,0.6866487,-0.26463383,0.0015115809,-0.22453775,-0.06726463,-0.35602805,0.0,0.0,0.0,0.698311984539032,0.698311984539032,link6
1764107991.3844578,d4pg_train,FAR,train,1,2,-6.454161689416284,0,3,1,-0.012,-0.009,1.045,0.6589985,-0.17926121,0.28111583,0.008250111,0.06675015,-0.5218096,0.0,0.0,0.0,0.33048924803733826,0.33048924803733826,link6
1764107992.765058,d4pg_train,FAR,train,1,3,-6.1742826924861784,0,4,1,0.156,0.132,1.004,0.6955159,-0.032854743,0.4415943,0.1549755,0.15314604,-0.8298666,0.0,0.0,0.0,0.5229983329772949,0.5229983329772949,link6
1764107994.1553135,d4pg_train,FAR,train,1,4,-6.41141611119815,0,5,1,0.126,0.054,1.037,0.40891376,0.0070676925,0.2690741,-0.9619551,0.0067680264,0.09936152,0.0,0.0,0.0,0.36097943782806396,0.36097943782806396,link6
1764107995.5390081,d4pg_train,FAR,train,1,5,-6.343297234441561,0,6,1,0.037,0.028,1.053,0.61167276,-0.01455488,0.10479577,-0.4455874,-0.045989007,1.4719715,0.0,0.0,0.0,0.5564039349555969,0.5564039349555969,link6
1764107996.9341283,d4pg_train,FAR,train,1,6,-6.3961817532990555,0,7,1,-0.022,-0.023,1.054,0.83792514,0.030488417,-0.087990485,-0.033807285,-0.03973272,1.6390411,0.0,0.0,0.0,0.4278761148452759,0.4278761148452759,link6
1764107998.3196218,d4pg_train,FAR,train,1,7,-6.191888495409972,0,8,1,-0.034,-0.256,0.995,1.4404217,-0.061202373,-0.43639547,0.1728671,-0.03501852,0.10904039,0.0,0.0,0.0,0.5335644483566284,0.5335644483566284,link6
1764107999.693985,d4pg_train,FAR,train,1,8,-6.3497816663396245,0,9,1,-0.091,-0.056,1.048,0.5181921,-0.18034708,0.1117502,-0.4767809,0.0395176,-1.0015378,0.0,0.0,0.0,0.5143575668334961,0.5143575668334961,link6
1764108001.0707874,d4pg_train,FAR,train,1,9,-6.665761238613891,0,10,1,0.065,0.012,1.044,0.250078,-0.07403682,0.2618276,-0.5815525,0.07361516,-0.44076094,0.0,0.0,0.0,0.25530505180358887,0.25530505180358887,link6
1764108002.4607494,d4pg_train,FAR,train,1,10,-6.33426379873795,0,11,1,0.011,0.03,1.049,1.096749,0.15510957,-0.2108312,-0.62112707,-0.053115226,-0.62126863,0.0,0.0,0.0,0.4897006154060364,0.4897006154060364,link6
1764108003.837177,d4pg_train,FAR,train,1,11,-6.370480428583422,0,12,1,0.037,-0.235,1.01,1.781123,-0.109207116,-0.33924663,-0.36601147,-0.025672248,-0.5827889,0.0,0.0,0.0,0.3542886972427368,0.3542886972427368,link6
1764108005.2339685,d4pg_train,FAR,train,1,12,-6.169868372090933,0,13,1,-0.008,-0.343,0.967,1.5441654,-0.17352495,-0.42267972,-0.29800162,0.030589834,-0.75896204,0.0,0.0,0.0,0.5914506316184998,0.5914506316184998,link6
1764108006.6130462,d4pg_train,FAR,train,1,13,-6.36278078470176,0,14,1,0.072,0.168,1.034,1.1618952,0.122293875,0.16800684,-0.1627567,-0.049889512,-0.47861266,0.0,0.0,0.0,0.43804609775543213,0.43804609775543213,link6
1764108008.000569,d4pg_train,FAR,train,1,14,-6.327477417344768,0,15,1,-0.072,-0.101,1.046,0.8719484,-0.15489265,0.025352389,0.7434873,-0.11248126,-1.3100643,0.0,0.0,0.0,0.6501461863517761,0.6501461863517761,link6
1764108009.398812,d4pg_train,FAR,train,1,15,-6.34529338610545,0,16,1,-0.11,-0.173,1.031,0.97572076,-0.18068202,-0.05187654,0.7616794,-0.1033767,-2.2096496,0.0,0.0,0.0,0.4874799847602844,0.4874799847602844,link6
1764108010.7742274,d4pg_train,FAR,train,1,16,-6.349860544120148,0,17,1,-0.033,-0.061,1.052,1.05704,-0.124603264,0.06755649,-0.11937287,0.07673725,0.13199972,0.0,0.0,0.0,0.5332549214363098,0.5332549214363098,link6
1764108012.1534188,d4pg_train,FAR,train,1,17,-6.346346350521317,0,18,1,-0.056,-0.081,1.05,0.96697503,-0.08044313,-0.05310802,-0.446008,-0.0067399847,-0.9882402,0.0,0.0,0.0,0.5588600635528564,0.5588600635528564,link6
1764108013.5379474,d4pg_train,FAR,train,1,18,-6.404979786760221,0,19,1,-0.004,-0.004,1.054,0.9400667,-0.070638835,0.13908151,-0.28493488,-0.030396914,-0.8019513,0.0,0.0,0.0,0.4124118983745575,0.4124118983745575,link6
1764108014.9167469,d4pg_train,FAR,train,1,19,-6.212140077536212,0,20,1,0.082,0.099,1.027,0.88369346,-0.08013508,0.424952,0.08503384,-0.038785834,-0.26460987,0.0,0.0,0.0,0.7796421051025391,0.7796421051025391,link6
1764108018.5603,d4pg_train,FAR,train,2,0,-6.313835075125799,0,21,1,-0.088,-0.021,1.047,0.3191101,-0.0020875682,-0.16782214,-0.54613,-0.10148865,-0.8054917,0.0,0.0,0.0,0.638587474822998,0.638587474822998,link6
1764108019.9561427,d4pg_train,FAR,train,2,1,-6.309689084281819,0,22,1,-0.092,-0.08,1.04,0.8444541,-0.008307441,-0.1976921,-0.67321324,-0.14441127,-1.196016,0.0,0.0,0.0,0.5222895741462708,0.5222895741462708,link6
1764108021.331645,d4pg_train,FAR,train,2,2,-6.354797131539683,0,23,1,-0.005,-0.046,1.053,1.4153088,0.008857065,-0.0918773,0.12437429,-0.0990891,-0.6414731,0.0,0.0,0.0,0.5092918872833252,0.5092918872833252,link6
1764108022.7115624,d4pg_train,FAR,train,2,3,-6.392388844519678,0,24,1,0.062,0.159,1.037,1.1839694,0.28930458,-0.12198704,0.06681965,-0.057257235,0.27751854,0.0,0.0,0.0,0.4054805338382721,0.4054805338382721,link6
1764108024.096643,d4pg_train,FAR,train,2,4,-6.279886384491959,0,25,1,0.156,0.289,0.991,1.0749781,0.4396132,-0.15210056,0.11935153,-0.02521743,0.5184115,0.0,0.0,0.0,0.5752092599868774,0.5752092599868774,link6
1764108025.4781559,d4pg_train,FAR,train,2,5,-6.312404690456717,0,26,1,-0.11,-0.22,1.021,1.1365441,-0.3010681,0.05779423,-0.7399861,-0.08305523,-1.6551708,0.0,0.0,0.0,0.6106218695640564,0.6106218695640564,link6
1764108026.8530881,d4pg_train,FAR,train,2,6,-6.3467816139103554,0,27,1,0.07,0.126,1.033,1.0709711,0.0035330527,0.3263012,0.25055137,-0.029090455,-1.0980153,0.0,0.0,0.0,0.4031532108783722,0.4031532108783722,link6
1764108028.2363193,d4pg_train,FAR,train,2,7,-6.175857587520571,0,28,1,0.22,0.343,0.938,0.9908048,0.25383687,0.36594924,0.30524197,0.021761723,-0.6235201,0.0,0.0,0.0,0.483526349067688,0.483526349067688,link6
1764108029.6170046,d4pg_train,FAR,train,2,8,-6.061324727208188,0,29,1,0.001,-0.158,0.992,1.5793891,0.17526802,-0.6691054,-0.18242575,0.01870139,0.5537586,0.0,0.0,0.0,0.4982088804244995,0.4982088804244995,link6
1764108030.99669,d4pg_train,FAR,train,2,9,-6.167343951595868,0,30,1,0.057,0.333,0.967,1.4042038,0.16029766,0.4234068,-0.17774431,0.13843238,-1.0437949,0.0,0.0,0.0,0.5452073812484741,0.5452073812484741,link6
1764108032.386966,d4pg_train,FAR,train,2,10,-6.161787172821143,0,31,1,0.022,0.294,0.974,1.5043335,0.04761198,0.49799603,0.013658511,0.014817668,-1.3606492,0.0,0.0,0.0,0.4493039846420288,0.4493039846420288,link6
1764108033.7687976,d4pg_train,FAR,train,2,11,-6.260177197361,0,32,1,0.032,-0.346,0.983,1.6351938,-0.35131073,-0.051152628,0.18667325,-0.18239084,-1.0821902,0.0,0.0,0.0,0.7005098462104797,0.7005098462104797,link6
1764108035.2030003,d4pg_train,FAR,train,2,12,-6.355369264668909,0,33,1,-0.0,-0.054,1.052,1.5342494,-0.029195258,-0.0031841546,0.10290466,-0.18014735,-0.39706102,0.0,0.0,0.0,0.49601566791534424,0.49601566791534424,link6
1764108036.61864,d4pg_train,FAR,train,2,13,-6.381855051769397,0,34,1,0.012,0.036,1.054,1.1509639,0.08778027,-0.064085476,-0.3051908,-0.069465525,0.37604105,0.0,0.0,0.0,0.4532706141471863,0.4532706141471863,link6
1764108038.0423074,d4pg_train,FAR,train,2,14,-6.341247329196793,0,35,1,0.021,0.025,1.055,0.88799286,0.04127617,-0.025926942,-0.5642397,-0.0034946655,0.6598583,0.0,0.0,0.0,0.6411015391349792,0.6411015391349792,link6
1764108039.4299686,d4pg_train,FAR,train,2,15,-6.296253696085225,0,36,1,0.105,0.298,0.992,1.2337649,0.2495695,0.2163703,-0.9254555,0.0040569496,-0.46174267,0.0,0.0,0.0,0.46123403310775757,0.46123403310775757,link6
1764108040.8168306,d4pg_train,FAR,train,2,16,-6.403052381832647,0,37,1,0.182,0.167,1.021,0.73086137,0.29242212,-0.057080705,-0.29650342,0.04121368,-0.18848847,0.0,0.0,0.0,0.39087557792663574,0.39087557792663574,link6
1764108042.2081869,d4pg_train,FAR,train,2,17,-6.379680127165365,0,38,1,0.131,0.057,1.042,0.3998167,0.22439866,-0.13247351,0.15378504,0.052939873,0.056507915,0.0,0.0,0.0,0.42803120613098145,0.42803120613098145,link6
1764108043.6102514,d4pg_train,FAR,train,2,18,-6.361220424676702,0,39,1,0.074,0.018,1.052,0.21655308,0.10166144,-0.04180896,0.4549942,0.03971767,0.2745452,0.0,0.0,0.0,0.502975344657898,0.502975344657898,link6
1764108044.9944575,d4pg_train,FAR,train,2,19,-6.331516496759877,0,40,1,-0.112,-0.074,1.045,0.658745,-0.15036948,0.022967994,-0.6752054,-0.1334669,-0.7171649,0.0,0.0,0.0,0.6214997172355652,0.6214997172355652,link6
1764108048.6548467,d4pg_train,FAR,train,3,0,-6.304868144383975,0,41,1,-0.086,-0.048,1.044,0.5248608,0.022958143,-0.24898773,0.14459391,0.0049139475,0.34809223,0.0,0.0,0.0,0.5947920680046082,0.5947920680046082,link6
1764108050.0806406,d4pg_train,FAR,train,3,1,-6.307224572546165,0,42,1,-0.071,-0.136,1.027,1.0913296,0.023902588,-0.3542495,0.015416609,0.021281984,0.5834654,0.0,0.0,0.0,0.4175346791744232,0.4175346791744232,link6
1764108051.511141,d4pg_train,FAR,train,3,2,-6.1904985211824615,0,43,1,-0.034,0.113,1.021,1.830673,-0.12739167,0.5115992,-0.26031086,-0.14364725,0.37676665,0.0,0.0,0.0,0.5350938439369202,0.5350938439369202,link6
1764108052.9292817,d4pg_train,FAR,train,3,3,-6.236311180661695,0,44,1,0.025,0.148,1.019,1.4032239,-0.08149966,0.477166,0.10362495,-0.053817578,1.5873934,0.0,0.0,0.0,0.4485782980918884,0.4485782980918884,link6
1764108054.317327,d4pg_train,FAR,train,3,4,-6.25527882286835,0,45,1,0.04,0.105,1.033,1.20023,-0.076988906,0.33995965,0.3197677,0.0057161003,2.012982,0.0,0.0,0.0,0.5486017465591431,0.5486017465591431,link6
1764108055.6982732,d4pg_train,FAR,train,3,5,-6.389923576375651,0,46,1,0.169,0.152,1.012,0.78714323,0.0793425,0.28917947,-0.58200324,0.18625836,0.48031974,0.0,0.0,0.0,0.3401292562484741,0.3401292562484741,link6
1764108057.0855348,d4pg_train,FAR,train,3,6,-6.350343543840231,0,47,1,-0.008,-0.022,1.053,1.3931142,-0.10149874,0.13170846,0.81981105,0.045601364,-0.08567307,0.0,0.0,0.0,0.5090247392654419,0.5090247392654419,link6
1764108058.4650614,d4pg_train,FAR,train,3,7,-6.34152770821171,0,48,1,-0.023,-0.067,1.049,1.3464712,-0.16515455,0.13371678,0.4405241,0.1523648,1.6280874,0.0,0.0,0.0,0.501484751701355,0.501484751701355,link6
1764108059.8532507,d4pg_train,FAR,train,3,8,-6.300830086654619,0,49,1,0.0,-0.02,1.045,1.3172909,-0.16791187,0.21434951,-0.20817983,0.2165965,3.2430193,0.0,0.0,0.0,0.5126656889915466,0.5126656889915466,link6
1764108061.2481024,d4pg_train,FAR,train,3,9,-6.253455189694743,0,50,1,-0.274,-0.206,0.984,0.6018996,-0.30553287,-0.18120977,-0.97690856,0.12356954,1.9317048,0.0,0.0,0.0,0.8150002360343933,0.8150002360343933,link6
1764108062.642524,d4pg_train,FAR,train,3,10,-6.352551700696532,0,51,1,-0.142,-0.129,1.034,0.6930941,-0.21864635,-0.0103054205,-0.80313987,0.09587399,1.704762,0.0,0.0,0.0,0.47636765241622925,0.47636765241622925,link6
1764108064.02264,d4pg_train,FAR,train,3,11,-6.322449582002306,0,52,1,0.012,-0.001,1.052,0.7519534,-0.08168704,0.13641451,-0.80798995,0.105823986,1.310659,0.0,0.0,0.0,0.6211004853248596,0.6211004853248596,link6
1764108065.4878585,d4pg_train,FAR,train,3,12,-6.278198182079399,0,53,1,0.005,0.045,1.04,1.6443619,-0.11923464,0.25733662,-0.17276537,0.27642167,0.33200312,0.0,0.0,0.0,0.50425124168396,0.50425124168396,link6
1764108066.9358423,d4pg_train,FAR,train,3,13,-6.29868307529085,0,54,1,-0.006,-0.057,1.045,1.471737,-0.21379113,0.24506927,0.06382759,0.08744119,-0.8094282,0.0,0.0,0.0,0.5559186935424805,0.5559186935424805,link6
1764108068.3332572,d4pg_train,FAR,train,3,14,-6.310668110792667,0,55,1,-0.073,-0.201,1.025,1.2070479,-0.34141007,0.20626295,0.1818846,-0.097894594,-1.897718,0.0,0.0,0.0,0.5176107287406921,0.5176107287406921,link6
1764108069.7779942,d4pg_train,FAR,train,3,15,-6.2907678251989045,0,56,1,-0.136,-0.097,1.034,0.5936475,-0.30999726,0.23608984,0.41182998,-0.08362764,1.7256261,0.0,0.0,0.0,0.6672360897064209,0.6672360897064209,link6
1764108071.1636605,d4pg_train,FAR,train,3,16,-6.274276138501185,0,57,1,-0.261,-0.12,1.005,0.4209977,-0.41316798,0.14566007,0.38209918,0.05585085,1.5198474,0.0,0.0,0.0,0.7494518160820007,0.7494518160820007,link6
1764108072.552584,d4pg_train,FAR,train,3,17,-6.300151559151664,0,58,1,-0.282,-0.045,1.005,0.169032,-0.36639428,-2.4901403e-06,-0.011833097,0.2758824,-0.08006179,0.0,0.0,0.0,0.5068907737731934,0.5068907737731934,link6
1764108073.93501,d4pg_train,FAR,train,3,18,-6.34727416997945,0,59,1,0.005,0.013,1.052,1.1148707,-0.0742832,0.17478819,-0.9290613,-0.028172078,0.98751485,0.0,0.0,0.0,0.49698495864868164,0.49698495864868164,link6
1764108075.3856304,d4pg_train,FAR,train,3,19,-6.344736865631377,0,60,1,0.024,0.054,1.047,1.1245915,-0.069854856,0.2556192,-0.44224516,-0.013660639,1.2380973,0.0,0.0,0.0,0.45518362522125244,0.45518362522125244,link6
1764108079.1114805,d4pg_train,FAR,train,4,0,-6.236592550067803,0,61,1,0.011,0.017,1.033,1.0772282,-0.22470835,0.428096,-0.1199033,0.099211626,0.32051268,0.0,0.0,0.0,0.4895470142364502,0.4895470142364502,link6
1764108080.510135,d4pg_train,FAR,train,4,1,-6.300563198902495,0,62,1,-0.13,-0.096,1.037,0.6282015,-0.28387353,0.1804222,-0.32427534,-0.0007064305,1.0826169,0.0,0.0,0.0,0.7274807691574097,0.7274807691574097,link6
1764108081.8563683,d4pg_train,FAR,train,4,2,-6.307482965156597,0,63,1,-0.23,-0.122,1.016,0.4917036,-0.3375881,0.08435739,-0.22891827,-0.0031758433,1.8463986,0.0,0.0,0.0,0.5841978788375854,0.5841978788375854,link6
1764108083.2468064,d4pg_train,FAR,train,4,3,-5.48629255932328,0,64,1,0.278,0.303,0.778,0.81156135,-0.07206041,1.1638247,0.51068,0.122282,0.89412457,0.0,0.0,0.0,0.3187517821788788,0.3187517821788788,link6
1764108084.630466,d4pg_train,FAR,train,4,4,-6.154947766539292,0,65,1,0.097,0.162,1.0,0.9821865,-0.078610204,0.45713696,0.42910933,0.20082733,-0.37405953,0.0,0.0,0.0,0.46268945932388306,0.46268945932388306,link6
1764108086.0717256,d4pg_train,FAR,train,4,5,-6.242717454576633,0,66,1,0.009,0.02,1.038,0.76611894,-0.19581893,0.35203168,0.41397834,0.14338829,-1.0730494,0.0,0.0,0.0,0.5927368402481079,0.5927368402481079,link6
1764108087.467961,d4pg_train,FAR,train,4,6,-6.3222011237306965,0,67,1,-0.12,0.049,1.044,-0.47765633,-0.09352863,-0.11518466,-0.8528589,0.12570602,0.51512945,0.0,0.0,0.0,0.6203963160514832,0.6203963160514832,link6
1764108088.8623617,d4pg_train,FAR,train,4,7,-6.33618948486653,0,68,1,0.008,-0.002,1.049,0.8376135,-0.11674505,0.19494185,-0.5361963,0.12226808,2.0560315,0.0,0.0,0.0,0.47796422243118286,0.47796422243118286,link6
1764108090.2511814,d4pg_train,FAR,train,4,8,-6.3109338707266724,0,69,1,0.027,0.026,1.044,0.8766675,-0.12223694,0.26824695,-0.33041945,0.13073444,1.9623016,0.0,0.0,0.0,0.47583723068237305,0.47583723068237305,link6
1764108091.7146745,d4pg_train,FAR,train,4,9,-6.3811709815757585,0,70,1,0.028,0.015,1.044,0.5246881,-0.12070001,0.25043124,-0.06310084,0.15283832,1.4681621,0.0,0.0,0.0,0.377860963344574,0.377860963344574,link6
1764108093.1105185,d4pg_train,FAR,train,4,10,-6.326422536393325,0,71,1,-0.08,-0.012,1.05,0.26639968,-0.16692336,0.09137386,0.5242521,0.093531944,1.8819121,0.0,0.0,0.0,0.6469106078147888,0.6469106078147888,link6
1764108094.5414338,d4pg_train,FAR,train,4,11,-6.486341624554834,0,72,1,-0.057,-0.018,1.046,0.34455228,-0.21112853,0.2465007,0.2722398,0.068753526,0.78565586,0.0,0.0,0.0,0.3218364119529724,0.3218364119529724,link6
1764108095.9483979,d4pg_train,FAR,train,4,12,-6.209279253237368,0,73,1,0.181,0.056,1.005,0.28314868,-0.05945216,0.4838731,0.21226613,0.101881385,-0.52582735,0.0,0.0,0.0,0.42259180545806885,0.42259180545806885,link6
1764108097.3584864,d4pg_train,FAR,train,4,13,-6.224878856606064,0,74,1,0.258,0.157,0.928,0.48119846,-0.057482637,0.7497363,0.8086125,0.2408578,1.0531921,0.0,0.0,0.0,0.2605234384536743,0.2605234384536743,link6
1764108098.7442179,d4pg_train,FAR,train,4,14,-5.8647304036512455,0,75,1,0.194,0.217,0.922,0.8216586,-0.10025613,0.7839834,0.3321822,0.21895601,1.7859571,0.0,0.0,0.0,0.43645933270454407,0.43645933270454407,link6
1764108100.1352534,d4pg_train,FAR,train,4,15,-6.172385604635801,0,76,1,0.082,0.158,0.984,1.0903821,-0.15902223,0.64766234,-0.09694852,0.1460632,2.6844208,0.0,0.0,0.0,0.33664852380752563,0.33664852380752563,link6
1764108101.5517166,d4pg_train,FAR,train,4,16,-6.164292075028986,0,77,1,0.049,0.086,1.014,0.908143,-0.1589152,0.40113822,0.28637582,0.4164112,4.959772,0.0,0.0,0.0,0.45780301094055176,0.45780301094055176,link6
1764108102.945903,d4pg_train,FAR,train,4,17,-6.046342712335462,0,78,1,0.04,0.059,0.997,0.48658782,-0.2897102,0.58236957,0.6558234,0.4423598,5.0763245,0.0,0.0,0.0,0.46238774061203003,0.46238774061203003,link6
1764108104.3373184,d4pg_train,FAR,train,4,18,-5.882113123575147,0,79,1,0.023,0.04,0.963,0.062762484,-0.44301414,0.8044613,0.82793266,0.4247255,4.8949904,0.0,0.0,0.0,0.3937499523162842,0.3937499523162842,link6
1764108105.7268255,d4pg_train,FAR,train,4,19,-6.254598028209271,0,80,1,0.084,0.123,1.02,0.7000662,-0.016957803,0.34464914,1.6700126,0.3789343,5.3978615,0.0,0.0,0.0,0.4273104667663574,0.4273104667663574,link6
1764108109.3802397,d4pg_train,FAR,train,5,0,-6.329342528121408,0,81,1,-0.097,-0.031,1.049,0.3131027,-0.14261593,0.043760713,0.122883834,0.037380043,0.76016945,0.0,0.0,0.0,0.6767079830169678,0.6767079830169678,link6
1764108110.782139,d4pg_train,FAR,train,5,1,-6.586156978468352,0,82,1,-0.199,-0.149,1.017,0.6535068,-0.3720854,0.14985485,0.3511058,0.0992842,1.6113511,0.0,0.0,0.0,0.27985382080078125,0.27985382080078125,link6
1764108112.1726332,d4pg_train,FAR,train,5,2,-6.254921522920555,0,83,1,-0.02,0.005,1.039,0.49434987,-0.20228297,0.26854712,0.4489497,0.25646287,2.0810282,0.0,0.0,0.0,0.5536853671073914,0.5536853671073914,link6
1764108113.5644712,d4pg_train,FAR,train,5,3,-6.304350380060406,0,84,1,0.024,0.008,1.029,0.5580689,-0.22305913,0.41069895,-0.23241922,0.23168246,2.3753633,0.0,0.0,0.0,0.3661382794380188,0.3661382794380188,link6
1764108114.9539647,d4pg_train,FAR,train,5,4,-6.027481706564882,0,85,1,0.135,0.055,0.991,0.4731479,-0.2025818,0.6310411,-0.61457783,0.21039154,2.5670767,0.0,0.0,0.0,0.5655162930488586,0.5655162930488586,link6
1764108116.3915253,d4pg_train,FAR,train,5,5,-7.353926031635898,0,86,1,0.33,0.09,0.911,0.17696618,0.02204046,0.6738033,0.6897679,0.42640498,4.748238,0.0,0.0,0.0,0.11938019841909409,0.11938019841909409,link6
1764108117.894979,d4pg_train,MID,train,5,6,-6.4468082338690555,0,87,1,0.415,0.098,0.829,0.145368,0.04261929,0.8731473,0.7679838,0.39443982,5.0294824,0.0,0.0,0.0,0.17679966986179352,0.17679966986179352,link6
1764108119.291115,d4pg_train,FAR,train,5,7,-6.939710257962718,0,88,1,0.388,-0.055,0.791,-0.19507468,-0.10036365,1.1704335,1.166471,0.16922298,2.6872683,0.0,0.0,0.0,0.11127911508083344,0.11127911508083344,link6
1764108120.830119,d4pg_train,MID,train,5,8,-5.9326695273896926,0,89,1,0.322,0.0,0.866,-0.06970207,-0.14504626,0.97711,0.8327915,0.26878887,4.5315137,0.0,0.0,0.0,0.2553328275680542,0.2553328275680542,link6
1764108122.2180376,d4pg_train,FAR,train,5,9,-6.130702195245554,0,90,1,0.258,0.026,0.91,0.017337983,-0.18702593,0.8848457,0.63482744,0.32027066,5.5089984,0.0,0.0,0.0,0.24005116522312164,0.24005116522312164,link6
1764108123.6062815,d4pg_train,FAR,train,5,10,-6.435125801939244,0,91,1,0.283,-0.051,0.94,-0.2859653,-0.051548623,0.68760896,0.91324276,0.31837004,6.2831826,0.0,0.0,0.0,0.22309665381908417,0.22309665381908417,link6
1764108124.9881783,d4pg_train,FAR,train,5,11,-6.373895100887345,0,92,1,0.308,-0.01,0.918,-0.17561549,-0.057101905,0.78794724,1.376355,0.36564395,6.2832003,0.0,0.0,0.0,0.21824268996715546,0.21824268996715546,link6
1764108126.37121,d4pg_train,FAR,train,5,12,-5.826893813571657,0,93,1,0.284,0.049,0.907,-0.003956097,-0.12508915,0.9129476,1.789045,0.41243353,6.0709896,0.0,0.0,0.0,0.37569135427474976,0.37569135427474976,link6
1764108127.754472,d4pg_train,FAR,train,5,13,-5.861340230318945,0,94,1,0.263,-0.231,0.833,-0.8955698,-0.11264338,1.1299593,1.8052863,0.44145024,4.194988,0.0,0.0,0.0,0.24304507672786713,0.24304507672786713,link6
1764108129.1379116,d4pg_train,FAR,train,5,14,-5.304437961023355,0,95,1,0.272,-0.219,0.735,-0.83528674,-0.25153598,1.4302176,1.5802069,0.5005441,4.486949,0.0,0.0,0.0,0.2472168356180191,0.2472168356180191,link6
1764108130.6439996,d4pg_train,FAR,train,5,15,-6.309547565239955,0,96,1,0.282,-0.166,0.715,-0.70197785,-0.2976668,1.4680607,1.2824838,0.49996436,4.8364377,0.0,0.0,0.0,0.1144694834947586,0.1144694834947586,link6
1764108132.0942173,d4pg_train,MID,train,5,16,-5.484610523306547,0,97,1,0.215,-0.173,0.84,-0.79216754,-0.28428078,1.0964663,0.54316217,0.44279563,4.581525,0.0,0.0,0.0,0.3326464891433716,0.3326464891433716,link6
1764108133.4889023,d4pg_train,FAR,train,5,17,-6.567253017072075,0,98,1,0.263,-0.173,0.787,-0.7448551,-0.2629842,1.2861452,1.2866459,0.44619635,4.072427,0.0,0.0,0.0,0.12163780629634857,0.12163780629634857,link6
1764108134.8789241,d4pg_train,FAR,train,5,18,-6.330911087179973,0,99,1,0.243,-0.099,0.958,-0.49737987,-0.04848584,0.58456594,0.65808636,0.38392335,5.0537815,0.0,0.0,0.0,0.26004403829574585,0.26004403829574585,link6
1764108136.26743,d4pg_train,FAR,train,5,19,-6.103040787582468,0,100,1,0.203,-0.066,0.961,-0.59196717,-0.13429613,0.6881746,1.4461685,0.49326214,6.0165725,0.0,0.0,0.0,0.32364755868911743,0.32364755868911743,link6
1764108139.92775,d4pg_train,FAR,train,6,0,-6.340516250550132,0,101,1,-0.026,-0.002,1.055,0.1274866,-0.026297547,-0.03038095,0.023248535,0.03704342,0.8830233,0.0,0.0,0.0,0.6367421746253967,0.6367421746253967,link6
1764108141.3136368,d4pg_train,FAR,train,6,1,-5.604904725905623,0,102,1,0.176,0.361,0.832,1.0990465,-0.011593326,0.9222225,0.19061515,0.31736907,4.0111756,0.0,0.0,0.0,0.4394379258155823,0.4394379258155823,link6
1764108142.699512,d4pg_train,FAR,train,6,2,-5.860623088699612,0,103,1,0.275,-0.044,0.922,-0.28854263,-0.12134267,0.7655748,0.57596046,0.34660342,4.545547,0.0,0.0,0.0,0.41133642196655273,0.41133642196655273,link6
1764108144.0841427,d4pg_train,FAR,train,6,3,-6.539854802189399,0,104,1,0.149,-0.091,0.972,-0.72956765,-0.17790326,0.6764178,1.0376079,0.39448458,4.644833,0.0,0.0,0.0,0.2096349447965622,0.2096349447965622,link6
1764108145.4769828,d4pg_train,FAR,train,6,4,-6.224864345360559,0,105,1,0.327,-0.088,0.838,-0.45175275,-0.13245603,1.1145496,1.8475101,0.52340484,5.1933537,0.0,0.0,0.0,0.18302632868289948,0.18302632868289948,link6
1764108146.8586905,d4pg_train,FAR,train,6,5,-5.893926372638479,0,106,1,0.233,-0.09,0.924,-0.4868219,-0.15146379,0.9522672,2.6964207,0.5235968,5.9233828,0.0,0.0,0.0,0.35003381967544556,0.35003381967544556,link6
1764108148.31978,d4pg_train,FAR,train,6,6,-5.8206311141670355,0,107,1,0.171,-0.118,0.928,-0.7154625,-0.23230292,1.0438615,2.8059587,0.52358747,6.283197,0.0,0.0,0.0,0.3774043917655945,0.3774043917655945,link6
1764108149.6985154,d4pg_train,FAR,train,6,7,-5.796280691012161,0,108,1,0.012,-0.174,0.944,-1.5180298,-0.26286313,0.97214985,3.100008,0.37615603,6.283187,0.0,0.0,0.0,0.4922124743461609,0.4922124743461609,link6
1764108151.2196596,d4pg_train,FAR,train,6,8,-5.833575373578177,0,109,1,0.054,-0.19,0.939,-1.3577845,-0.23277746,0.9722652,2.8045282,0.3892343,6.2831945,0.0,0.0,0.0,0.41828757524490356,0.41828757524490356,link6
1764108152.618492,d4pg_train,FAR,train,6,9,-5.8046907432462165,0,110,1,0.085,-0.188,0.933,-1.2582331,-0.23242855,0.99087656,2.6468527,0.41830376,6.2832003,0.0,0.0,0.0,0.42482423782348633,0.42482423782348633,link6
1764108154.1295407,d4pg_train,FAR,train,6,10,-5.744298921136394,0,111,1,0.036,-0.181,0.932,-1.5294436,-0.28597233,0.9875804,2.1992762,0.27984998,6.28319,0.0,0.0,0.0,0.47392189502716064,0.47392189502716064,link6
1764108155.5133262,d4pg_train,FAR,train,6,11,-6.4215416419193145,0,112,1,0.133,-0.276,0.875,-1.1721619,-0.1424656,1.0956258,2.5984812,0.37230414,6.2354264,0.0,0.0,0.0,0.17614002525806427,0.17614002525806427,link6
1764108156.9131517,d4pg_train,FAR,train,6,12,-5.699220217548102,0,113,1,0.346,-0.318,0.749,-0.75014454,0.068196654,1.237131,3.1088426,0.50939274,6.1926565,0.0,0.0,0.0,0.2541061043739319,0.2541061043739319,link6
1764108158.3036788,d4pg_train,FAR,train,6,13,-5.896482423584603,0,114,1,0.261,-0.084,0.88,-0.49147826,-0.20845874,1.0570991,1.880288,0.46524084,6.2831883,0.0,0.0,0.0,0.2614198327064514,0.2614198327064514,link6
1764108159.7175376,d4pg_train,FAR,train,6,14,-6.397851335370445,0,115,1,0.306,-0.149,0.851,-0.6040155,-0.09749706,1.0976974,2.1967468,0.4790896,5.483127,0.0,0.0,0.0,0.17163150012493134,0.17163150012493134,link6
1764108161.100545,d4pg_train,FAR,train,6,15,-5.457157260895292,0,116,1,0.31,-0.3,0.786,-0.85618657,0.009868166,1.1747056,2.5015376,0.4980703,4.9370213,0.0,0.0,0.0,0.4166368246078491,0.4166368246078491,link6
1764108162.5120173,d4pg_train,FAR,train,6,16,-5.989953100429655,0,117,1,-0.011,0.123,0.986,-1.0085695,-0.48351678,0.70889145,2.0142043,0.5224581,6.2831836,0.0,0.0,0.0,0.519453227519989,0.519453227519989,link6
1764108163.9247503,d4pg_train,FAR,train,6,17,-6.128300852571728,0,118,1,0.012,0.033,0.995,-0.7007725,-0.34924078,0.77339876,2.6005294,0.48751128,6.283183,0.0,0.0,0.0,0.34764528274536133,0.34764528274536133,link6
1764108165.3168302,d4pg_train,FAR,train,6,18,-5.863149290953952,0,119,1,0.142,-0.103,0.955,-0.71424377,-0.23724677,0.93556154,2.9375453,0.43105584,6.194426,0.0,0.0,0.0,0.4898678660392761,0.4898678660392761,link6
1764108166.7382717,d4pg_train,FAR,train,6,19,-5.691754695639943,0,120,1,0.065,-0.03,0.935,-0.4367768,-0.46392024,1.0965754,3.130834,0.32192305,5.87626,0.0,0.0,0.0,0.4337667226791382,0.4337667226791382,link6
1764108170.445389,d4pg_train,FAR,train,7,0,-6.364810077010767,0,121,1,0.01,0.008,1.055,0.42750123,-0.022124114,0.05392428,0.5035396,0.06277784,1.1375376,0.0,0.0,0.0,0.4980773329734802,0.4980773329734802,link6
1764108171.8385746,d4pg_train,FAR,train,7,1,-6.489503891431447,0,122,1,0.225,0.182,0.997,0.63383186,0.17471625,0.25471738,0.72814333,0.1622984,5.840103,0.0,0.0,0.0,0.2954220175743103,0.2954220175743103,link6
1764108173.2226558,d4pg_train,FAR,train,7,2,-6.07167937943839,0,123,1,0.077,0.006,1.002,-0.336727,-0.27329388,0.6946848,2.2396572,0.3127309,4.809518,0.0,0.0,0.0,0.47831839323043823,0.47831839323043823,link6
1764108174.7189696,d4pg_train,FAR,train,7,3,-6.055418448564535,0,124,1,-0.015,0.059,1.001,-0.85823077,-0.4122817,0.6958663,2.3403099,0.3521504,5.382803,0.0,0.0,0.0,0.4871174097061157,0.4871174097061157,link6
1764108176.1146865,d4pg_train,FAR,train,7,4,-6.139619163310365,0,125,1,0.006,0.115,1.01,-1.2952436,-0.41670358,0.5816652,2.1764534,0.37432915,6.2831764,0.0,0.0,0.0,0.48194223642349243,0.48194223642349243,link6
1764108177.517978,d4pg_train,FAR,train,7,5,-5.934309108114983,0,126,1,0.04,-0.122,0.97,-1.2693492,-0.26687342,0.89713323,3.084834,0.43274143,6.037242,0.0,0.0,0.0,0.4365381598472595,0.4365381598472595,link6
1764108178.901859,d4pg_train,FAR,train,7,6,-5.993234124482823,0,127,1,0.016,-0.061,0.992,-1.3483236,-0.32379127,0.77092177,3.1026647,0.27705368,6.1039867,0.0,0.0,0.0,0.5142372846603394,0.5142372846603394,link6
1764108180.32089,d4pg_train,FAR,train,7,7,-6.263320196365504,0,128,1,0.001,0.208,1.015,-1.5644681,-0.43752214,0.4071277,2.9687805,0.12035963,6.221159,0.0,0.0,0.0,0.46721982955932617,0.46721982955932617,link6
1764108181.7064812,d4pg_train,FAR,train,7,8,-6.200550126372369,0,129,1,0.012,-0.083,1.024,-1.4952699,-0.15671958,0.5190711,3.0277417,0.31719282,5.6701508,0.0,0.0,0.0,0.49342280626296997,0.49342280626296997,link6
1764108183.0969257,d4pg_train,FAR,train,7,9,-6.201317315437938,0,130,1,0.002,0.042,1.03,-1.0926116,-0.28503844,0.48259345,2.3852303,0.24686599,5.9992533,0.0,0.0,0.0,0.5734038949012756,0.5734038949012756,link6
1764108184.4933596,d4pg_train,FAR,train,7,10,-6.200838120170606,0,131,1,-0.087,0.123,1.014,-0.8061311,-0.44378504,0.52393836,1.9323628,0.20716181,6.2414236,0.0,0.0,0.0,0.4604153633117676,0.4604153633117676,link6
1764108185.8850653,d4pg_train,FAR,train,7,11,-5.8679964832928855,0,132,1,0.117,-0.097,0.947,-0.9096634,-0.30854413,0.93435043,1.9927036,0.29457647,5.698335,0.0,0.0,0.0,0.3787246346473694,0.3787246346473694,link6
1764108187.2722394,d4pg_train,FAR,train,7,12,-5.973112821556409,0,133,1,0.171,-0.07,0.934,-0.42239615,-0.28239572,0.9974046,2.7865992,0.22235857,6.110048,0.0,0.0,0.0,0.29545724391937256,0.29545724391937256,link6
1764108188.669378,d4pg_train,FAR,train,7,13,-5.845536402427958,0,134,1,0.107,-0.049,0.965,-0.49838573,-0.33130136,0.8862754,2.8474698,0.16367619,6.2832003,0.0,0.0,0.0,0.5980459451675415,0.5980459451675415,link6
1764108190.110381,d4pg_train,FAR,train,7,14,-6.128493494291512,0,135,1,-0.189,0.405,0.918,-1.133453,-0.7329628,0.40758094,3.1408243,0.14140615,6.283183,0.0,0.0,0.0,0.7638278603553772,0.7638278603553772,link6
1764108191.5151641,d4pg_train,FAR,train,7,15,-6.201304997375571,0,136,1,-0.094,0.186,1.006,-1.0382543,-0.48011515,0.49037287,2.6461706,0.22620295,6.283174,0.0,0.0,0.0,0.4902319312095642,0.4902319312095642,link6
1764108192.919602,d4pg_train,FAR,train,7,16,-6.207594923701968,0,137,1,0.006,0.016,1.018,-0.76955974,-0.31831512,0.61842394,2.4323463,0.17815071,6.2831635,0.0,0.0,0.0,0.3924759030342102,0.3924759030342102,link6
1764108194.3090463,d4pg_train,FAR,train,7,17,-6.195044834565466,0,138,1,0.011,0.274,0.991,-1.5699016,-0.5490878,0.43156064,1.843748,0.09624283,5.4120016,0.0,0.0,0.0,0.5274469256401062,0.5274469256401062,link6
1764108195.6676803,d4pg_train,FAR,train,7,18,-6.198236113414404,0,139,1,-0.231,0.286,0.965,-0.86745036,-0.59333843,0.3178329,2.8145983,0.020690698,4.419203,0.0,0.0,0.0,0.768877387046814,0.768877387046814,link6
1764108197.0502892,d4pg_train,FAR,train,7,19,-6.157300844309251,0,140,1,-0.166,0.186,0.987,-0.84378314,-0.573394,0.5865002,3.019583,0.11929309,5.2522273,0.0,0.0,0.0,0.4619072675704956,0.4619072675704956,link6
1764108200.7869816,d4pg_train,FAR,train,8,0,-6.302297862760487,0,141,1,-0.125,-0.153,1.03,0.89521766,-0.12347602,-0.18616344,0.6597684,0.025763612,5.868019,0.0,0.0,0.0,0.6251940131187439,0.6251940131187439,link6
1764108202.1856422,d4pg_train,FAR,train,8,1,-6.201108791557043,0,142,1,-0.14,0.189,1.001,-0.91822445,-0.52056557,0.47876006,2.0871553,0.16399658,6.173327,0.0,0.0,0.0,0.5065969824790955,0.5065969824790955,link6
1764108203.5799725,d4pg_train,FAR,train,8,2,-6.01691497912875,0,143,1,-0.0,0.295,0.954,-1.5217685,-0.7065867,0.6880986,2.5338528,0.18348715,6.0135126,0.0,0.0,0.0,0.5278588533401489,0.5278588533401489,link6
1764108204.9626493,d4pg_train,FAR,train,8,3,-6.017723845091982,0,144,1,-0.031,0.068,0.996,-0.9764745,-0.47356755,0.7379491,2.4314756,0.15370952,6.2828364,0.0,0.0,0.0,0.5301315188407898,0.5301315188407898,link6
1764108206.3812592,d4pg_train,FAR,train,8,4,-5.934288420388308,0,145,1,-0.185,0.219,0.946,-0.86057067,-0.74957937,0.7487001,2.9883375,0.08230646,6.2831755,0.0,0.0,0.0,0.7299250364303589,0.7299250364303589,link6
1764108207.7609406,d4pg_train,FAR,train,8,5,-5.9405032272744815,0,146,1,-0.177,0.327,0.912,-1.094436,-0.84321564,0.73007,3.1232915,0.04279049,6.283167,0.0,0.0,0.0,0.5077337622642517,0.5077337622642517,link6
1764108209.1589987,d4pg_train,FAR,train,8,6,-5.816915643069232,0,147,1,-0.005,-0.017,0.964,-1.5707978,-0.47712886,0.88591254,2.6877892,-0.10045225,5.3994246,0.0,0.0,0.0,0.5053379535675049,0.5053379535675049,link6
1764108210.5422802,d4pg_train,FAR,train,8,7,-5.500322908858871,0,148,1,-0.006,0.08,0.908,-1.4955728,-0.7475979,1.1599476,3.0391133,-0.00014859259,6.101713,0.0,0.0,0.0,0.5079987645149231,0.5079987645149231,link6
1764108211.960121,d4pg_train,FAR,train,8,8,-5.599395611922797,0,149,1,-0.143,0.205,0.899,-0.9602612,-0.8899201,1.028804,3.136194,0.00042145775,6.2831993,0.0,0.0,0.0,0.8743374943733215,0.8743374943733215,link6
1764108213.34896,d4pg_train,FAR,train,8,9,-6.015881834402014,0,150,1,-0.144,0.312,0.941,-1.1989462,-0.7440377,0.60012144,1.7377671,-0.17364226,6.1251974,0.0,0.0,0.0,0.6866934299468994,0.6866934299468994,link6
1764108214.839288,d4pg_train,FAR,train,8,10,-5.849519443578253,0,151,1,-0.017,0.043,0.967,-1.3252928,-0.54109716,0.8453418,2.851436,-0.16537277,6.250529,0.0,0.0,0.0,0.48062992095947266,0.48062992095947266,link6
1764108216.2314463,d4pg_train,FAR,train,8,11,-5.635856839952949,0,152,1,0.006,-0.039,0.933,-1.3919787,-0.5360513,1.0313053,3.020073,-0.1136952,6.2832003,0.0,0.0,0.0,0.5025160908699036,0.5025160908699036,link6
1764108217.75705,d4pg_train,FAR,train,8,12,-6.067366465368683,0,153,1,-0.091,0.257,0.972,-1.1521212,-0.6340544,0.60829353,2.2516952,0.22270046,6.283186,0.0,0.0,0.0,0.61854487657547,0.61854487657547,link6
1764108219.1487193,d4pg_train,FAR,train,8,13,-5.834908007022057,0,154,1,-0.15,0.242,0.928,-0.966345,-0.8072507,0.8745499,2.4438338,0.118402384,5.7648635,0.0,0.0,0.0,0.6143178343772888,0.6143178343772888,link6
1764108220.5356603,d4pg_train,FAR,train,8,14,-5.6857067520431395,0,155,1,-0.145,0.178,0.912,-0.8635143,-0.84297085,1.0142622,2.5085804,0.06924762,5.649493,0.0,0.0,0.0,0.47563403844833374,0.47563403844833374,link6
1764108221.9186056,d4pg_train,FAR,train,8,15,-5.2561934627103,0,156,1,0.01,-0.057,0.868,-1.5496292,-0.64541286,1.3361396,2.4721787,0.10801607,6.2831836,0.0,0.0,0.0,0.4916287064552307,0.4916287064552307,link6
1764108223.335957,d4pg_train,FAR,train,8,16,-5.033428676212524,0,157,1,0.005,-0.046,0.832,-1.5710136,-0.7294171,1.4783461,2.9066975,0.14624248,6.2831955,0.0,0.0,0.0,0.49992597103118896,0.49992597103118896,link6
1764108224.72256,d4pg_train,FAR,train,8,17,-4.9928015816507445,0,158,1,-0.0,-0.05,0.825,-1.5711303,-0.73623276,1.495985,3.1521585,0.14694314,5.9546123,0.0,0.0,0.0,0.49991315603256226,0.49991315603256226,link6
1764108226.1107843,d4pg_train,FAR,train,8,18,-5.133622944602155,0,159,1,0.0,-0.002,0.85,-1.4568378,-0.770376,1.4297817,3.142927,0.1489603,5.986141,0.0,0.0,0.0,0.5002404451370239,0.5002404451370239,link6
1764108227.4964533,d4pg_train,FAR,train,8,19,-5.559151258722134,0,160,1,-0.041,0.182,0.906,-1.3275679,-0.8363565,1.097316,2.7499285,0.0881572,5.9683614,0.0,0.0,0.0,0.6308988332748413,0.6308988332748413,link6
1764108231.138335,d4pg_train,FAR,train,9,0,-6.113502917515042,0,161,1,-0.003,0.032,1.013,-0.43750906,-0.3502943,0.60964864,1.6385802,0.22585034,2.456505,0.0,0.0,0.0,0.5037663578987122,0.5037663578987122,link6
1764108232.5354948,d4pg_train,FAR,train,9,1,-6.180879615855406,0,162,1,-0.283,0.112,0.984,-0.39436308,-0.5716748,0.3894866,1.775101,-0.052793812,5.261386,0.0,0.0,0.0,0.8609687089920044,0.8609687089920044,link6
1764108233.9491138,d4pg_train,FAR,train,9,2,-6.106770002085669,0,163,1,-0.353,0.237,0.919,-0.6562271,-0.77038634,0.48777527,2.054032,-0.11941818,6.283183,0.0,0.0,0.0,0.5075860619544983,0.5075860619544983,link6
1764108235.3396087,d4pg_train,FAR,train,9,3,-5.468711635837401,0,164,1,0.027,-0.043,0.902,-1.011082,-0.5775093,1.2144455,3.1245692,0.13301468,4.380243,0.0,0.0,0.0,0.46429938077926636,0.46429938077926636,link6
1764108236.722657,d4pg_train,FAR,train,9,4,-5.580980894546635,0,165,1,-0.037,0.1,0.921,-1.2133529,-0.74218243,1.0764341,2.793052,0.04676781,5.382685,0.0,0.0,0.0,0.5622852444648743,0.5622852444648743,link6
1764108238.1092985,d4pg_train,FAR,train,9,5,-5.671866554293288,0,166,1,-0.039,0.227,0.911,-1.3952072,-0.8496022,1.0102615,2.6799386,0.018392349,6.005565,0.0,0.0,0.0,0.49945348501205444,0.49945348501205444,link6
1764108239.5091033,d4pg_train,FAR,train,9,6,-4.908564174838386,0,167,1,-0.001,-0.065,0.81,-1.5497184,-0.7434266,1.5045881,2.5207267,-0.036479466,5.89747,0.0,0.0,0.0,0.50225830078125,0.50225830078125,link6
1764108240.896404,d4pg_train,FAR,train,9,7,-4.946199487966149,0,168,1,-0.002,-0.067,0.816,-1.560862,-0.71165377,1.4646045,2.846753,-0.06570687,5.5029325,0.0,0.0,0.0,0.49994319677352905,0.49994319677352905,link6
1764108242.2873073,d4pg_train,FAR,train,9,8,-5.129317115592906,0,169,1,0.008,-0.11,0.844,-1.4949367,-0.6046576,1.3624208,3.020294,-0.058011483,5.3240886,0.0,0.0,0.0,0.5414259433746338,0.5414259433746338,link6
1764108243.6714928,d4pg_train,FAR,train,9,9,-5.739717294563314,0,170,1,-0.126,0.188,0.928,-0.99442947,-0.7940048,0.9237557,1.8870498,-0.036532205,5.1961074,0.0,0.0,0.0,0.6373974084854126,0.6373974084854126,link6
1764108245.1239722,d4pg_train,FAR,train,9,10,-5.385103587590111,0,171,1,-0.05,0.16,0.876,-1.2907335,-0.89878714,1.222427,2.5181148,-0.0279761,5.698532,0.0,0.0,0.0,0.49986302852630615,0.49986302852630615,link6
1764108246.5222676,d4pg_train,FAR,train,9,11,-5.378846133099453,0,172,1,0.008,0.077,0.887,-1.5707982,-0.7860304,1.2452818,2.2171006,0.08312352,5.3145237,0.0,0.0,0.0,0.49167314171791077,0.49167314171791077,link6
1764108247.9050806,d4pg_train,FAR,train,9,12,-5.5123193937062895,0,173,1,0.002,0.161,0.899,-1.5709211,-0.83082545,1.1306295,2.3918352,0.023150591,6.0897636,0.0,0.0,0.0,0.5036277174949646,0.5036277174949646,link6
1764108249.2947369,d4pg_train,FAR,train,9,13,-5.355017287478377,0,174,1,0.005,0.146,0.874,-1.5710799,-0.8858891,1.2597699,2.397912,0.058964588,5.9104443,0.0,0.0,0.0,0.4872552156448364,0.4872552156448364,link6
1764108250.7047677,d4pg_train,FAR,train,9,14,-5.014015040262904,0,175,1,0.001,-0.009,0.83,-1.5708044,-0.7848445,1.5142688,3.135112,0.28009605,6.1391144,0.0,0.0,0.0,0.49991416931152344,0.49991416931152344,link6
1764108252.0859692,d4pg_train,FAR,train,9,15,-5.0214667754062186,0,176,1,0.0,0.022,0.831,-1.570991,-0.8371572,1.4810085,3.1469097,0.12737311,5.092804,0.0,0.0,0.0,0.499910831451416,0.499910831451416,link6
1764108253.5185611,d4pg_train,FAR,train,9,16,-5.067971495923286,0,177,1,0.002,0.062,0.836,-1.565653,-0.8809744,1.4426132,2.9673803,0.088563636,4.2697406,0.0,0.0,0.0,0.48748332262039185,0.48748332262039185,link6
1764108254.9663193,d4pg_train,FAR,train,9,17,-5.1165573408189555,0,178,1,0.0,0.015,0.847,-1.5487758,-0.7952729,1.4031347,3.0207279,0.028846415,5.981585,0.0,0.0,0.0,0.4997902512550354,0.4997902512550354,link6
1764108256.3517804,d4pg_train,FAR,train,9,18,-5.10596641003843,0,179,1,-0.017,0.056,0.844,-1.2362401,-0.8533106,1.4109987,3.1016755,0.077067725,6.195972,0.0,0.0,0.0,0.5122455358505249,0.5122455358505249,link6
1764108257.7397978,d4pg_train,FAR,train,9,19,-5.1566752123528445,0,180,1,-0.034,0.048,0.851,-0.9574472,-0.8514219,1.41008,3.1472359,0.1276333,6.2832003,0.0,0.0,0.0,0.48667341470718384,0.48667341470718384,link6
1764108261.4083154,d4pg_train,FAR,train,10,0,-6.598934705831976,0,181,1,0.142,0.026,1.035,0.23634188,0.007745349,0.29869798,1.1928877,-0.06450395,1.7336711,0.0,0.0,0.0,0.2721683084964752,0.2721683084964752,link6
1764108262.7987041,d4pg_train,FAR,train,10,1,-6.129063716767164,0,182,1,0.19,0.047,1.001,0.28902632,-0.07547423,0.5300545,1.7908424,-0.08963673,3.4774184,0.0,0.0,0.0,0.628412663936615,0.628412663936615,link6
1764108264.2063665,d4pg_train,FAR,train,10,2,-5.093663055539887,0,183,1,0.002,0.014,0.842,-0.052499916,-0.7792155,1.4539163,2.520238,0.19260573,6.283184,0.0,0.0,0.0,0.48048287630081177,0.48048287630081177,link6
1764108265.5949929,d4pg_train,FAR,train,10,3,-4.951302351233977,0,184,1,0.018,-0.001,0.813,-0.40644738,-0.80417776,1.5467871,2.8902051,0.16139396,5.8299127,0.0,0.0,0.0,0.42390942573547363,0.42390942573547363,link6
1764108267.017249,d4pg_train,FAR,train,10,4,-4.8742634631166535,0,185,1,0.054,-0.055,0.803,-0.81770366,-0.73785585,1.5579782,3.1195478,0.10845109,5.490764,0.0,0.0,0.0,0.49873435497283936,0.49873435497283936,link6
1764108268.3984082,d4pg_train,FAR,train,10,5,-5.390885875850287,0,186,1,-0.001,0.043,0.892,-1.5063646,-0.7204502,1.2448348,3.0757859,0.17220446,6.283193,0.0,0.0,0.0,0.503081202507019,0.503081202507019,link6
1764108269.7905686,d4pg_train,FAR,train,10,6,-5.31957939884876,0,187,1,0.001,0.037,0.88,-1.5198647,-0.75228983,1.3149594,2.9799917,0.15615204,6.2831993,0.0,0.0,0.0,0.4964390993118286,0.4964390993118286,link6
1764108271.1777883,d4pg_train,FAR,train,10,7,-4.9918619546955325,0,188,1,0.004,-0.015,0.826,-1.3310088,-0.78641015,1.5141301,3.139156,0.2157821,6.283188,0.0,0.0,0.0,0.49622243642807007,0.49622243642807007,link6
1764108272.5598526,d4pg_train,FAR,train,10,8,-5.343370099003972,0,189,1,-0.077,0.089,0.881,-0.689632,-0.832243,1.2420799,2.3062682,0.17226636,6.283196,0.0,0.0,0.0,0.6173819303512573,0.6173819303512573,link6
1764108273.9873874,d4pg_train,FAR,train,10,9,-5.394107912294358,0,190,1,-0.131,0.119,0.875,-0.7098186,-0.9074015,1.2448882,2.2611022,0.100229636,5.877791,0.0,0.0,0.0,0.4885026216506958,0.4885026216506958,link6
1764108275.3806343,d4pg_train,FAR,train,10,10,-5.365356239181602,0,191,1,-0.001,0.08,0.885,-1.5593736,-0.7932365,1.2420062,3.1310022,0.011533909,4.941605,0.0,0.0,0.0,0.49996334314346313,0.49996334314346313,link6
1764108276.7692676,d4pg_train,FAR,train,10,11,-5.363520137964988,0,192,1,0.002,0.133,0.878,-1.5619867,-0.85572094,1.2463771,2.7229905,0.057429377,5.802633,0.0,0.0,0.0,0.4950236976146698,0.4950236976146698,link6
1764108278.1727607,d4pg_train,FAR,train,10,12,-5.395861469402977,0,193,1,0.002,0.169,0.878,-1.5597875,-0.89635223,1.2184908,2.5047853,0.056503315,6.2831926,0.0,0.0,0.0,0.50784832239151,0.50784832239151,link6
1764108279.569432,d4pg_train,FAR,train,10,13,-5.021791723971317,0,194,1,0.005,0.002,0.831,-1.535523,-0.8051787,1.4818783,2.8538163,0.13309413,6.283183,0.0,0.0,0.0,0.49424058198928833,0.49424058198928833,link6
1764108280.9607863,d4pg_train,FAR,train,10,14,-4.896532553817887,0,195,1,0.01,-0.096,0.804,-1.5521731,-0.69514096,1.5495354,2.7014065,0.155262,5.8518157,0.0,0.0,0.0,0.4882355332374573,0.4882355332374573,link6
1764108282.351068,d4pg_train,FAR,train,10,15,-4.911224060785058,0,196,1,0.009,-0.204,0.787,-1.5710715,-0.51915085,1.5164859,2.6091657,0.14324856,5.4593062,0.0,0.0,0.0,0.5024750232696533,0.5024750232696533,link6
1764108283.7405248,d4pg_train,FAR,train,10,16,-5.23326809173905,0,197,1,0.009,-0.047,0.864,-1.3847278,-0.66424114,1.3126801,3.1417098,-0.07110705,5.862141,0.0,0.0,0.0,0.479577898979187,0.479577898979187,link6
1764108285.1235597,d4pg_train,FAR,train,10,17,-5.007833813819,0,198,1,0.006,-0.054,0.827,-1.4561913,-0.73181134,1.456893,2.895497,-0.016174039,6.072552,0.0,0.0,0.0,0.49579453468322754,0.49579453468322754,link6
1764108286.5243843,d4pg_train,FAR,train,10,18,-4.901753133158848,0,199,1,0.005,-0.025,0.81,-1.5710595,-0.818154,1.532345,2.5724297,0.07053674,6.233614,0.0,0.0,0.0,0.48447906970977783,0.48447906970977783,link6
1764108287.907192,d4pg_train,FAR,train,10,19,-5.406899528632719,0,200,1,0.003,0.116,0.888,-1.5709026,-0.81416124,1.2325946,2.9963927,0.12406753,5.7838554,0.0,0.0,0.0,0.5002601146697998,0.5002601146697998,link6
1764108291.585254,d4pg_train,FAR,train,11,0,-7.049749858887692,0,201,1,0.055,0.002,1.051,0.025389466,-0.023550272,0.18067603,0.42809328,0.035490982,0.57018656,0.0,0.0,0.0,0.19171734154224396,0.19171734154224396,link6
1764108292.9790974,d4pg_train,FAR,train,11,1,-6.126066559690259,0,202,1,0.016,0.015,1.017,0.42994666,-0.30449635,0.5576333,1.2775692,0.052738495,2.7342257,0.0,0.0,0.0,0.5397128462791443,0.5397128462791443,link6
1764108294.3729038,d4pg_train,FAR,train,11,2,-5.752549851725391,0,203,1,-0.051,0.031,0.951,-0.4391982,-0.6096815,0.9802288,1.7913722,0.06606045,2.80923,0.0,0.0,0.0,0.4952622056007385,0.4952622056007385,link6
1764108295.7553327,d4pg_train,FAR,train,11,3,-5.055836310348275,0,204,1,-0.002,0.038,0.835,-1.2792333,-0.8477724,1.4493203,2.2678237,0.09800056,3.291278,0.0,0.0,0.0,0.48125237226486206,0.48125237226486206,link6
1764108297.1402862,d4pg_train,FAR,train,11,4,-5.257495797733226,0,205,1,0.004,-0.243,0.836,-1.570874,-0.3601331,1.3063636,2.8935554,0.12327165,6.1418395,0.0,0.0,0.0,0.49955952167510986,0.49955952167510986,link6
1764108298.5352054,d4pg_train,FAR,train,11,5,-5.125195246258167,0,206,1,0.024,-0.182,0.828,-1.427236,-0.5113645,1.3998687,3.137793,0.06852579,5.25947,0.0,0.0,0.0,0.49182796478271484,0.49182796478271484,link6
1764108299.9361916,d4pg_train,FAR,train,11,6,-5.4255687550392615,0,207,1,-0.061,0.075,0.896,-0.8856076,-0.786008,1.2007982,3.1251822,0.04099145,6.283142,0.0,0.0,0.0,0.5606643557548523,0.5606643557548523,link6
1764108301.336499,d4pg_train,FAR,train,11,7,-5.055743559343862,0,208,1,0.001,-0.002,0.837,-1.4051675,-0.7806427,1.4491744,3.138621,0.033544004,5.5577683,0.0,0.0,0.0,0.4998934864997864,0.4998934864997864,link6
1764108302.7418225,d4pg_train,FAR,train,11,8,-4.9642703807742246,0,209,1,0.002,-0.015,0.823,-1.4131995,-0.7993344,1.4764379,3.1088445,0.030171936,5.555153,0.0,0.0,0.0,0.5281039476394653,0.5281039476394653,link6
1764108304.1374013,d4pg_train,FAR,train,11,9,-5.2705875408630805,0,210,1,-0.032,0.052,0.872,-0.7206011,-0.79084826,1.2990047,1.7349997,0.14272651,5.799113,0.0,0.0,0.0,0.5267689824104309,0.5267689824104309,link6
1764108305.5279074,d4pg_train,FAR,train,11,10,-5.459201256835051,0,211,1,-0.12,0.12,0.892,-0.7642342,-0.85817784,1.1578345,2.6356845,0.04972952,6.1105614,0.0,0.0,0.0,0.610116720199585,0.610116720199585,link6
1764108306.9269917,d4pg_train,FAR,train,11,11,-5.509394509854954,0,212,1,-0.116,0.138,0.892,-0.8956639,-0.8641315,1.1744682,3.141553,0.06055952,5.6096225,0.0,0.0,0.0,0.46216344833374023,0.46216344833374023,link6
1764108308.331908,d4pg_train,FAR,train,11,12,-5.231556709619197,0,213,1,0.046,-0.128,0.852,-1.2221708,-0.5308052,1.3961823,3.1435828,0.32082188,6.056909,0.0,0.0,0.0,0.4513034224510193,0.4513034224510193,link6
1764108309.7145512,d4pg_train,FAR,train,11,13,-5.026404728118686,0,214,1,0.027,-0.118,0.823,-1.3938465,-0.61678123,1.4900237,2.9672916,0.21334878,6.1175847,0.0,0.0,0.0,0.49539506435394287,0.49539506435394287,link6
1764108311.1278908,d4pg_train,FAR,train,11,14,-4.867940754164328,0,215,1,0.005,-0.094,0.799,-1.5528569,-0.7108266,1.5563635,2.814815,0.09100102,5.9817467,0.0,0.0,0.0,0.4808877110481262,0.4808877110481262,link6
1764108312.5167408,d4pg_train,FAR,train,11,15,-5.326742095725836,0,216,1,-0.009,0.071,0.88,-1.3937895,-0.79415244,1.2821288,2.8981586,0.138036,4.9262986,0.0,0.0,0.0,0.5139281153678894,0.5139281153678894,link6
1764108313.9186058,d4pg_train,FAR,train,11,16,-5.2671118427041765,0,217,1,-0.046,0.115,0.861,-1.1005703,-0.89385897,1.3312625,2.465128,0.1404855,5.19385,0.0,0.0,0.0,0.46473973989486694,0.46473973989486694,link6
1764108315.301204,d4pg_train,FAR,train,11,17,-5.0244784725117855,0,218,1,0.023,-0.008,0.83,-1.5592673,-0.78843915,1.4760298,2.1294622,0.21704368,5.0423074,0.0,0.0,0.0,0.4771565794944763,0.4771565794944763,link6
1764108316.7774725,d4pg_train,FAR,train,11,18,-4.88845376215369,0,219,1,0.001,-0.013,0.809,-1.5005273,-0.82051903,1.5215362,2.5021625,-0.014754539,5.5006266,0.0,0.0,0.0,0.4996040463447571,0.4996040463447571,link6
1764108318.1843157,d4pg_train,FAR,train,11,19,-4.819878029239548,0,220,1,0.003,-0.037,0.793,-1.4048927,-0.8191122,1.5546217,2.7462337,-0.07324618,5.798387,0.0,0.0,0.0,0.4479987621307373,0.4479987621307373,link6
1764108321.8453395,d4pg_train,FAR,train,12,0,-6.265049195776831,0,221,1,0.098,0.042,1.018,0.4609941,-0.17609783,0.5662773,0.87658983,-0.034180798,2.336313,0.0,0.0,0.0,0.3699822425842285,0.3699822425842285,link6
1764108323.2306955,d4pg_train,FAR,train,12,1,-5.8305921191790855,0,222,1,0.153,0.086,0.924,0.50891083,-0.34135765,1.0385262,1.3796531,-0.07195509,3.625937,0.0,0.0,0.0,0.3283616304397583,0.3283616304397583,link6
1764108324.6259522,d4pg_train,FAR,train,12,2,-4.906774111411382,0,223,1,0.005,-0.072,0.809,-1.4622297,-0.73294646,1.5191143,0.6968961,-0.051235702,5.095558,0.0,0.0,0.0,0.5005768537521362,0.5005768537521362,link6
1764108326.0152364,d4pg_train,FAR,train,12,3,-4.891012599563137,0,224,1,0.029,-0.053,0.796,-0.82731104,-0.77439564,1.5463684,1.8334157,-0.11941503,4.887358,0.0,0.0,0.0,0.3899343013763428,0.3899343013763428,link6
1764108327.4047139,d4pg_train,FAR,train,12,4,-4.728391317590193,0,225,1,0.071,-0.043,0.778,-0.4807571,-0.76291066,1.5601306,2.8195071,-0.17324227,4.6937165,0.0,0.0,0.0,0.4993826150894165,0.4993826150894165,link6
1764108328.7992473,d4pg_train,FAR,train,12,5,-5.101742873856905,0,226,1,-0.007,0.014,0.845,-1.0885217,-0.7988364,1.3803474,3.1367245,-0.07012701,5.4856677,0.0,0.0,0.0,0.5087307095527649,0.5087307095527649,link6
1764108330.415128,d4pg_train,FAR,train,12,6,-5.618849220617447,0,227,1,-0.117,0.194,0.908,-1.0531551,-0.8530083,0.9992902,2.65935,-0.09138816,4.7753963,0.0,0.0,0.0,0.7173472046852112,0.7173472046852112,link6
1764108331.8069308,d4pg_train,FAR,train,12,7,-4.940583662631946,0,228,1,0.005,-0.023,0.816,-0.86536634,-0.79944634,1.4693172,2.5248883,-0.157513,2.8346403,0.0,0.0,0.0,0.4766576290130615,0.4766576290130615,link6
1764108333.191824,d4pg_train,FAR,train,12,8,-5.027459478268915,0,229,1,-0.036,0.018,0.833,-0.5955778,-0.85289025,1.4226296,1.9691025,-0.049271278,1.9796836,0.0,0.0,0.0,0.5354737639427185,0.5354737639427185,link6
1764108334.57633,d4pg_train,FAR,train,12,9,-5.23890816365685,0,230,1,-0.1,0.041,0.863,-0.3556626,-0.8757848,1.3080978,1.5880684,0.02528992,1.6763921,0.0,0.0,0.0,0.549871563911438,0.549871563911438,link6
1764108336.00055,d4pg_train,FAR,train,12,10,-5.377224794828432,0,231,1,-0.076,0.013,0.89,-0.5007898,-0.76809317,1.2188427,1.4942026,-0.21011394,2.8793426,0.0,0.0,0.0,0.567095160484314,0.567095160484314,link6
1764108337.3923333,d4pg_train,FAR,train,12,11,-5.159986681326682,0,232,1,-0.072,0.039,0.85,-0.7814113,-0.8651589,1.3751229,1.5004886,-0.17383432,2.8638165,0.0,0.0,0.0,0.49232667684555054,0.49232667684555054,link6
1764108338.7809908,d4pg_train,FAR,train,12,12,-4.875786136461917,0,233,1,-0.01,-0.009,0.808,-1.0680894,-0.8478937,1.5232372,1.5641348,-0.11165418,2.7876441,0.0,0.0,0.0,0.5217137336730957,0.5217137336730957,link6
1764108340.1703105,d4pg_train,FAR,train,12,13,-5.333776865363123,0,234,1,-0.044,0.054,0.883,-1.0824889,-0.7801995,1.198908,2.616626,-0.21250227,3.051044,0.0,0.0,0.0,0.5556170344352722,0.5556170344352722,link6
1764108341.5576243,d4pg_train,FAR,train,12,14,-5.42118356764155,0,235,1,-0.069,0.158,0.88,-1.1956375,-0.8930575,1.1889789,2.1603982,-0.04384145,2.069122,0.0,0.0,0.0,0.4808448851108551,0.4808448851108551,link6
1764108342.9461157,d4pg_train,FAR,train,12,15,-5.387497742531023,0,236,1,-0.066,0.053,0.891,-0.62509596,-0.78423446,1.1994001,0.46602628,0.06591473,1.1753964,0.0,0.0,0.0,0.5659152269363403,0.5659152269363403,link6
1764108344.330473,d4pg_train,FAR,train,12,16,-5.403138268937731,0,237,1,-0.018,0.021,0.891,-0.25016683,-0.7018432,1.2282516,1.5457463,0.12937483,1.9679438,0.0,0.0,0.0,0.4517834782600403,0.4517834782600403,link6
1764108345.719154,d4pg_train,FAR,train,12,17,-5.513266039114671,0,238,1,0.062,-0.003,0.878,-0.14818554,-0.6184536,1.2732021,1.5285895,0.045822717,1.7691357,0.0,0.0,0.0,0.3069950342178345,0.3069950342178345,link6
1764108347.1040444,d4pg_train,FAR,train,12,18,-5.257005064734576,0,239,1,0.253,-0.046,0.763,-0.18405226,-0.4362532,1.5130361,-0.253973,-0.033142023,-0.9671147,0.0,0.0,0.0,0.24627475440502167,0.24627475440502167,link6
1764108348.491336,d4pg_train,FAR,train,12,19,-5.802605835500407,0,240,1,0.26,0.045,0.869,0.15159452,-0.2671984,1.1187094,1.108042,0.059424173,1.2473738,0.0,0.0,0.0,0.26491907238960266,0.26491907238960266,link6
1764108352.3040216,d4pg_train,FAR,train,13,0,-5.751030020027352,0,241,1,0.162,0.042,0.915,0.40376592,-0.362289,1.0445623,1.6842237,-0.20570335,-2.8641565,0.0,0.0,0.0,0.33816540241241455,0.33816540241241455,link6
1764108353.6946795,d4pg_train,FAR,train,13,1,-5.961664895488549,0,242,1,0.048,0.035,0.986,0.8554562,-0.35299847,0.7342436,2.515801,-0.1829128,-0.9918753,0.0,0.0,0.0,0.4963638186454773,0.4963638186454773,link6
1764108355.0766594,d4pg_train,FAR,train,13,2,-6.074331552772559,0,243,1,-0.02,-0.044,1.008,0.97455925,-0.40793633,0.61202586,2.6483405,-0.13241541,0.48132324,0.0,0.0,0.0,0.5552788376808167,0.5552788376808167,link6
1764108356.4658213,d4pg_train,FAR,train,13,3,-5.569502309702279,0,244,1,-0.046,-0.009,0.923,0.22573817,-0.66614753,1.1120216,1.8498676,0.016949708,-0.63784367,0.0,0.0,0.0,0.5324001908302307,0.5324001908302307,link6
1764108357.8612938,d4pg_train,FAR,train,13,4,-5.722197720629708,0,245,1,-0.124,-0.038,0.943,0.21139127,-0.68035626,0.94524884,1.5093076,-0.099736474,-0.5854379,0.0,0.0,0.0,0.6124921441078186,0.6124921441078186,link6
1764108359.2575037,d4pg_train,FAR,train,13,5,-5.925848460224175,0,246,1,-0.172,-0.058,0.967,0.21528608,-0.64530194,0.7924729,1.2523631,-0.17313242,-0.3665951,0.0,0.0,0.0,0.5402958989143372,0.5402958989143372,link6
1764108360.6584842,d4pg_train,FAR,train,13,6,-5.90389329574105,0,247,1,0.011,-0.151,0.964,1.6164538,-0.6418403,0.8333841,1.6597073,-0.09309399,1.1319424,0.0,0.0,0.0,0.46254992485046387,0.46254992485046387,link6
1764108362.0561907,d4pg_train,FAR,train,13,7,-5.703913386458638,0,248,1,-0.128,-0.088,0.933,0.6004806,-0.7405078,0.9872186,2.1459222,-0.003691206,0.8785575,0.0,0.0,0.0,0.5154678821563721,0.5154678821563721,link6
1764108363.440997,d4pg_train,FAR,train,13,8,-5.477585373172123,0,249,1,-0.047,0.042,0.905,-0.61383355,-0.72946167,1.1860656,2.4562936,0.08820241,0.34454024,0.0,0.0,0.0,0.49782317876815796,0.49782317876815796,link6
1764108364.830798,d4pg_train,FAR,train,13,9,-4.901620338311664,0,250,1,0.167,0.217,0.759,0.90269643,-0.4051374,1.4846687,0.5705137,0.04070477,-0.64723146,0.0,0.0,0.0,0.44174182415008545,0.44174182415008545,link6
1764108366.2208831,d4pg_train,FAR,train,13,10,-5.294739845080491,0,251,1,0.101,0.302,0.815,1.248896,-0.23409365,1.2180923,0.3683752,0.017641306,-0.22856356,0.0,0.0,0.0,0.4716711938381195,0.4716711938381195,link6
1764108367.6059523,d4pg_train,FAR,train,13,11,-6.042351711138169,0,252,1,0.054,0.192,0.975,1.2965392,-0.15311018,0.7248795,0.117581464,-0.037781075,0.112161,0.0,0.0,0.0,0.4251614809036255,0.4251614809036255,link6
1764108369.002672,d4pg_train,FAR,train,13,12,-6.087769927731346,0,253,1,0.124,0.144,0.979,0.90004206,-0.15321359,0.70355237,1.1564943,-0.054528743,1.2519193,0.0,0.0,0.0,0.38715219497680664,0.38715219497680664,link6
1764108370.3999739,d4pg_train,FAR,train,13,13,-6.003250995826748,0,254,1,0.133,0.057,0.987,0.37181494,-0.23140435,0.71813935,1.4472102,-0.010950542,1.1684358,0.0,0.0,0.0,0.5629714727401733,0.5629714727401733,link6
1764108371.7864368,d4pg_train,FAR,train,13,14,-5.194976165467765,0,255,1,0.228,-0.01,0.777,-0.11870339,-0.4792628,1.509752,1.9543196,0.15233782,-2.2608705,0.0,0.0,0.0,0.2699965238571167,0.2699965238571167,link6
1764108373.1685522,d4pg_train,FAR,train,13,15,-5.7350506148229945,0,256,1,0.055,0.039,0.949,0.5499072,-0.4488922,0.9550185,1.9741827,0.04902237,-0.6026078,0.0,0.0,0.0,0.5232612490653992,0.5232612490653992,link6
1764108374.559172,d4pg_train,FAR,train,13,16,-5.982733533924305,0,257,1,-0.087,-0.117,0.984,0.93191594,-0.5743608,0.73030543,1.5863127,-0.001047248,-0.028697522,0.0,0.0,0.0,0.5858722925186157,0.5858722925186157,link6
1764108375.942535,d4pg_train,FAR,train,13,17,-5.847222597884767,0,258,1,-0.151,-0.052,0.96,0.3133693,-0.65852726,0.8487286,2.1630604,-0.01673584,-0.30430883,0.0,0.0,0.0,0.6429856419563293,0.6429856419563293,link6
1764108377.330877,d4pg_train,FAR,train,13,18,-5.74502156620264,0,259,1,-0.06,-0.024,0.946,0.2853115,-0.62584335,0.99280113,1.3447279,-0.049356624,0.37846604,0.0,0.0,0.0,0.4495529532432556,0.4495529532432556,link6
1764108378.713897,d4pg_train,FAR,train,13,19,-5.665779083840838,0,260,1,0.019,-0.001,0.932,0.2916507,-0.5590292,1.0684739,0.9711855,-0.06204516,0.5161157,0.0,0.0,0.0,0.42320358753204346,0.42320358753204346,link6
1764108382.3733175,d4pg_train,FAR,train,14,0,-6.250708060304918,0,261,1,-0.15,-0.014,1.03,0.074120745,-0.35225442,0.36192557,0.20209493,-0.14311455,0.5018032,0.0,0.0,0.0,0.6917195320129395,0.6917195320129395,link6
1764108383.768672,d4pg_train,FAR,train,14,1,-6.13878507087848,0,262,1,-0.146,-0.052,0.997,0.33178344,-0.52207613,0.69751614,0.41780117,-0.14677243,-0.38368317,0.0,0.0,0.0,0.4075251817703247,0.4075251817703247,link6
1764108385.184825,d4pg_train,FAR,train,14,2,-6.0974290376172995,0,263,1,0.004,-0.103,1.005,1.7171386,-0.46221042,0.6108224,1.0666823,0.08929533,-1.283975,0.0,0.0,0.0,0.49393683671951294,0.49393683671951294,link6
1764108386.5743268,d4pg_train,FAR,train,14,3,-6.104554968542014,0,264,1,-0.007,0.005,1.013,1.7278045,-0.31877974,0.618096,1.6336478,0.0500113,-1.3507321,0.0,0.0,0.0,0.5246263146400452,0.5246263146400452,link6
1764108387.9694626,d4pg_train,FAR,train,14,4,-6.048978606023215,0,265,1,0.005,0.041,1.005,1.5181303,-0.31694108,0.6656178,1.7316059,-0.024392629,-1.2433329,0.0,0.0,0.0,0.5886152386665344,0.5886152386665344,link6
1764108389.3627822,d4pg_train,FAR,train,14,5,-6.074315464485091,0,266,1,-0.017,-0.05,1.006,1.170609,-0.41762263,0.64408845,2.477415,-0.049827676,-1.4499226,0.0,0.0,0.0,0.5115859508514404,0.5115859508514404,link6
1764108390.7425873,d4pg_train,FAR,train,14,6,-5.992506810074762,0,267,1,-0.073,-0.119,0.987,0.9005715,-0.5619578,0.7141681,1.7221472,-0.12102388,-0.43677032,0.0,0.0,0.0,0.6069636940956116,0.6069636940956116,link6
1764108392.138902,d4pg_train,FAR,train,14,7,-5.935142183227673,0,268,1,-0.16,-0.184,0.956,0.79098475,-0.7064418,0.76337737,1.2054203,-0.13419192,0.026129236,0.0,0.0,0.0,0.5776072144508362,0.5776072144508362,link6
1764108393.5257497,d4pg_train,FAR,train,14,8,-6.1102486563607865,0,269,1,-0.115,-0.087,1.006,0.64451444,-0.48455647,0.58401674,0.098566264,-0.009083399,-1.5772922,0.0,0.0,0.0,0.5987153053283691,0.5987153053283691,link6
1764108394.92672,d4pg_train,FAR,train,14,9,-6.1769734954606506,0,270,1,-0.074,-0.087,1.015,0.78223807,-0.42023876,0.55866104,0.93271434,-0.12461702,-0.037244733,0.0,0.0,0.0,0.46348434686660767,0.46348434686660767,link6
1764108396.3096898,d4pg_train,FAR,train,14,10,-6.275258903136127,0,271,1,0.029,-0.006,1.012,0.8637569,-0.31595385,0.59620875,1.8338958,-0.22076295,1.3291776,0.0,0.0,0.0,0.32155829668045044,0.32155829668045044,link6
1764108397.7007983,d4pg_train,FAR,train,14,11,-5.515283172203651,0,272,1,0.163,-0.003,0.876,-0.023704937,-0.4580339,1.2311713,1.0677959,0.0068878876,-0.33085892,0.0,0.0,0.0,0.3387073278427124,0.3387073278427124,link6
1764108399.101771,d4pg_train,FAR,train,14,12,-6.2039850093844375,0,273,1,0.202,-0.024,0.9,-0.10590022,-0.3152642,1.076699,0.73114866,-0.04823385,-1.5462127,0.0,0.0,0.0,0.20132498443126678,0.20132498443126678,link6
1764108400.5078516,d4pg_train,FAR,train,14,13,-5.943680057725621,0,274,1,0.32,-0.037,0.928,-0.09144089,-0.01798056,0.7849399,0.4541675,-0.13540056,-2.7285907,0.0,0.0,0.0,0.46100062131881714,0.46100062131881714,link6
1764108401.9142833,d4pg_train,FAR,train,14,14,-5.878754710984968,0,275,1,0.044,0.043,0.97,0.9536598,-0.40491533,0.84129864,2.3069737,-0.1335486,1.9061719,0.0,0.0,0.0,0.46657639741897583,0.46657639741897583,link6
1764108403.303632,d4pg_train,FAR,train,14,15,-5.6399319999509165,0,276,1,-0.02,-0.026,0.936,0.39852384,-0.6087366,1.0238794,2.0316005,-0.14893435,0.18070711,0.0,0.0,0.0,0.5497532486915588,0.5497532486915588,link6
1764108404.7094746,d4pg_train,FAR,train,14,16,-6.030135324439732,0,277,1,-0.323,0.239,0.921,-0.6674239,-0.7865961,0.53514975,2.243669,-0.13074444,-3.6215105,0.0,0.0,0.0,0.8392834663391113,0.8392834663391113,link6
1764108406.124968,d4pg_train,FAR,train,14,17,-5.9076101426910315,0,278,1,0.019,-0.099,0.976,1.6309962,-0.56652224,0.80038935,1.982871,-0.115884334,-2.2570527,0.0,0.0,0.0,0.549885094165802,0.549885094165802,link6
1764108407.51661,d4pg_train,FAR,train,14,18,-5.843857027965037,0,279,1,0.005,0.011,0.969,2.1149244,-0.47829658,0.88064736,1.6956373,-0.08624611,-1.1289032,0.0,0.0,0.0,0.5136027336120605,0.5136027336120605,link6
1764108408.9046693,d4pg_train,FAR,train,14,19,-5.26847182186097,0,280,1,0.149,0.195,0.819,0.8870979,-0.38371512,1.3356854,1.1979877,0.060672507,-1.1071055,0.0,0.0,0.0,0.3585563898086548,0.3585563898086548,link6
1764108412.5669413,d4pg_train,FAR,train,15,0,-6.316389057657558,0,281,1,-0.017,-0.006,1.048,0.3766845,-0.17374605,0.27494586,0.086580426,0.013236423,-0.6700164,0.0,0.0,0.0,0.5204507112503052,0.5204507112503052,link6
1764108413.9638844,d4pg_train,FAR,train,15,1,-6.136467256240341,0,282,1,0.036,0.186,0.998,1.4154413,-0.08530489,0.59119123,0.50407666,-0.105670445,0.056784034,0.0,0.0,0.0,0.47907689213752747,0.47907689213752747,link6
1764108415.3470604,d4pg_train,FAR,train,15,2,-6.185952247317985,0,283,1,0.045,0.073,1.021,1.1893109,-0.19083598,0.5151248,1.3362862,-0.13396145,-0.3201396,0.0,0.0,0.0,0.4869604706764221,0.4869604706764221,link6
1764108416.7357912,d4pg_train,FAR,train,15,3,-6.144594367008999,0,284,1,-0.01,-0.042,1.018,1.0000398,-0.35954812,0.5672084,1.6998032,-0.120601304,-0.37687418,0.0,0.0,0.0,0.5079866051673889,0.5079866051673889,link6
1764108418.1265626,d4pg_train,FAR,train,15,4,-5.854650525557111,0,285,1,0.085,0.008,0.956,0.2952201,-0.3990468,0.9162887,1.7601528,-0.15069993,-1.0225407,0.0,0.0,0.0,0.3954695463180542,0.3954695463180542,link6
1764108419.5422223,d4pg_train,FAR,train,15,5,-5.831445894589195,0,286,1,-0.059,-0.04,0.968,0.58631104,-0.57879823,0.87032396,2.0402274,-0.013313399,-0.3111654,0.0,0.0,0.0,0.6473342180252075,0.6473342180252075,link6
1764108420.9262118,d4pg_train,FAR,train,15,6,-5.884431590693469,0,287,1,-0.197,-0.197,0.937,0.81675327,-0.782104,0.8127811,2.1654253,0.098713286,0.12880877,0.0,0.0,0.0,0.5563128590583801,0.5563128590583801,link6
1764108422.327092,d4pg_train,FAR,train,15,7,-5.385445743520711,0,288,1,-0.076,-0.005,0.891,-0.023343874,-0.77528507,1.239019,0.619032,-0.08380767,-1.8295491,0.0,0.0,0.0,0.5523998737335205,0.5523998737335205,link6
1764108423.7377434,d4pg_train,FAR,train,15,8,-5.4649825728154955,0,289,1,-0.071,-0.055,0.901,0.6756134,-0.74175525,1.1648748,0.78397626,-0.0960023,-1.537179,0.0,0.0,0.0,0.504547119140625,0.504547119140625,link6
1764108425.1935532,d4pg_train,FAR,train,15,9,-5.4759746032207985,0,290,1,0.098,0.38,0.818,1.3265454,-0.06442169,1.0964818,1.3390183,-0.03702855,-1.1444393,0.0,0.0,0.0,0.5039328336715698,0.5039328336715698,link6
1764108426.5957735,d4pg_train,FAR,train,15,10,-6.085041412697911,0,291,1,0.043,0.153,0.997,1.29736,-0.15970771,0.6112122,0.6383356,-0.0010567865,-1.4701577,0.0,0.0,0.0,0.520241916179657,0.520241916179657,link6
1764108427.985448,d4pg_train,FAR,train,15,11,-6.252760442070249,0,292,1,-0.017,-0.068,1.036,1.3862238,-0.2934026,0.388617,0.5201186,0.05450412,-1.2532834,0.0,0.0,0.0,0.5401464700698853,0.5401464700698853,link6
1764108429.3750446,d4pg_train,FAR,train,15,12,-6.128421693057357,0,293,1,-0.003,-0.079,1.013,1.3702621,-0.4118867,0.5924754,1.2824758,-0.10721261,-0.7094287,0.0,0.0,0.0,0.5053321123123169,0.5053321123123169,link6
1764108430.7628016,d4pg_train,FAR,train,15,13,-6.018962902762399,0,294,1,0.0,0.009,0.978,0.9037144,-0.4423024,0.8622064,0.9493788,0.068494104,-1.0384663,0.0,0.0,0.0,0.35018062591552734,0.35018062591552734,link6
1764108432.1534662,d4pg_train,FAR,train,15,14,-5.468193912038641,0,295,1,0.108,0.096,0.898,0.6114292,-0.44140223,1.1007729,0.67669964,0.21406381,-1.0304251,0.0,0.0,0.0,0.6129836440086365,0.6129836440086365,link6
1764108433.5542326,d4pg_train,FAR,train,15,15,-5.534369831807217,0,296,1,0.002,0.125,0.91,1.5531602,-0.42547217,1.1241963,1.7289972,0.016947677,-0.5733245,0.0,0.0,0.0,0.5377945303916931,0.5377945303916931,link6
1764108434.959327,d4pg_train,FAR,train,15,16,-5.523910046614538,0,297,1,0.09,0.155,0.887,1.1189011,-0.40129802,1.153719,1.7946857,-0.13103539,-0.7359274,0.0,0.0,0.0,0.3970242142677307,0.3970242142677307,link6
1764108436.3523479,d4pg_train,FAR,train,15,17,-5.611945897282944,0,298,1,-0.01,-0.019,0.93,1.0555594,-0.61890584,1.0736947,1.3746884,-0.0064627,-0.096246965,0.0,0.0,0.0,0.5100811719894409,0.5100811719894409,link6
1764108437.7397943,d4pg_train,FAR,train,15,18,-5.616965405608439,0,299,1,-0.003,-0.045,0.929,1.3818073,-0.64300615,1.0736573,1.4765329,-0.049376275,-2.10649,0.0,0.0,0.0,0.4922599196434021,0.4922599196434021,link6
1764108439.1279624,d4pg_train,FAR,train,15,19,-5.75820283887102,0,300,1,0.002,-0.062,0.951,1.4077779,-0.5935845,0.9429324,1.5992436,-0.09235614,-2.4974189,0.0,0.0,0.0,0.48263925313949585,0.48263925313949585,link6
1764108442.7826388,d4pg_train,FAR,train,16,0,-6.1954102663947275,0,301,1,-0.012,-0.041,1.026,1.0822037,-0.32605335,0.51654375,1.1651454,-0.08336838,-0.38316756,0.0,0.0,0.0,0.4988590478897095,0.4988590478897095,link6
1764108444.174329,d4pg_train,FAR,train,16,1,-6.119290836404745,0,302,1,-0.028,-0.129,1.008,1.2561996,-0.46513116,0.56460434,1.4597645,-0.09012891,-0.059439488,0.0,0.0,0.0,0.5539056062698364,0.5539056062698364,link6
1764108445.5721598,d4pg_train,FAR,train,16,2,-5.437930980279653,0,303,1,0.174,0.191,0.84,0.7915791,-0.32705146,1.2623342,1.790161,0.07453052,-0.8473043,0.0,0.0,0.0,0.34118518233299255,0.34118518233299255,link6
1764108446.9697616,d4pg_train,FAR,train,16,3,-5.477480579510297,0,304,1,-0.005,-0.006,0.911,0.7642705,-0.66112256,1.1443895,1.9922656,-0.008991616,-1.573941,0.0,0.0,0.0,0.6094188094139099,0.6094188094139099,link6
1764108448.365994,d4pg_train,FAR,train,16,4,-5.665364129762246,0,305,1,-0.15,-0.151,0.913,0.7413545,-0.8288148,1.0021887,2.0929155,-0.09681272,-2.3332028,0.0,0.0,0.0,0.48163819313049316,0.48163819313049316,link6
1764108449.7563314,d4pg_train,FAR,train,16,5,-5.579518947993362,0,306,1,0.032,0.032,0.921,1.2452096,-0.54900926,1.0813384,2.1672618,-0.18430321,-0.9113292,0.0,0.0,0.0,0.46702003479003906,0.46702003479003906,link6
1764108451.1421921,d4pg_train,FAR,train,16,6,-5.245817280528745,0,307,1,0.043,0.032,0.859,0.9002872,-0.6721725,1.3373283,1.9753798,-0.12542085,-0.6926711,0.0,0.0,0.0,0.41129982471466064,0.41129982471466064,link6
1764108452.5297933,d4pg_train,FAR,train,16,7,-4.962809655039136,0,308,1,0.049,0.033,0.819,0.7325304,-0.73585796,1.4757481,1.8103358,-0.06744901,-0.752277,0.0,0.0,0.0,0.4932498335838318,0.4932498335838318,link6
1764108453.9736857,d4pg_train,FAR,train,16,8,-5.265357505695715,0,309,1,0.033,0.05,0.867,1.2094176,-0.6412241,1.294259,2.1531334,-0.13262425,-3.741585,0.0,0.0,0.0,0.45862776041030884,0.45862776041030884,link6
1764108455.3791664,d4pg_train,FAR,train,16,9,-5.015985455798237,0,310,1,0.02,0.039,0.829,1.3987069,-0.74361503,1.4275681,2.330282,-0.14330533,-2.6495247,0.0,0.0,0.0,0.4960744082927704,0.4960744082927704,link6
1764108456.779113,d4pg_train,FAR,train,16,10,-5.377999991522304,0,311,1,0.06,-0.04,0.883,2.5738838,-0.7862196,1.285023,3.1405325,0.16286124,-2.3766372,0.0,0.0,0.0,0.438423216342926,0.438423216342926,link6
1764108458.1662493,d4pg_train,FAR,train,16,11,-5.267611768049142,0,312,1,-0.006,-0.03,0.872,1.7245061,-0.7562016,1.3172562,2.2201836,0.10755495,-3.4244401,0.0,0.0,0.0,0.5039263963699341,0.5039263963699341,link6
1764108459.5544667,d4pg_train,FAR,train,16,12,-5.304035030526276,0,313,1,-0.012,-0.025,0.878,1.3593254,-0.7439304,1.2743467,1.8534403,0.044100225,-3.3053312,0.0,0.0,0.0,0.5008394122123718,0.5008394122123718,link6
1764108460.9470332,d4pg_train,FAR,train,16,13,-5.108849913506057,0,314,1,-0.107,0.041,0.842,2.8042471,-0.5983587,1.3636822,2.651597,-0.06385553,-0.9455538,0.0,0.0,0.0,0.6186695694923401,0.6186695694923401,link6
1764108462.340553,d4pg_train,FAR,train,16,14,-5.489691187489107,0,315,1,0.042,-0.075,0.905,2.0812497,-0.7550898,1.1497576,2.2693462,0.035220318,-0.20589417,0.0,0.0,0.0,0.49546635150909424,0.49546635150909424,link6
1764108463.7206855,d4pg_train,FAR,train,16,15,-5.628848497104044,0,316,1,-0.002,-0.25,0.897,1.5796751,-0.8949619,1.0652555,2.119045,0.073149204,0.030396834,0.0,0.0,0.0,0.4786348044872284,0.4786348044872284,link6
1764108465.1083744,d4pg_train,FAR,train,16,16,-4.920372111188261,0,317,1,0.023,0.023,0.812,0.62231183,-0.79090375,1.5148338,1.914806,0.039171223,-4.6921897,0.0,0.0,0.0,0.47224950790405273,0.47224950790405273,link6
1764108466.4916427,d4pg_train,FAR,train,16,17,-5.021821392360966,0,318,1,-0.01,-0.019,0.832,1.509261,-0.82459307,1.4427949,2.0310383,0.060194574,-4.252143,0.0,0.0,0.0,0.5179311633110046,0.5179311633110046,link6
1764108467.8767815,d4pg_train,FAR,train,16,18,-5.2364892660851305,0,319,1,0.008,-0.015,0.869,2.4823966,-0.75894946,1.3325334,2.217073,0.071151786,-3.4277775,0.0,0.0,0.0,0.5449528098106384,0.5449528098106384,link6
1764108469.262644,d4pg_train,FAR,train,16,19,-4.914136619851734,0,320,1,-0.118,0.1,0.803,2.4311218,-0.5862979,1.5007347,2.9905663,0.07445911,-3.3351488,0.0,0.0,0.0,0.6492892503738403,0.6492892503738403,link6
1764108472.9163363,d4pg_train,FAR,train,17,0,-6.3526150181229175,0,321,1,0.015,0.003,1.054,0.26319456,-0.060168095,0.15903679,0.21623006,-0.038446143,-0.1480981,0.0,0.0,0.0,0.5186811089515686,0.5186811089515686,link6
1764108474.298776,d4pg_train,FAR,train,17,1,-5.936093229329436,0,322,1,-0.037,-0.062,0.984,0.68337965,-0.50708354,0.77437174,1.3698512,-0.18464634,-0.06254487,0.0,0.0,0.0,0.5730869770050049,0.5730869770050049,link6
1764108475.6901948,d4pg_train,FAR,train,17,2,-5.921814212217936,0,323,1,-0.11,-0.05,0.975,0.25315288,-0.57975316,0.8103093,1.4043977,-0.1530413,-1.1104885,0.0,0.0,0.0,0.5219051241874695,0.5219051241874695,link6
1764108477.0945232,d4pg_train,FAR,train,17,3,-5.827653396910907,0,324,1,-0.059,-0.019,0.962,0.081908464,-0.57830596,0.9158944,1.5319145,-0.12188624,-2.0244823,0.0,0.0,0.0,0.47401994466781616,0.47401994466781616,link6
1764108478.4916656,d4pg_train,FAR,train,17,4,-5.436050748720574,0,325,1,-0.017,-0.074,0.898,1.2159303,-0.75882137,1.1890764,1.7362481,-0.077964954,-0.71773744,0.0,0.0,0.0,0.5155929923057556,0.5155929923057556,link6
1764108479.8889437,d4pg_train,FAR,train,17,5,-5.485098499874396,0,326,1,-0.086,-0.2,0.887,1.0433189,-0.8997472,1.1040081,1.4124626,-0.1711938,-1.5135629,0.0,0.0,0.0,0.6880048513412476,0.6880048513412476,link6
1764108481.2773905,d4pg_train,FAR,train,17,6,-5.736570196862001,0,327,1,-0.099,-0.193,0.929,1.0468225,-0.78860927,0.93207407,1.864496,-0.089765206,-2.1112754,0.0,0.0,0.0,0.5979629755020142,0.5979629755020142,link6
1764108482.6656039,d4pg_train,FAR,train,17,7,-5.758092705077624,0,328,1,-0.016,-0.182,0.936,1.528583,-0.73190963,0.9571447,2.58041,0.055999387,-3.9775898,0.0,0.0,0.0,0.4930744171142578,0.4930744171142578,link6
1764108484.0517561,d4pg_train,FAR,train,17,8,-5.551052613285654,0,329,1,0.007,-0.047,0.922,1.7915378,-0.6682684,1.1171845,2.7111573,0.071510255,-4.5796824,0.0,0.0,0.0,0.6056714653968811,0.6056714653968811,link6
1764108485.433751,d4pg_train,FAR,train,17,9,-5.443074234807362,0,330,1,0.031,-0.079,0.895,1.9327387,-0.7762397,1.154616,3.0914226,-0.13945371,-1.9717124,0.0,0.0,0.0,0.4625628590583801,0.4625628590583801,link6
1764108486.8190086,d4pg_train,FAR,train,17,10,-5.193862901403227,0,331,1,0.002,0.01,0.862,1.7858319,-0.7053294,1.3530467,2.1446445,-0.038341682,-3.9539795,0.0,0.0,0.0,0.5449095368385315,0.5449095368385315,link6
1764108488.2460825,d4pg_train,FAR,train,17,11,-4.795143972402255,0,332,1,-0.027,0.205,0.77,1.7150246,-0.53276587,1.5417649,1.7310737,-0.023189478,-4.8739734,0.0,0.0,0.0,0.6077525019645691,0.6077525019645691,link6
1764108489.6412973,d4pg_train,FAR,train,17,12,-5.3253606791053985,0,333,1,-0.14,0.092,0.87,2.7128305,-0.4501189,1.1943067,2.1364603,-0.22804801,-2.5364711,0.0,0.0,0.0,0.6269166469573975,0.6269166469573975,link6
1764108491.0425565,d4pg_train,FAR,train,17,13,-5.1985038681238835,0,334,1,-0.058,0.043,0.859,2.5125692,-0.6440571,1.3422036,2.2260659,-0.009578264,-2.8710315,0.0,0.0,0.0,0.5246489644050598,0.5246489644050598,link6
1764108492.4333217,d4pg_train,FAR,train,17,14,-4.849362920858219,0,335,1,-0.055,0.121,0.794,2.06673,-0.6455976,1.5135316,2.2032804,-0.093059,-3.8258984,0.0,0.0,0.0,0.5568763613700867,0.5568763613700867,link6
1764108493.82408,d4pg_train,FAR,train,17,15,-4.844443840180056,0,336,1,-0.041,0.026,0.802,2.6480556,-0.784404,1.5338669,2.3161883,-0.02480483,-1.971416,0.0,0.0,0.0,0.5354456305503845,0.5354456305503845,link6
1764108495.2242546,d4pg_train,FAR,train,17,16,-5.082196417606617,0,337,1,0.049,-0.051,0.841,2.3053129,-0.880334,1.3824083,2.3738196,0.043352645,-1.6982949,0.0,0.0,0.0,0.5605668425559998,0.5605668425559998,link6
1764108496.62578,d4pg_train,FAR,train,17,17,-5.6356287297895165,0,338,1,0.045,0.058,0.927,0.84114903,-0.4929016,1.0761964,1.8614447,0.037886392,-2.8189745,0.0,0.0,0.0,0.4487994313240051,0.4487994313240051,link6
1764108498.0139809,d4pg_train,FAR,train,17,18,-5.560785675398901,0,339,1,0.004,-0.069,0.914,1.6902467,-0.7244628,1.127964,2.7280724,-0.01440564,-2.8161678,0.0,0.0,0.0,0.44042134284973145,0.44042134284973145,link6
1764108499.3979332,d4pg_train,FAR,train,17,19,-5.434463764397754,0,340,1,0.05,-0.123,0.888,1.9242324,-0.82942015,1.2094574,3.1401463,-0.0012375547,-2.569143,0.0,0.0,0.0,0.4662046730518341,0.4662046730518341,link6
1764108503.0423412,d4pg_train,FAR,train,18,0,-5.460978409826745,0,341,1,0.12,0.286,0.853,1.1471561,-0.1993,1.1126823,1.1109021,0.0681409,-1.095694,0.0,0.0,0.0,0.5798786282539368,0.5798786282539368,link6
1764108504.4354923,d4pg_train,FAR,train,18,1,-4.939191216625475,0,342,1,0.041,0.352,0.728,1.4157543,-0.25522435,1.4474609,1.3675169,0.1026758,-1.1119943,0.0,0.0,0.0,0.41207918524742126,0.41207918524742126,link6
1764108505.8389459,d4pg_train,FAR,train,18,2,-5.028131478089962,0,343,1,0.104,0.233,0.786,1.166194,-0.41432983,1.4387401,1.3899578,-0.028882353,-4.299424,0.0,0.0,0.0,0.4270671010017395,0.4270671010017395,link6
1764108507.2392201,d4pg_train,FAR,train,18,3,-5.000444823929453,0,344,1,0.018,0.104,0.821,1.4585842,-0.6551118,1.440796,2.4463687,-0.06480634,-2.210907,0.0,0.0,0.0,0.4993625283241272,0.4993625283241272,link6
1764108508.6267846,d4pg_train,FAR,train,18,4,-5.0166040081525445,0,345,1,0.008,-0.042,0.83,1.706575,-0.86839944,1.4304512,2.830296,-0.10142659,-1.1921421,0.0,0.0,0.0,0.5115957260131836,0.5115957260131836,link6
1764108510.029103,d4pg_train,FAR,train,18,5,-4.8309016835385625,0,346,1,-0.079,0.17,0.781,2.027059,-0.5504956,1.522192,1.715637,-0.031042892,-2.2966647,0.0,0.0,0.0,0.6048486828804016,0.6048486828804016,link6
1764108511.421984,d4pg_train,FAR,train,18,6,-4.916148477484607,0,347,1,-0.073,0.16,0.797,1.9994254,-0.55818737,1.4718279,1.965029,-0.0033249056,-1.15007,0.0,0.0,0.0,0.5566886067390442,0.5566886067390442,link6
1764108512.8167503,d4pg_train,FAR,train,18,7,-5.240451760081177,0,348,1,-0.035,0.088,0.864,1.928284,-0.5979899,1.3124696,2.1034346,0.012458702,-0.3400825,0.0,0.0,0.0,0.5282350182533264,0.5282350182533264,link6
1764108514.219283,d4pg_train,FAR,train,18,8,-5.539449123386581,0,349,1,0.005,0.0,0.898,0.51571375,-0.65301746,1.2192007,0.78725964,-0.029438093,-2.0021977,0.0,0.0,0.0,0.34974950551986694,0.34974950551986694,link6
1764108515.6006153,d4pg_train,FAR,train,18,9,-5.114097273404353,0,350,1,0.122,0.08,0.834,0.6919493,-0.55194986,1.3960967,0.9911394,-0.10095869,-1.4471763,0.0,0.0,0.0,0.4987514019012451,0.4987514019012451,link6
1764108517.00015,d4pg_train,FAR,train,18,10,-5.933322227736917,0,351,1,0.041,-0.161,0.966,1.7701151,-0.64662087,0.7884177,2.2695386,-0.09426553,-2.2400174,0.0,0.0,0.0,0.4561604857444763,0.4561604857444763,link6
1764108518.381759,d4pg_train,FAR,train,18,11,-5.749626325161786,0,352,1,0.055,-0.217,0.923,1.8043079,-0.80942374,0.95307153,2.6410315,-0.056918126,-0.8810613,0.0,0.0,0.0,0.45840024948120117,0.45840024948120117,link6
1764108519.7666054,d4pg_train,FAR,train,18,12,-5.496701864235157,0,353,1,-0.0,-0.176,0.884,1.5195034,-0.8863314,1.1497006,2.5686812,-0.13164857,-0.33017692,0.0,0.0,0.0,0.40330469608306885,0.40330469608306885,link6
1764108521.1779275,d4pg_train,FAR,train,18,13,-4.950289218054323,0,354,1,0.112,0.138,0.789,0.9161351,-0.5667232,1.5159266,0.947229,-0.04343286,-1.3647935,0.0,0.0,0.0,0.3935610055923462,0.3935610055923462,link6
1764108522.572891,d4pg_train,FAR,train,18,14,-5.392645088182192,0,355,1,0.031,0.029,0.895,0.80057454,-0.61227894,1.2070577,1.2342763,-0.015934018,-0.6273903,0.0,0.0,0.0,0.5707293152809143,0.5707293152809143,link6
1764108524.0206692,d4pg_train,FAR,train,18,15,-5.869973706688217,0,356,1,-0.112,-0.084,0.955,0.6216386,-0.6679547,0.90286297,1.4885496,-0.012853463,-0.28298944,0.0,0.0,0.0,0.41511648893356323,0.41511648893356323,link6
1764108525.4026344,d4pg_train,FAR,train,18,16,-5.2285259363814225,0,357,1,0.131,0.04,0.834,0.34545213,-0.57214785,1.441221,0.28773445,-0.13115185,-0.6226138,0.0,0.0,0.0,0.345783531665802,0.345783531665802,link6
1764108526.812185,d4pg_train,FAR,train,18,17,-5.174468260407012,0,358,1,0.065,0.096,0.85,1.0263569,-0.5825287,1.3704392,0.5068948,-0.091243856,-0.27913693,0.0,0.0,0.0,0.5212211608886719,0.5212211608886719,link6
1764108528.2140071,d4pg_train,FAR,train,18,18,-5.537305207821432,0,359,1,-0.056,-0.043,0.917,0.6535462,-0.70755565,1.1155225,1.0238205,0.0075846557,-0.2580204,0.0,0.0,0.0,0.557166576385498,0.557166576385498,link6
1764108529.6134346,d4pg_train,FAR,train,18,19,-5.4254913474415085,0,360,1,0.088,0.096,0.87,0.8030468,-0.49269298,1.2746173,1.3262433,0.043092117,-0.27552345,0.0,0.0,0.0,0.35245007276535034,0.35245007276535034,link6
1764108533.2854233,d4pg_train,FAR,train,19,0,-5.487757916574951,0,361,1,0.223,0.19,0.823,0.71161383,-0.28450018,1.2685757,0.502282,-0.021849182,-0.5211656,0.0,0.0,0.0,0.30109554529190063,0.30109554529190063,link6
1764108534.6735125,d4pg_train,FAR,train,19,1,-5.268557919018151,0,362,1,0.155,0.125,0.84,0.7098898,-0.4616142,1.3472925,0.37643698,-0.1476472,-0.25067583,0.0,0.0,0.0,0.40298372507095337,0.40298372507095337,link6
1764108536.1562285,d4pg_train,FAR,train,19,2,-5.349139100385446,0,363,1,0.122,0.093,0.837,0.73408306,-0.5269134,1.412565,0.60882676,-0.18691202,0.4122248,0.0,0.0,0.0,0.30221250653266907,0.30221250653266907,link6
1764108537.5538769,d4pg_train,FAR,train,19,3,-5.329034911588768,0,364,1,-0.014,-0.03,0.885,0.42589423,-0.7227371,1.2313147,1.9351434,-0.19281888,0.42253995,0.0,0.0,0.0,0.5787971615791321,0.5787971615791321,link6
1764108538.94542,d4pg_train,FAR,train,19,4,-5.570273301190223,0,365,1,-0.158,-0.038,0.911,0.09633521,-0.7908344,1.0748607,1.32767,-0.162556,0.5999929,0.0,0.0,0.0,0.5627347826957703,0.5627347826957703,link6
1764108540.34654,d4pg_train,FAR,train,19,5,-5.773985903035117,0,366,1,-0.113,0.008,0.953,-0.113647684,-0.65915793,0.9519873,0.59826,-0.12244921,0.88806665,0.0,0.0,0.0,0.5761628746986389,0.5761628746986389,link6
1764108541.7430062,d4pg_train,FAR,train,19,6,-5.120314767715049,0,367,1,-0.032,-0.035,0.844,0.39466766,-0.8334519,1.4192542,1.2349789,-0.16815992,-0.8716406,0.0,0.0,0.0,0.4639202952384949,0.4639202952384949,link6
1764108543.1351683,d4pg_train,FAR,train,19,7,-4.881005181322834,0,368,1,0.065,0.021,0.8,0.63535964,-0.73440975,1.5474273,1.3192364,-0.157392,0.053714935,0.0,0.0,0.0,0.4365532100200653,0.4365532100200653,link6
1764108544.5960732,d4pg_train,FAR,train,19,8,-4.9326648201269165,0,369,1,0.122,0.097,0.788,0.6933423,-0.61133415,1.5144702,-0.5361423,0.06496847,-0.15792635,0.0,0.0,0.0,0.37892207503318787,0.37892207503318787,link6
1764108545.9897096,d4pg_train,FAR,train,19,9,-5.435125049207883,0,370,1,0.123,0.046,0.875,0.2704092,-0.5087677,1.2710057,-0.7873809,-0.12718731,-0.22556305,0.0,0.0,0.0,0.36783069372177124,0.36783069372177124,link6
1764108547.3869631,d4pg_train,FAR,train,19,10,-5.621462750461945,0,371,1,0.126,0.049,0.919,0.26786432,-0.40677547,1.1050367,-0.5959487,-0.23017623,0.025730759,0.0,0.0,0.0,0.4643529951572418,0.4643529951572418,link6
1764108548.7782185,d4pg_train,FAR,train,19,11,-5.38830064291471,0,372,1,0.151,0.224,0.834,1.0724548,-0.3050214,1.2745417,1.1359181,-0.25321227,1.6239852,0.0,0.0,0.0,0.3662511706352234,0.3662511706352234,link6
1764108550.167171,d4pg_train,FAR,train,19,12,-5.291142222560325,0,373,1,0.106,0.044,0.872,0.4545178,-0.55409616,1.3032715,0.46236107,-0.17107342,1.422714,0.0,0.0,0.0,0.5876688361167908,0.5876688361167908,link6
1764108551.56729,d4pg_train,FAR,train,19,13,-5.4210689350222125,0,374,1,-0.12,-0.0,0.882,0.046377588,-0.8406761,1.2608072,-0.12596558,-0.1146034,1.1413385,0.0,0.0,0.0,0.41312500834465027,0.41312500834465027,link6
1764108552.95426,d4pg_train,FAR,train,19,14,-5.788501859616228,0,375,1,-0.01,-0.007,0.961,0.6913017,-0.5200832,0.96231824,-0.051482696,-0.19567803,0.70727074,0.0,0.0,0.0,0.5424482226371765,0.5424482226371765,link6
1764108554.3472464,d4pg_train,FAR,train,19,15,-5.716830693612789,0,376,1,0.013,0.014,0.931,0.7321588,-0.55013955,1.1484423,-0.067032024,-0.21217844,1.4161383,0.0,0.0,0.0,0.36523187160491943,0.36523187160491943,link6
1764108555.7596247,d4pg_train,FAR,train,19,16,-4.9560105555326945,0,377,1,0.03,0.011,0.818,0.35183507,-0.7851601,1.5138639,0.002472397,-0.088545926,1.27019,0.0,0.0,0.0,0.4726942777633667,0.4726942777633667,link6
1764108557.1473365,d4pg_train,FAR,train,19,17,-5.108774391842658,0,378,1,0.127,0.026,0.797,0.24633728,-0.64162767,1.538948,0.5415553,-0.09875812,2.0414317,0.0,0.0,0.0,0.2941504120826721,0.2941504120826721,link6
1764108558.5421886,d4pg_train,FAR,train,19,18,-4.849184030105356,0,379,1,0.172,-0.005,0.779,0.006240719,-0.59545726,1.568933,0.6119482,-0.122088715,1.8345187,0.0,0.0,0.0,0.4381785988807678,0.4381785988807678,link6
1764108559.9307015,d4pg_train,FAR,train,19,19,-5.001697150113952,0,380,1,0.014,-0.005,0.827,0.10377952,-0.78971523,1.4887618,0.40643954,-0.13148883,1.1583174,0.0,0.0,0.0,0.48563140630722046,0.48563140630722046,link6
1764108563.6052587,d4pg_train,FAR,train,20,0,-6.3664093045222865,0,381,1,0.044,0.011,1.051,0.32105985,-0.057616588,0.22003578,-0.14578591,0.010267528,0.089635916,0.0,0.0,0.0,0.45182499289512634,0.45182499289512634,link6
1764108565.0108376,d4pg_train,FAR,train,20,1,-6.268071039083728,0,382,1,0.013,0.009,1.039,0.5680386,-0.19375785,0.3680293,-0.021557882,0.033416964,0.6958673,0.0,0.0,0.0,0.501015841960907,0.501015841960907,link6
1764108566.4095075,d4pg_train,FAR,train,20,2,-6.025252395056438,0,383,1,-0.076,-0.05,0.998,0.53080726,-0.4883709,0.70488244,0.73437864,-0.063343495,0.5644814,0.0,0.0,0.0,0.5997393727302551,0.5997393727302551,link6
1764108567.7945442,d4pg_train,FAR,train,20,3,-5.681850457496411,0,384,1,-0.17,-0.097,0.924,0.43543628,-0.7946119,1.0032532,1.1532917,-0.12980644,0.5443995,0.0,0.0,0.0,0.5820178985595703,0.5820178985595703,link6
1764108569.178724,d4pg_train,FAR,train,20,4,-5.018769980521277,0,385,1,-0.018,-0.025,0.829,-0.10941614,-0.81390864,1.4861374,1.088222,-0.2625302,3.619623,0.0,0.0,0.0,0.4795437455177307,0.4795437455177307,link6
1764108570.586625,d4pg_train,FAR,train,20,5,-5.000314272407531,0,386,1,-0.052,-0.002,0.827,-0.28939545,-0.8740589,1.5046718,0.5368992,-0.26580778,3.8984785,0.0,0.0,0.0,0.516727089881897,0.516727089881897,link6
1764108571.9897199,d4pg_train,FAR,train,20,6,-5.385057416521646,0,387,1,-0.003,-0.011,0.892,-1.3073099,-0.66414374,1.2515011,0.470211,-0.10803872,2.9074647,0.0,0.0,0.0,0.503226101398468,0.503226101398468,link6
1764108573.3819704,d4pg_train,FAR,train,20,7,-5.3867351860128965,0,388,1,-0.094,0.042,0.89,-0.3477325,-0.79568446,1.2627926,-0.041774977,-0.29097867,0.7700303,0.0,0.0,0.0,0.6108124852180481,0.6108124852180481,link6
1764108574.7207117,d4pg_train,FAR,train,20,8,-5.283017473958148,0,389,1,-0.114,-0.002,0.864,0.11787466,-0.8680592,1.3665843,-0.2875313,-0.29679778,1.031792,0.0,0.0,0.0,0.45268505811691284,0.45268505811691284,link6
1764108576.1391892,d4pg_train,FAR,train,20,9,-5.7954977878432095,0,390,1,-0.276,-0.023,0.925,-0.011749536,-0.7865741,0.9080904,0.49653625,-0.44404843,4.2615004,0.0,0.0,0.0,0.7792754173278809,0.7792754173278809,link6
1764108577.5254924,d4pg_train,FAR,train,20,10,-5.311613153658121,0,391,1,-0.107,0.055,0.87,-0.6041604,-0.85980886,1.3345251,0.56946176,-0.14966446,0.5049429,0.0,0.0,0.0,0.4780973196029663,0.4780973196029663,link6
1764108578.918309,d4pg_train,FAR,train,20,11,-4.976048419468057,0,392,1,0.013,-0.012,0.805,-0.56823194,-0.82780665,1.5536876,0.35659727,-0.081531145,-0.8511185,0.0,0.0,0.0,0.35412728786468506,0.35412728786468506,link6
1764108580.30128,d4pg_train,FAR,train,20,12,-5.131264870129087,0,393,1,0.18,0.045,0.799,0.2033076,-0.5298261,1.5188273,-0.26325285,-0.23249486,2.9768174,0.0,0.0,0.0,0.3171483874320984,0.3171483874320984,link6
1764108581.687381,d4pg_train,FAR,train,20,13,-5.3271938452825145,0,394,1,0.026,-0.011,0.885,-0.18608998,-0.65502685,1.2752618,0.40201956,-0.13129948,1.3976479,0.0,0.0,0.0,0.5843538641929626,0.5843538641929626,link6
1764108583.0914278,d4pg_train,FAR,train,20,14,-5.507244433018229,0,395,1,-0.132,0.031,0.9,-0.24592455,-0.8182721,1.1765722,0.7143803,-0.06539224,0.7027679,0.0,0.0,0.0,0.4681944251060486,0.4681944251060486,link6
1764108584.4913225,d4pg_train,FAR,train,20,15,-5.148621437348163,0,396,1,-0.028,-0.02,0.853,0.53857523,-0.8012753,1.3708655,0.5715238,-0.04371308,0.55945295,0.0,0.0,0.0,0.5241596698760986,0.5241596698760986,link6
1764108585.8887043,d4pg_train,FAR,train,20,16,-5.248784422342173,0,397,1,-0.057,-0.024,0.866,0.133567,-0.7980459,1.3399467,0.77049947,-0.18099196,1.2718445,0.0,0.0,0.0,0.48396098613739014,0.48396098613739014,link6
1764108587.2799768,d4pg_train,FAR,train,20,17,-5.297044838060205,0,398,1,-0.019,-0.024,0.876,-0.2554445,-0.7335111,1.3358716,0.8636011,-0.2956555,1.9296103,0.0,0.0,0.0,0.48839080333709717,0.48839080333709717,link6
1764108588.6713154,d4pg_train,FAR,train,20,18,-5.003663494796094,0,399,1,0.017,-0.025,0.826,-0.91488683,-0.75570256,1.5283929,0.057592757,-0.3060151,0.4601964,0.0,0.0,0.0,0.4725193381309509,0.4725193381309509,link6
1764108590.0628586,d4pg_train,FAR,train,20,19,-5.0843940032116155,0,400,1,0.042,-0.037,0.826,-0.8449872,-0.71796066,1.5191665,-0.19602388,-0.2869347,0.66103995,0.0,0.0,0.0,0.3754779100418091,0.3754779100418091,link6
1764108593.719321,d4pg_train,FAR,train,21,0,-5.597130916280399,0,401,1,0.125,0.039,0.902,0.3072902,-0.46053776,1.1620905,0.071430475,-0.028818313,0.97925687,0.0,0.0,0.0,0.3662030100822449,0.3662030100822449,link6
1764108595.1165595,d4pg_train,FAR,train,21,1,-5.361481143079688,0,402,1,0.041,-0.0,0.889,-0.076294675,-0.62985957,1.2671536,-0.089312404,-0.1663076,1.182331,0.0,0.0,0.0,0.5434756278991699,0.5434756278991699,link6
1764108596.51198,d4pg_train,FAR,train,21,2,-5.5431962892880815,0,403,1,-0.083,0.04,0.915,-0.36493707,-0.7254769,1.1707191,-0.19947487,-0.28169888,1.3716805,0.0,0.0,0.0,0.5281118154525757,0.5281118154525757,link6
1764108597.90269,d4pg_train,FAR,train,21,3,-5.229332735425812,0,404,1,0.056,-0.014,0.856,-0.15296155,-0.6668811,1.3869973,0.30623144,-0.14037932,0.14100824,0.0,0.0,0.0,0.41145259141921997,0.41145259141921997,link6
1764108599.3164134,d4pg_train,FAR,train,21,4,-4.881599273054422,0,405,1,0.042,-0.016,0.805,-0.15807955,-0.78432196,1.5610785,0.498687,-0.154914,1.2039193,0.0,0.0,0.0,0.4731251001358032,0.4731251001358032,link6
1764108600.714654,d4pg_train,FAR,train,21,5,-4.9815305947705255,0,406,1,0.02,0.005,0.823,-0.17712775,-0.78917503,1.514843,-0.3764927,-0.17923336,1.5546004,0.0,0.0,0.0,0.4779961109161377,0.4779961109161377,link6
1764108602.0946465,d4pg_train,FAR,train,21,6,-5.4141483338876055,0,407,1,-0.062,0.027,0.897,-0.33171052,-0.7395684,1.2043437,-0.36842975,-0.12591977,0.536708,0.0,0.0,0.0,0.5691319108009338,0.5691319108009338,link6
1764108603.4789703,d4pg_train,FAR,train,21,7,-5.734754069589829,0,408,1,-0.074,0.022,0.929,-0.1820324,-0.67687666,1.1046414,-0.31535113,-0.13050257,0.34834826,0.0,0.0,0.0,0.3564606010913849,0.3564606010913849,link6
1764108604.8596258,d4pg_train,FAR,train,21,8,-5.0238574496531685,0,409,1,0.075,0.096,0.817,0.97118556,-0.6235348,1.5165627,0.24344887,-0.26174593,0.093731195,0.0,0.0,0.0,0.4302678406238556,0.4302678406238556,link6
1764108606.2557135,d4pg_train,FAR,train,21,9,-5.287761973637998,0,410,1,0.116,0.13,0.817,0.813176,-0.5043986,1.4377238,-0.099574514,-0.13293965,1.419401,0.0,0.0,0.0,0.28984788060188293,0.28984788060188293,link6
1764108607.640699,d4pg_train,FAR,train,21,10,-5.184197920875837,0,411,1,0.24,0.152,0.798,0.55848515,-0.33542004,1.3698752,-0.22379862,-0.05068487,2.7599158,0.0,0.0,0.0,0.3893718719482422,0.3893718719482422,link6
1764108609.043782,d4pg_train,FAR,train,21,11,-5.444949415461529,0,412,1,-0.01,0.03,0.902,-1.0361242,-0.69415694,1.1975764,-0.6484889,-0.09335976,0.5098532,0.0,0.0,0.0,0.5128591656684875,0.5128591656684875,link6
1764108610.427509,d4pg_train,FAR,train,21,12,-5.595003042032421,0,413,1,-0.126,0.083,0.919,-0.49475688,-0.7734349,1.0879717,-0.35510582,-0.17510203,1.3031864,0.0,0.0,0.0,0.6545515656471252,0.6545515656471252,link6
1764108611.8105376,d4pg_train,FAR,train,21,13,-5.822730786265837,0,414,1,-0.153,0.013,0.957,0.11106258,-0.6352523,0.91883856,-0.59851354,-0.44226426,3.3443809,0.0,0.0,0.0,0.6530930995941162,0.6530930995941162,link6
1764108613.2110484,d4pg_train,FAR,train,21,14,-5.6610351248789685,0,415,1,-0.142,0.069,0.928,-0.6426594,-0.7313308,1.0682878,0.6051513,-0.3692158,0.25858402,0.0,0.0,0.0,0.5949681401252747,0.5949681401252747,link6
1764108614.608181,d4pg_train,FAR,train,21,15,-5.523376802371151,0,416,1,-0.117,0.024,0.898,-0.3367113,-0.77800715,1.2362655,0.69176024,-0.32832167,-0.39228022,0.0,0.0,0.0,0.40406543016433716,0.40406543016433716,link6
1764108616.0031753,d4pg_train,FAR,train,21,16,-5.872185244370418,0,417,1,-0.095,-0.139,0.962,0.9708662,-0.63494116,0.8867007,0.010007491,-0.4090502,2.8061001,0.0,0.0,0.0,0.5995081067085266,0.5995081067085266,link6
1764108617.48618,d4pg_train,FAR,train,21,17,-5.493155979165546,0,418,1,-0.035,0.008,0.899,-0.0335259,-0.68405724,1.295663,-0.2006502,-0.3796397,0.33991617,0.0,0.0,0.0,0.39648306369781494,0.39648306369781494,link6
1764108618.8844972,d4pg_train,FAR,train,21,18,-4.947698680032353,0,419,1,0.082,-0.038,0.812,-0.55241686,-0.6827468,1.5655216,-0.24888521,-0.3502094,-0.5962592,0.0,0.0,0.0,0.46969735622406006,0.46969735622406006,link6
1764108620.3105578,d4pg_train,FAR,train,21,19,-5.05479487751547,0,420,1,0.175,0.132,0.791,0.83834505,-0.44043982,1.5277903,0.6181093,-0.4831444,1.4741725,0.0,0.0,0.0,0.3650186359882355,0.3650186359882355,link6
1764108623.9679027,d4pg_train,FAR,train,22,0,-6.711275287060914,0,421,1,0.071,0.006,1.048,0.08620482,-0.033607643,0.21018337,-0.11339781,-0.0110651925,0.31316796,0.0,0.0,0.0,0.25040683150291443,0.25040683150291443,link6
1764108625.3552263,d4pg_train,FAR,train,22,1,-5.74323015668889,0,422,1,0.326,0.157,0.745,0.48401064,-0.21979178,1.4306055,0.6035943,-0.18976809,0.8738995,0.0,0.0,0.0,0.18657450377941132,0.18657450377941132,link6
1764108626.742601,d4pg_train,FAR,train,22,2,-5.189795049362416,0,423,1,0.146,0.099,0.843,0.71653074,-0.48602164,1.3580428,0.8358517,-0.22566213,1.4193794,0.0,0.0,0.0,0.541508674621582,0.541508674621582,link6
1764108628.1314793,d4pg_train,FAR,train,22,3,-5.478012192541943,0,424,1,-0.072,-0.145,0.889,0.9660238,-0.8561217,1.1983399,0.8533138,-0.23316787,2.1267905,0.0,0.0,0.0,0.4486690163612366,0.4486690163612366,link6
1764108629.5221527,d4pg_train,FAR,train,22,4,-5.184404379775414,0,425,1,0.048,-0.014,0.853,-0.13969468,-0.68059444,1.4446791,0.25300422,-0.3200409,0.3724748,0.0,0.0,0.0,0.4463333487510681,0.4463333487510681,link6
1764108630.9068415,d4pg_train,FAR,train,22,5,-5.193804275199903,0,426,1,-0.052,0.007,0.863,-0.2965413,-0.79842573,1.3814938,0.22557825,-0.32740763,1.0188453,0.0,0.0,0.0,0.668573260307312,0.668573260307312,link6
1764108632.2956305,d4pg_train,FAR,train,22,6,-5.030179744043905,0,427,1,0.052,-0.003,0.827,0.107403286,-0.7262723,1.51119,0.30028683,-0.24764237,2.7021573,0.0,0.0,0.0,0.44507700204849243,0.44507700204849243,link6
1764108633.6800864,d4pg_train,FAR,train,22,7,-4.911585085744787,0,428,1,0.017,-0.015,0.811,-0.35159904,-0.80983406,1.5358028,0.6565248,-0.110519655,1.7281582,0.0,0.0,0.0,0.47402089834213257,0.47402089834213257,link6
1764108635.0727909,d4pg_train,FAR,train,22,8,-4.876621560935629,0,429,1,-0.021,0.001,0.806,-0.4538591,-0.8806646,1.5519816,0.66049004,-0.11137517,1.3463423,0.0,0.0,0.0,0.4854229688644409,0.4854229688644409,link6
1764108636.4656236,d4pg_train,FAR,train,22,9,-5.051095619146699,0,430,1,0.104,-0.03,0.818,-0.28757116,-0.64710665,1.5158095,-0.012401788,-0.21941306,0.8562275,0.0,0.0,0.0,0.39088892936706543,0.39088892936706543,link6
1764108637.8186646,d4pg_train,FAR,train,22,10,-5.232543193555948,0,431,1,0.045,-0.029,0.861,0.10495162,-0.66086227,1.3659956,0.9013405,-0.36333796,1.5952888,0.0,0.0,0.0,0.44817715883255005,0.44817715883255005,link6
1764108639.2087798,d4pg_train,FAR,train,22,11,-5.2827257267927274,0,432,1,-0.001,-0.045,0.87,0.13682967,-0.713556,1.3234458,1.1802104,-0.39555168,2.0964646,0.0,0.0,0.0,0.44964200258255005,0.44964200258255005,link6
1764108640.6390872,d4pg_train,FAR,train,22,12,-5.040380573041361,0,433,1,0.018,0.004,0.833,-1.2240603,-0.7917133,1.4732702,-0.8043252,-0.20661134,-1.360338,0.0,0.0,0.0,0.47998178005218506,0.47998178005218506,link6
1764108642.050646,d4pg_train,FAR,train,22,13,-5.006819347924081,0,434,1,0.101,0.018,0.818,0.10516792,-0.65366304,1.5315152,-0.19113828,-0.29960227,1.7910602,0.0,0.0,0.0,0.44167056679725647,0.44167056679725647,link6
1764108643.4658864,d4pg_train,FAR,train,22,14,-4.9002049082574715,0,435,1,0.1,0.209,0.777,1.1741636,-0.4636889,1.5669043,0.3098376,-0.37265635,4.4018307,0.0,0.0,0.0,0.49517399072647095,0.49517399072647095,link6
1764108644.8633552,d4pg_train,FAR,train,22,15,-5.004220862541469,0,436,1,0.088,-0.083,0.812,-0.8092886,-0.6317625,1.5336177,-0.18359376,-0.26282817,-0.2631781,0.0,0.0,0.0,0.41546714305877686,0.41546714305877686,link6
1764108646.26811,d4pg_train,FAR,train,22,16,-4.914902835947409,0,437,1,0.128,-0.058,0.798,-0.41176632,-0.61909693,1.5718089,-0.23753549,-0.30640587,1.0475297,0.0,0.0,0.0,0.45425888895988464,0.45425888895988464,link6
1764108647.6667368,d4pg_train,FAR,train,22,17,-5.588387535240988,0,438,1,0.023,0.013,0.924,0.11822475,-0.5513538,1.1587045,-0.20554252,-0.380171,1.5932753,0.0,0.0,0.0,0.4776628613471985,0.4776628613471985,link6
1764108649.062208,d4pg_train,FAR,train,22,18,-5.574227677152694,0,439,1,-0.044,0.031,0.924,-0.283205,-0.65174085,1.1411247,-0.48826715,-0.34268093,0.77996695,0.0,0.0,0.0,0.5480808615684509,0.5480808615684509,link6
1764108650.4478512,d4pg_train,FAR,train,22,19,-5.695854254087705,0,440,1,-0.051,0.036,0.91,-0.3197512,-0.69952416,1.2022413,-0.49336293,-0.29836577,0.52672774,0.0,0.0,0.0,0.3109922409057617,0.3109922409057617,link6
1764108654.132563,d4pg_train,FAR,train,23,0,-6.101483341462231,0,441,1,0.13,0.058,0.98,0.4624114,-0.25892833,0.8312082,0.21342829,-0.097819775,0.9537559,0.0,0.0,0.0,0.344342976808548,0.344342976808548,link6
1764108655.5238242,d4pg_train,FAR,train,23,1,-5.264857131662737,0,442,1,0.127,0.109,0.858,0.73023057,-0.47963494,1.3089696,0.27149177,-0.11855936,1.4201984,0.0,0.0,0.0,0.5529778003692627,0.5529778003692627,link6
1764108656.9165788,d4pg_train,FAR,train,23,2,-5.102347747774271,0,443,1,0.068,0.012,0.834,0.04115534,-0.68534803,1.4803143,-0.30296752,-0.22961701,-0.09410328,0.0,0.0,0.0,0.4119958281517029,0.4119958281517029,link6
1764108658.3076162,d4pg_train,FAR,train,23,3,-5.177701904645668,0,444,1,-0.033,-0.012,0.86,0.3618398,-0.7870447,1.3840147,0.09290063,-0.29982856,1.1391175,0.0,0.0,0.0,0.5921749472618103,0.5921749472618103,link6
1764108659.6960235,d4pg_train,FAR,train,23,4,-5.45201584711502,0,445,1,-0.143,-0.121,0.883,0.60156757,-0.8850384,1.2325447,0.4609457,-0.33889574,2.0680673,0.0,0.0,0.0,0.49306434392929077,0.49306434392929077,link6
1764108661.0838864,d4pg_train,FAR,train,23,5,-5.136823946580353,0,446,1,-0.047,0.006,0.851,-0.41019177,-0.8172682,1.4035239,0.57636917,-0.1942534,3.217942,0.0,0.0,0.0,0.5385364294052124,0.5385364294052124,link6
1764108662.5698583,d4pg_train,FAR,train,23,6,-5.159729369039819,0,447,1,-0.029,-0.006,0.838,-0.3737862,-0.81735235,1.4504443,0.9085449,-0.1688106,2.0156436,0.0,0.0,0.0,0.36605584621429443,0.36605584621429443,link6
1764108663.9577513,d4pg_train,FAR,train,23,7,-4.979797909252599,0,448,1,0.05,-0.061,0.817,-0.9095595,-0.70372885,1.4944851,-0.1739583,-0.060219526,-1.0741717,0.0,0.0,0.0,0.4509722590446472,0.4509722590446472,link6
1764108665.3429267,d4pg_train,FAR,train,23,8,-5.354163342291757,0,449,1,0.027,0.018,0.886,0.9560389,-0.6298186,1.2492042,0.52559066,-0.12906104,3.014908,0.0,0.0,0.0,0.49733662605285645,0.49733662605285645,link6
1764108666.7369206,d4pg_train,FAR,train,23,9,-5.488525566181644,0,450,1,0.02,0.013,0.905,1.174281,-0.6253834,1.2173061,0.78402805,-0.18131068,3.8214002,0.0,0.0,0.0,0.44804829359054565,0.44804829359054565,link6
1764108668.1185596,d4pg_train,FAR,train,23,10,-5.174198509685705,0,451,1,0.081,-0.114,0.837,-0.7548213,-0.55325836,1.3959686,1.105625,-0.24416259,0.037479904,0.0,0.0,0.0,0.4103374481201172,0.4103374481201172,link6
1764108669.506367,d4pg_train,FAR,train,23,11,-5.479790834068566,0,452,1,-0.024,-0.006,0.911,0.12686041,-0.6641924,1.1875886,0.09446036,-0.2262916,1.8131328,0.0,0.0,0.0,0.6051143407821655,0.6051143407821655,link6
1764108670.8891218,d4pg_train,FAR,train,23,12,-5.676775565978309,0,453,1,-0.132,-0.073,0.92,0.5591204,-0.7722109,1.1144058,-0.45350137,-0.21751283,2.260571,0.0,0.0,0.0,0.40974730253219604,0.40974730253219604,link6
1764108672.2830565,d4pg_train,FAR,train,23,13,-5.272666006417732,0,454,1,-0.018,0.008,0.874,-0.9779164,-0.7361637,1.307697,0.7467616,-0.12440375,-0.8807214,0.0,0.0,0.0,0.5209048390388489,0.5209048390388489,link6
1764108673.6796055,d4pg_train,FAR,train,23,14,-5.408613297592792,0,455,1,-0.035,0.0,0.895,-0.018550117,-0.71113586,1.2653328,0.026884118,-0.23256719,0.6355444,0.0,0.0,0.0,0.4975981116294861,0.4975981116294861,link6
1764108675.0752902,d4pg_train,FAR,train,23,15,-5.415624717397306,0,456,1,0.008,0.083,0.887,1.1169903,-0.5622352,1.2826732,-0.7293248,-0.34733447,2.125447,0.0,0.0,0.0,0.4266413450241089,0.4266413450241089,link6
1764108676.4547188,d4pg_train,FAR,train,23,16,-4.929475153947459,0,457,1,0.024,-0.009,0.814,-0.15651506,-0.79757285,1.529485,0.379682,-0.11759137,1.068609,0.0,0.0,0.0,0.47547292709350586,0.47547292709350586,link6
1764108677.8629324,d4pg_train,FAR,train,23,17,-4.900584713558305,0,458,1,-0.02,-0.01,0.809,0.11999876,-0.87388957,1.553047,0.52889776,-0.15729414,2.0472145,0.0,0.0,0.0,0.4716528058052063,0.4716528058052063,link6
1764108679.257454,d4pg_train,FAR,train,23,18,-5.6580996404403905,0,459,1,-0.133,0.137,0.922,-0.76411086,-0.78620374,1.0458065,-0.3175278,-0.24626336,-0.27815357,0.0,0.0,0.0,0.6351794004440308,0.6351794004440308,link6
1764108680.6529827,d4pg_train,FAR,train,23,19,-5.386631831478067,0,460,1,-0.143,0.0,0.883,0.10883808,-0.8435656,1.2840948,-0.1861923,-0.28411493,1.3521051,0.0,0.0,0.0,0.5541365742683411,0.5541365742683411,link6
1764108684.316887,d4pg_train,FAR,train,24,0,-5.09341588855014,0,461,1,0.142,-0.019,0.813,-0.014076754,-0.5926996,1.5134672,0.5665391,-0.2597317,1.7979971,0.0,0.0,0.0,0.3573717474937439,0.3573717474937439,link6
1764108685.7053316,d4pg_train,FAR,train,24,1,-4.954170644758262,0,462,1,0.037,-0.045,0.817,-0.48694688,-0.7360923,1.5361485,0.6753042,-0.30309245,1.0883948,0.0,0.0,0.0,0.4835243225097656,0.4835243225097656,link6
1764108687.1021218,d4pg_train,FAR,train,24,2,-4.936138475076136,0,463,1,-0.017,-0.007,0.816,-0.30591676,-0.8460036,1.5545763,0.36094084,-0.2772592,0.21910763,0.0,0.0,0.0,0.48563021421432495,0.48563021421432495,link6
1764108688.4865174,d4pg_train,FAR,train,24,3,-4.918413441442149,0,464,1,0.028,0.141,0.8,1.345633,-0.6151534,1.5159692,-0.48291528,-0.06829861,2.9812486,0.0,0.0,0.0,0.47906485199928284,0.47906485199928284,link6
1764108689.878938,d4pg_train,FAR,train,24,4,-5.041347753455355,0,465,1,0.188,0.029,0.781,0.07804347,-0.5381964,1.5518676,0.3409724,-0.15568626,2.156606,0.0,0.0,0.0,0.3131069540977478,0.3131069540977478,link6
1764108691.263253,d4pg_train,FAR,train,24,5,-4.892194031259789,0,466,1,0.146,-0.115,0.791,-0.5648928,-0.54430366,1.5275594,0.8298204,-0.21314223,1.5603454,0.0,0.0,0.0,0.5686850547790527,0.5686850547790527,link6
1764108692.6501396,d4pg_train,FAR,train,24,6,-5.0446137471374,0,467,1,-0.01,-0.026,0.834,0.2640517,-0.80232775,1.5016286,0.5828866,-0.34440807,1.6194289,0.0,0.0,0.0,0.48842716217041016,0.48842716217041016,link6
1764108694.033217,d4pg_train,FAR,train,24,7,-4.942705196361778,0,468,1,-0.018,-0.017,0.816,0.3315457,-0.8613002,1.5451124,0.39660546,-0.22080214,1.7462429,0.0,0.0,0.0,0.4722782373428345,0.4722782373428345,link6
1764108695.4288604,d4pg_train,FAR,train,24,8,-4.906186466878201,0,469,1,-0.016,-0.01,0.813,0.31677538,-0.8678121,1.5361439,0.32440475,-0.11263829,1.93763,0.0,0.0,0.0,0.522607147693634,0.522607147693634,link6
