QuanPM-doosan/DoosanRobot_Reinforcement_Learning/ros2_ws/rl_logs/20251123_015311_ddpg_train.csv
ts,run_tag,mode,phase,ep,step,reward,done,mem_len,learn_flag,ee_x,ee_y,ee_z,j1,j2,j3,j4,j5,j6,sphere_x,sphere_y,sphere_z,dist_out,signed,closest_link
1763837595.4033945,ddpg_train,FAR,train,1,0,-6.240918938444404,0,1,0,-0.165,-0.119,1.019,0.6340822,-0.046320364,-0.36874038,-0.05723552,0.08787938,0.21502611,0.0,0.0,0.0,0.6681987643241882,0.6681987643241882,link6
1763837596.810529,ddpg_train,FAR,train,1,1,-6.200863094210145,0,2,0,-0.199,-0.181,0.997,0.7323956,-0.09932322,-0.39700046,-0.3379176,0.045078143,0.3541683,0.0,0.0,0.0,0.6918081641197205,0.6918081641197205,link6
1763837598.201268,ddpg_train,FAR,train,1,2,-6.0997466427165605,0,3,0,-0.253,-0.242,0.954,0.7573045,-0.13978665,-0.51097476,-0.57978714,0.032932326,0.46409556,0.0,0.0,0.0,0.7613690495491028,0.7613690495491028,link6
1763837599.5938401,ddpg_train,FAR,train,1,3,-6.12335466636753,0,4,0,-0.241,-0.167,0.977,0.6218362,-0.06858278,-0.49155927,-0.8056199,-0.054039493,0.4149693,0.0,0.0,0.0,0.739763617515564,0.739763617515564,link6
1763837600.9765835,ddpg_train,FAR,train,1,4,-6.1651173437997455,0,5,0,-0.25,-0.044,0.995,0.21562445,-0.053987037,-0.39887252,-0.48622072,-0.17912531,0.48595735,0.0,0.0,0.0,0.7156150937080383,0.7156150937080383,link6
1763837602.354787,ddpg_train,FAR,train,1,5,-6.224705761815384,0,6,0,-0.206,-0.004,1.015,0.052224994,-0.03655646,-0.32728875,-0.36404982,-0.15662839,0.56769997,0.0,0.0,0.0,0.6165961623191833,0.6165961623191833,link6
1763837603.734433,ddpg_train,FAR,train,1,6,-6.300381092970363,0,7,0,-0.117,0.002,1.041,-0.0017143463,0.003639966,-0.23503342,-0.3639459,-0.04546605,0.67920774,0.0,0.0,0.0,0.5806222558021545,0.5806222558021545,link6
1763837605.1234386,ddpg_train,FAR,train,1,7,-6.304139944340476,0,8,0,-0.065,0.028,1.045,-0.1579249,0.014484563,-0.0943211,-0.44790053,-0.32435533,0.70542943,0.0,0.0,0.0,0.5532699227333069,0.5532699227333069,link6
1763837606.5030057,ddpg_train,FAR,train,1,8,-6.272963677149842,0,9,0,-0.118,0.035,1.037,-0.1042122,-0.026910486,-0.13660546,-0.5590174,-0.33862957,0.7271157,0.0,0.0,0.0,0.653048574924469,0.653048574924469,link6
1763837607.8882139,ddpg_train,FAR,train,1,9,-6.270741614626765,0,10,0,-0.152,0.024,1.031,0.015466139,-0.04476314,-0.16876417,-0.68375546,-0.32102227,0.776982,0.0,0.0,0.0,0.5731122493743896,0.5731122493743896,link6
1763837609.2702699,ddpg_train,FAR,train,1,10,-6.3249089236535125,0,11,0,-0.069,-0.001,1.049,0.29429734,0.0028239205,-0.09451132,-0.7555343,-0.2234651,0.6554244,0.0,0.0,0.0,0.5666201114654541,0.5666201114654541,link6
1763837610.6447587,ddpg_train,FAR,train,1,11,-6.420124476778083,0,12,0,0.008,0.013,1.054,0.19305041,0.03357939,-0.0021457274,-0.68274593,-0.13866067,0.50550675,0.0,0.0,0.0,0.3958472013473511,0.3958472013473511,link6
1763837612.0310123,ddpg_train,FAR,train,1,12,-6.412892076029104,0,13,0,0.122,0.02,1.045,0.14182357,0.06796266,0.13629726,-0.52346003,-0.035600472,0.39471787,0.0,0.0,0.0,0.3920387625694275,0.3920387625694275,link6
1763837613.41504,ddpg_train,FAR,train,1,13,-6.322369563379509,0,14,0,0.023,0.026,1.048,0.07978316,0.085534394,-0.054901447,-0.6535251,-0.34649563,0.79804546,0.0,0.0,0.0,0.5085754990577698,0.5085754990577698,link6
1763837614.7913995,ddpg_train,FAR,train,1,14,-6.274107279098951,0,15,0,-0.014,0.034,1.041,0.33567613,0.07211684,-0.04615014,-0.6956294,-0.47983032,0.7667091,0.0,0.0,0.0,0.5330334901809692,0.5330334901809692,link6
1763837616.1680474,ddpg_train,FAR,train,1,15,-6.331531322396228,0,16,0,0.01,0.056,1.037,0.50811636,0.09612585,0.017192401,-0.7126007,-0.5642829,0.69630766,0.0,0.0,0.0,0.39102572202682495,0.39102572202682495,link6
1763837617.5433397,ddpg_train,FAR,train,1,16,-6.365622284211829,0,17,0,0.076,0.021,1.047,-0.003169846,0.10038449,0.041456126,-0.51301575,-0.33391577,0.5539068,0.0,0.0,0.0,0.4330061078071594,0.4330061078071594,link6
1763837618.9360924,ddpg_train,FAR,train,1,17,-6.337902096898181,0,18,0,0.049,0.014,1.05,0.004153754,0.0969032,-0.03118977,-0.45456526,-0.23966478,0.50421745,0.0,0.0,0.0,0.5099910497665405,0.5099910497665405,link6
1763837620.320745,ddpg_train,FAR,train,1,18,-6.372982303719132,0,19,0,-0.003,0.006,1.053,0.025889382,0.07198016,-0.11048626,-0.4119224,-0.11270607,0.49084127,0.0,0.0,0.0,0.4512516260147095,0.4512516260147095,link6
1763837621.7037468,ddpg_train,FAR,train,1,19,-6.441824362201734,0,20,0,0.13,0.004,1.043,0.06662873,0.06422684,0.114882536,-0.2891556,0.14170411,0.43621156,0.0,0.0,0.0,0.3609282970428467,0.3609282970428467,link6
1763837625.3368213,ddpg_train,FAR,train,2,0,-6.409367186042761,0,21,0,0.009,0.0,1.055,-0.004515853,0.0029416177,0.010169485,-0.027684093,0.025662675,0.05926977,0.0,0.0,0.0,0.4146014451980591,0.4146014451980591,link6
1763837626.7203138,ddpg_train,FAR,train,2,1,-6.490977699355636,0,22,0,0.176,0.001,1.031,0.0065646037,0.05719918,0.26284114,-0.051148538,-0.0009011064,0.5423495,0.0,0.0,0.0,0.3144286870956421,0.3144286870956421,link6
1763837628.1111512,ddpg_train,FAR,train,2,2,-6.716040318503171,0,23,0,0.255,0.04,1.002,0.17925218,0.09493008,0.35480776,-0.112006776,0.09076007,0.64793277,0.0,0.0,0.0,0.22871683537960052,0.22871683537960052,link6
1763837629.4917524,ddpg_train,FAR,train,2,3,-6.472495290487885,0,24,0,0.301,0.095,0.97,0.31579843,0.11711251,0.41872826,-0.19148542,0.20512372,0.7484642,0.0,0.0,0.0,0.2653207778930664,0.2653207778930664,link6
1763837630.8796685,ddpg_train,FAR,train,2,4,-6.453983389588124,0,25,0,0.252,-0.004,0.985,0.02861049,0.05986043,0.3048987,-0.19381034,0.52664244,0.8392096,0.0,0.0,0.0,0.26490598917007446,0.26490598917007446,link6
1763837632.252936,ddpg_train,FAR,train,2,5,-6.202947104651244,0,26,0,0.189,-0.013,1.01,-0.0041146004,0.06031706,0.14226837,-0.17646715,0.5845278,0.79477173,0.0,0.0,0.0,0.48991477489471436,0.48991477489471436,link6
1763837633.6269114,ddpg_train,FAR,train,2,6,-6.314609894641957,0,27,0,0.024,0.007,1.045,-0.111982815,0.10864535,-0.25239298,0.18975621,0.4047967,0.7892567,0.0,0.0,0.0,0.4760283827781677,0.4760283827781677,link6
1763837635.0081308,ddpg_train,FAR,train,2,7,-6.338908384634244,0,28,0,0.015,0.007,1.05,-0.06507936,0.0920847,-0.20494772,0.24111046,0.27017164,0.6808794,0.0,0.0,0.0,0.48763078451156616,0.48763078451156616,link6
1763837636.38235,ddpg_train,FAR,train,2,8,-6.341972042261245,0,29,0,0.011,0.009,1.051,0.017665347,0.07854779,-0.1816052,0.31258136,0.24717224,0.6319559,0.0,0.0,0.0,0.49506092071533203,0.49506092071533203,link6
1763837637.7577908,ddpg_train,FAR,train,2,9,-6.347831662113628,0,30,0,0.006,0.001,1.052,0.23869658,0.06901059,-0.1617443,-0.04798483,0.18591635,0.5771419,0.0,0.0,0.0,0.49413102865219116,0.49413102865219116,link6
1763837639.1329367,ddpg_train,FAR,train,2,10,-6.2591327277770725,0,31,0,-0.075,-0.005,1.039,0.06303917,0.10532997,-0.35268062,-0.1858297,-0.04993123,0.478452,0.0,0.0,0.0,0.6337877511978149,0.6337877511978149,link6
1763837640.5143406,ddpg_train,FAR,train,2,11,-6.168091695300477,0,32,0,-0.128,0.01,1.017,-0.042929262,0.12664013,-0.46755633,-0.27657625,-0.13346449,0.38147646,0.0,0.0,0.0,0.5645973682403564,0.5645973682403564,link6
1763837641.9406137,ddpg_train,FAR,train,2,12,-6.235751115574874,0,33,1,-0.106,-0.006,1.032,0.10699665,0.08758169,-0.36322495,-0.4430863,-0.09476055,0.23035382,0.0,0.0,0.0,0.6112961769104004,0.6112961769104004,link6
1763837643.325883,ddpg_train,FAR,train,2,13,-6.260928907302426,0,34,1,-0.085,0.015,1.036,-0.07577766,0.098422945,-0.3111123,-0.4948114,-0.18129197,0.2551972,0.0,0.0,0.0,0.5364762544631958,0.5364762544631958,link6
1763837644.7125864,ddpg_train,FAR,train,2,14,-6.306700163939645,0,35,1,-0.025,0.024,1.042,-0.28964898,0.12615988,-0.23643377,-0.55440867,-0.24371536,0.2970414,0.0,0.0,0.0,0.45806074142456055,0.45806074142456055,link6
1763837646.0893977,ddpg_train,FAR,train,2,15,-6.39229545026495,0,36,1,0.084,-0.016,1.049,-0.28802884,0.16383024,-0.09441597,-0.4932566,-0.14450534,0.20658833,0.0,0.0,0.0,0.4167964458465576,0.4167964458465576,link6
1763837647.5444584,ddpg_train,FAR,train,2,16,-6.426641366281114,0,37,1,0.124,-0.029,1.045,-0.2857292,0.18499725,-0.048843723,-0.4536135,-0.12312604,-0.0014158796,0.0,0.0,0.0,0.3814379572868347,0.3814379572868347,link6
1763837648.9318032,ddpg_train,FAR,train,2,17,-6.391116700803392,0,38,1,0.074,-0.01,1.051,-0.26363936,0.082003675,0.03494103,-0.51683795,-0.15616083,-0.033564966,0.0,0.0,0.0,0.427989661693573,0.427989661693573,link6
1763837650.3096883,ddpg_train,FAR,train,2,18,-6.337687588847429,0,39,1,0.0,0.013,1.053,-0.011513481,0.054393396,-0.073335454,-0.6546245,-0.17475277,0.2422146,0.0,0.0,0.0,0.556196391582489,0.556196391582489,link6
1763837651.6869645,ddpg_train,FAR,train,2,19,-6.3473340699039245,0,40,1,-0.036,0.011,1.052,0.08822005,0.025988013,-0.082383566,-0.69288296,-0.18020144,0.34572542,0.0,0.0,0.0,0.5073751211166382,0.5073751211166382,link6
1763837655.3292863,ddpg_train,FAR,train,3,0,-6.371300411345972,0,41,1,0.036,0.01,1.052,0.07788748,-0.012623215,0.14762889,-0.35234317,-0.18638334,0.12612571,0.0,0.0,0.0,0.45040464401245117,0.45040464401245117,link6
1763837656.7052784,ddpg_train,FAR,train,3,1,-6.322906792562602,0,42,1,0.025,0.018,1.05,0.051791262,-0.025877412,0.15892416,-0.4739604,-0.30062872,0.17871095,0.0,0.0,0.0,0.5511711239814758,0.5511711239814758,link6
1763837658.0897386,ddpg_train,FAR,train,3,2,-6.245501655438096,0,43,1,-0.046,0.027,1.036,0.056694843,-0.013429947,0.06978404,-0.4157195,-0.6162371,0.11855314,0.0,0.0,0.0,0.5459957122802734,0.5459957122802734,link6
1763837659.4679203,ddpg_train,FAR,train,3,3,-6.251783630883744,0,44,1,0.008,0.033,1.033,0.02804394,0.0079841735,0.15871407,-0.4278278,-0.6862693,-0.051139783,0.0,0.0,0.0,0.4596487283706665,0.4596487283706665,link6
1763837660.8444922,ddpg_train,FAR,train,3,4,-6.216881949436003,0,45,1,0.058,0.039,1.026,0.07730251,0.041547243,0.22122888,-0.41869524,-0.7605008,-0.07957037,0.0,0.0,0.0,0.4675273895263672,0.4675273895263672,link6
1763837662.2525194,ddpg_train,FAR,train,3,5,-6.227641954892805,0,46,1,0.1,0.055,1.016,0.27873355,0.13020785,0.1924435,-0.2797838,-0.8424731,-0.08951454,0.0,0.0,0.0,0.3981342315673828,0.3981342315673828,link6
1763837663.6357462,ddpg_train,FAR,train,3,6,-6.455738740205344,0,47,1,0.201,0.089,0.997,0.32209033,0.16721907,0.35579136,-0.2488612,-0.77335954,-0.066078626,0.0,0.0,0.0,0.2717912793159485,0.2717912793159485,link6
1763837665.0561895,ddpg_train,FAR,train,3,7,-6.133936852835831,0,48,1,0.264,0.116,0.971,0.34516388,0.17700453,0.4752018,-0.21943034,-0.7362017,-0.03539438,0.0,0.0,0.0,0.44836944341659546,0.44836944341659546,link6
1763837666.444741,ddpg_train,FAR,train,3,8,-6.143415279586966,0,49,1,0.029,0.018,1.017,0.2836084,0.022745853,0.24251083,-0.09077155,-0.91171545,0.089631915,0.0,0.0,0.0,0.48801422119140625,0.48801422119140625,link6
1763837667.8227022,ddpg_train,FAR,train,3,9,-6.194680363882947,0,50,1,0.053,0.02,1.015,0.14739497,0.025080793,0.29800856,-0.11214438,-0.9240594,0.11301799,0.0,0.0,0.0,0.3961181640625,0.3961181640625,link6
1763837669.2047217,ddpg_train,FAR,train,3,10,-6.195651626589984,0,51,1,0.146,0.087,0.994,0.41759866,0.08430732,0.43554386,-0.19915043,-0.9317291,-0.09244887,0.0,0.0,0.0,0.35397592186927795,0.35397592186927795,link6
1763837670.5897033,ddpg_train,FAR,train,3,11,-6.1233956406782575,0,52,1,0.195,0.128,0.959,0.54701865,0.09655656,0.6048054,-0.082679845,-1.0685297,-0.32566306,0.0,0.0,0.0,0.3210730254650116,0.3210730254650116,link6
1763837671.9766273,ddpg_train,FAR,train,3,12,-5.982301109320804,0,53,1,0.233,0.191,0.923,0.69388175,0.13507211,0.72191393,-0.014767312,-1.0903713,-0.34420884,0.0,0.0,0.0,0.34626057744026184,0.34626057744026184,link6
1763837673.454338,ddpg_train,FAR,train,3,13,-6.291015503583327,0,54,1,0.266,0.082,0.929,0.5184165,0.11853472,0.6466957,0.57470584,-1.1379751,-0.4426219,0.0,0.0,0.0,0.23598164319992065,0.23598164319992065,link6
1763837674.8331861,ddpg_train,FAR,train,3,14,-6.184450874968739,0,55,1,0.282,0.102,0.93,0.5752006,0.15115611,0.5840369,0.66571766,-1.0595891,-0.3170399,0.0,0.0,0.0,0.27440935373306274,0.27440935373306274,link6
1763837676.2191,ddpg_train,FAR,train,3,15,-6.1433868657562325,0,56,1,0.256,0.089,0.952,0.5910298,0.14509408,0.5081926,0.7324377,-0.9983291,-0.22620353,0.0,0.0,0.0,0.31970447301864624,0.31970447301864624,link6
1763837677.6041667,ddpg_train,FAR,train,3,16,-6.061961362527315,0,57,1,0.193,0.005,0.955,0.5150376,0.0543601,0.47762066,0.900108,-1.2065128,-0.14964463,0.0,0.0,0.0,0.3141716718673706,0.3141716718673706,link6
1763837678.9842196,ddpg_train,FAR,train,3,17,-5.8229895673922005,0,58,1,0.193,-0.017,0.925,0.43041745,0.05073596,0.5302625,0.90529376,-1.467499,-0.055092398,0.0,0.0,0.0,0.34896910190582275,0.34896910190582275,link6
1763837680.3599255,ddpg_train,FAR,train,3,18,-5.558105702252132,0,59,1,0.162,-0.045,0.901,0.32788062,0.033760432,0.54020554,0.8723781,-1.692486,-0.002087691,0.0,0.0,0.0,0.4443293809890747,0.4443293809890747,link6
1763837681.7351274,ddpg_train,FAR,train,3,19,-5.83530057853096,0,60,1,0.156,-0.031,0.927,0.45449638,-0.011093454,0.563116,0.8926301,-1.4875101,-0.53229964,0.0,0.0,0.0,0.32595568895339966,0.32595568895339966,link6
1763837685.3751495,ddpg_train,FAR,train,4,0,-6.475238190221153,0,61,1,0.023,-0.001,1.053,0.10525947,-0.004479105,0.109433696,0.13964348,-0.20823514,-0.01900807,0.0,0.0,0.0,0.34690797328948975,0.34690797328948975,link6
1763837686.7589877,ddpg_train,FAR,train,4,1,-6.0334103021865095,0,62,1,0.144,0.068,0.97,0.85154647,-0.11059247,0.71219075,0.71169937,-0.8966714,-0.30955115,0.0,0.0,0.0,0.36082303524017334,0.36082303524017334,link6
1763837688.13991,ddpg_train,FAR,train,4,2,-5.909604314570462,0,63,1,0.183,0.042,0.924,0.67326266,-0.15820375,0.89062625,0.913006,-1.1016121,-0.35754398,0.0,0.0,0.0,0.29865574836730957,0.29865574836730957,link6
1763837689.517914,ddpg_train,FAR,train,4,3,-5.398102326424424,0,64,1,0.206,-0.026,0.864,0.401594,-0.19788529,1.022744,1.1293432,-1.3317332,-0.3708108,0.0,0.0,0.0,0.43198567628860474,0.43198567628860474,link6
1763837690.8942027,ddpg_train,FAR,train,4,4,-5.572353745222216,0,65,1,0.073,-0.149,0.902,-0.34118077,-0.18552585,0.7768455,1.3061893,-1.3394138,-0.15760818,0.0,0.0,0.0,0.42751145362854004,0.42751145362854004,link6
1763837692.278052,ddpg_train,FAR,train,4,5,-5.61357758705996,0,66,1,0.065,-0.14,0.915,-0.29475978,-0.19035491,0.7302263,1.2938348,-1.3033609,-0.23327664,0.0,0.0,0.0,0.46883171796798706,0.46883171796798706,link6
1763837693.6587563,ddpg_train,FAR,train,4,6,-5.603289187472586,0,67,1,-0.023,-0.115,0.922,-0.09679804,-0.20442724,0.5052667,1.2383194,-1.5442845,-0.7584378,0.0,0.0,0.0,0.5231928825378418,0.5231928825378418,link6
1763837695.0351784,ddpg_train,FAR,train,4,7,-5.489403679573399,0,68,1,-0.047,-0.121,0.902,-0.03379369,-0.25874493,0.4691143,1.4683336,-1.6598104,-0.8463959,0.0,0.0,0.0,0.5442245602607727,0.5442245602607727,link6
1763837696.537492,ddpg_train,FAR,train,4,8,-5.425877615694983,0,69,1,-0.077,-0.119,0.89,-0.05297527,-0.31843168,0.4827726,1.5673078,-1.7111621,-0.96726984,0.0,0.0,0.0,0.559497058391571,0.559497058391571,link6
1763837697.9366424,ddpg_train,FAR,train,4,9,-4.92172795051421,0,70,1,0.074,-0.125,0.793,-0.12702924,-0.28870863,0.96284956,1.655219,-1.9566799,-1.7964222,0.0,0.0,0.0,0.4079739451408386,0.4079739451408386,link6
1763837699.3135808,ddpg_train,FAR,train,4,10,-4.607461642739046,0,71,1,0.075,-0.128,0.743,-0.3140987,-0.2796625,1.1032364,1.676667,-2.2039926,-2.046047,0.0,0.0,0.0,0.43987298011779785,0.43987298011779785,link6
1763837700.6910417,ddpg_train,FAR,train,4,11,-4.403368063619763,0,72,1,0.069,-0.124,0.705,-0.46603924,-0.26505595,1.2037956,1.672172,-2.4371192,-2.2488868,0.0,0.0,0.0,0.4033857583999634,0.4033857583999634,link6
1763837702.0672667,ddpg_train,FAR,train,4,12,-4.22501873219978,0,73,1,0.13,-0.064,0.667,0.13284728,-0.30262753,1.4057196,1.5940721,-2.4478042,-2.3488412,0.0,0.0,0.0,0.36521804332733154,0.36521804332733154,link6
1763837703.4503345,ddpg_train,FAR,train,4,13,-4.2827534441432435,0,74,1,0.148,-0.072,0.667,0.14452593,-0.31436688,1.3595911,1.8092769,-2.2311661,-2.407273,0.0,0.0,0.0,0.3437538743019104,0.3437538743019104,link6
1763837704.8413262,ddpg_train,FAR,train,4,14,-4.76120553163599,0,75,1,0.229,-0.031,0.701,0.33240265,-0.28021127,1.2197238,2.1334753,-1.7239305,-2.0724304,0.0,0.0,0.0,0.2710375189781189,0.2710375189781189,link6
1763837706.2246432,ddpg_train,FAR,train,4,15,-4.262034516254167,0,76,1,0.226,-0.046,0.618,0.31232378,-0.28896296,1.5593729,1.8092345,-1.9299725,-2.2582154,0.0,0.0,0.0,0.2799392342567444,0.2799392342567444,link6
1763837707.6011176,ddpg_train,FAR,train,4,16,-4.461500839588836,0,77,1,0.244,-0.042,0.612,0.3391671,-0.28865406,1.6192764,1.6854239,-1.7760602,-2.359689,0.0,0.0,0.0,0.23018015921115875,0.23018015921115875,link6
1763837708.9773352,ddpg_train,FAR,train,4,17,-4.812261867335546,0,78,1,0.233,0.016,0.707,0.6125944,-0.24462995,1.3307952,1.5880196,-1.8165426,-2.4229753,0.0,0.0,0.0,0.2674218416213989,0.2674218416213989,link6
1763837710.3699484,ddpg_train,FAR,train,4,18,-4.93519475733007,0,79,1,0.265,0.029,0.687,0.57639533,-0.19708133,1.3206384,1.7319313,-1.7660776,-2.5881596,0.0,0.0,0.0,0.2275475412607193,0.2275475412607193,link6
1763837711.7535076,ddpg_train,FAR,train,4,19,-4.841119597368526,0,80,1,0.278,0.039,0.676,0.5793039,-0.17837588,1.3229162,1.7998075,-1.7413423,-2.624972,0.0,0.0,0.0,0.24095116555690765,0.24095116555690765,link6
1763837715.3962355,ddpg_train,FAR,train,5,0,-6.550918410775046,0,81,1,0.228,0.038,0.957,0.5047252,-0.06553456,0.7343848,1.1729838,-0.7307843,-1.3017813,0.0,0.0,0.0,0.20497950911521912,0.20497950911521912,link6
1763837716.7734063,ddpg_train,FAR,train,5,1,-6.159259921045836,0,82,1,0.326,0.118,0.807,0.6575771,-0.06332773,1.0572784,1.5155548,-1.0300984,-1.7071998,0.0,0.0,0.0,0.17267251014709473,0.17267251014709473,link6
1763837718.1522357,ddpg_train,FAR,train,5,2,-5.230291836907759,0,83,1,0.301,-0.004,0.697,0.39674872,-0.11557863,1.353481,1.3891104,-1.7195107,-2.1496737,0.0,0.0,0.0,0.20025865733623505,0.20025865733623505,link6
1763837719.5300117,ddpg_train,FAR,train,5,3,-4.703333638459922,0,84,1,0.253,0.019,0.69,0.531217,-0.1423358,1.3337406,1.4070866,-2.046258,-2.3127222,0.0,0.0,0.0,0.283929705619812,0.283929705619812,link6
1763837720.9081068,ddpg_train,FAR,train,5,4,-4.5513460773476915,0,85,1,0.214,0.034,0.696,0.6160292,-0.14846991,1.2894855,1.3773497,-2.256512,-2.3099918,0.0,0.0,0.0,0.3337397575378418,0.3337397575378418,link6
1763837722.286641,ddpg_train,FAR,train,5,5,-4.31047247819401,0,86,1,0.169,0.05,0.665,0.44113258,-0.121501416,1.2974409,1.2442482,-2.9081473,-2.3532586,0.0,0.0,0.0,0.33092087507247925,0.33092087507247925,link6
1763837723.6920426,ddpg_train,FAR,train,5,6,-3.997026943843606,0,87,1,0.186,0.064,0.6,0.5333235,-0.13287342,1.5666938,1.4529036,-2.8113942,-2.5017347,0.0,0.0,0.0,0.3177238702774048,0.3177238702774048,link6
1763837725.0721054,ddpg_train,FAR,train,5,7,-3.833292653074219,0,88,1,0.19,0.066,0.57,0.5325309,-0.12885517,1.6687303,1.5167953,-2.8057861,-2.5692842,0.0,0.0,0.0,0.3186352849006653,0.3186352849006653,link6
1763837726.4499083,ddpg_train,FAR,train,5,8,-3.891326800023598,0,89,1,0.177,-0.034,0.59,-0.013902976,-0.16789316,1.6131111,1.5701398,-2.876556,-2.539143,0.0,0.0,0.0,0.3271051049232483,0.3271051049232483,link6
1763837727.8262734,ddpg_train,FAR,train,5,9,-3.9934916357802916,0,90,1,0.178,-0.068,0.607,-0.08533489,-0.1642405,1.5273281,1.6446614,-2.697314,-2.5876224,0.0,0.0,0.0,0.33452290296554565,0.33452290296554565,link6
1763837729.2520487,ddpg_train,FAR,train,5,10,-4.208417948645755,0,91,1,0.175,-0.09,0.635,-0.12906948,-0.16285722,1.4055125,1.712397,-2.568724,-2.6200018,0.0,0.0,0.0,0.3125118017196655,0.3125118017196655,link6
1763837730.631751,ddpg_train,FAR,train,5,11,-4.129881493097392,0,92,1,0.205,-0.027,0.614,0.16790228,-0.13248593,1.488968,1.5555314,-2.6660671,-2.678274,0.0,0.0,0.0,0.30258017778396606,0.30258017778396606,link6
1763837732.008831,ddpg_train,FAR,train,5,12,-3.997707891260403,0,93,1,0.199,-0.006,0.603,0.24643365,-0.15058751,1.580548,1.4336225,-2.6871207,-2.735727,0.0,0.0,0.0,0.32828348875045776,0.32828348875045776,link6
1763837733.5056837,ddpg_train,FAR,train,5,13,-3.914390326719397,0,94,1,0.174,-0.022,0.595,0.12959519,-0.19927979,1.6970075,1.1561167,-2.734679,-2.8739746,0.0,0.0,0.0,0.3256952166557312,0.3256952166557312,link6
1763837734.8855348,ddpg_train,FAR,train,5,14,-3.8026527379014357,0,95,1,0.176,-0.051,0.576,-0.014132915,-0.19397637,1.7604576,1.2144285,-2.692251,-2.6822035,0.0,0.0,0.0,0.334678590297699,0.334678590297699,link6
1763837736.2790504,ddpg_train,FAR,train,5,15,-3.772789595879951,0,96,1,0.169,-0.075,0.574,-0.112004705,-0.20164526,1.7798871,1.2343849,-2.6411502,-2.5206401,0.0,0.0,0.0,0.3476831316947937,0.3476831316947937,link6
1763837737.656866,ddpg_train,FAR,train,5,16,-3.8461881692103184,0,97,1,0.172,-0.039,0.583,0.058523603,-0.21990067,1.8197485,0.9333197,-2.6404397,-2.2458215,0.0,0.0,0.0,0.32616186141967773,0.32616186141967773,link6
1763837739.0583086,ddpg_train,FAR,train,5,17,-3.7066141217248534,0,98,1,0.172,-0.058,0.563,-0.060198545,-0.21238028,1.8795642,0.9910468,-2.635171,-2.1862469,0.0,0.0,0.0,0.3458484411239624,0.3458484411239624,link6
1763837740.4401705,ddpg_train,FAR,train,5,18,-3.9110691932159463,0,99,1,0.137,-0.097,0.607,-0.30445272,-0.22815593,1.6808234,1.157327,-2.6666853,-2.4306023,0.0,0.0,0.0,0.3631596565246582,0.3631596565246582,link6
1763837741.8202758,ddpg_train,FAR,train,5,19,-3.8558425340995806,0,100,1,0.144,-0.091,0.595,-0.3198084,-0.20597613,1.6942589,1.1461375,-2.767428,-2.5248733,0.0,0.0,0.0,0.3558417558670044,0.3558417558670044,link6
1763837745.4649892,ddpg_train,FAR,train,6,0,-5.418814260956437,0,101,1,0.171,-0.011,0.855,0.3691485,-0.08699808,0.9454114,0.64599,-1.828079,-1.467814,0.0,0.0,0.0,0.3287133574485779,0.3287133574485779,link6
1763837746.8554304,ddpg_train,FAR,train,6,1,-4.849092638727369,0,102,1,0.162,-0.069,0.764,-0.07429742,-0.096999794,1.1099708,0.7931588,-2.398697,-2.3296697,0.0,0.0,0.0,0.3541008234024048,0.3541008234024048,link6
1763837748.2329228,ddpg_train,FAR,train,6,2,-4.469803232744486,0,103,1,0.165,-0.083,0.692,-0.27151582,-0.096492656,1.2670096,0.8627979,-2.750525,-2.6535442,0.0,0.0,0.0,0.33670610189437866,0.33670610189437866,link6
1763837749.6115541,ddpg_train,FAR,train,6,3,-4.179786588929728,0,104,1,0.132,-0.102,0.655,-0.55551034,-0.15135969,1.3964415,0.76413643,-2.9332008,-2.4926455,0.0,0.0,0.0,0.36942338943481445,0.36942338943481445,link6
1763837750.9889386,ddpg_train,FAR,train,6,4,-4.254666631884992,0,105,1,0.126,-0.062,0.679,-0.38597202,-0.17983857,1.2578868,0.6338635,-3.031602,-2.7045503,0.0,0.0,0.0,0.3969114422798157,0.3969114422798157,link6
1763837752.3665895,ddpg_train,FAR,train,6,5,-4.297656559792652,0,106,1,0.115,-0.038,0.685,-0.28527167,-0.20985486,1.2557322,0.5855098,-3.090982,-2.7870705,0.0,0.0,0.0,0.3697660565376282,0.3697660565376282,link6
1763837753.744749,ddpg_train,FAR,train,6,6,-3.8162812551991827,0,107,1,0.134,-0.049,0.598,-0.33433694,-0.23866758,1.6365128,0.61303824,-3.10715,-2.5624933,0.0,0.0,0.0,0.36685335636138916,0.36685335636138916,link6
1763837755.1263545,ddpg_train,FAR,train,6,7,-3.8601279305502048,0,108,1,0.132,-0.058,0.607,-0.41008708,-0.22972317,1.5799093,0.7369316,-3.1269226,-2.492373,0.0,0.0,0.0,0.3756762146949768,0.3756762146949768,link6
1763837756.5170245,ddpg_train,FAR,train,6,8,-3.892096352784456,0,109,1,0.127,-0.07,0.615,-0.5061687,-0.2224663,1.54144,0.7916719,-3.1403081,-2.470094,0.0,0.0,0.0,0.39030295610427856,0.39030295610427856,link6
1763837757.8979104,ddpg_train,FAR,train,6,9,-4.273516804984277,0,110,1,0.078,-0.091,0.691,-0.7991746,-0.20655473,1.2335618,0.50511414,-3.0103178,-2.3339365,0.0,0.0,0.0,0.43334221839904785,0.43334221839904785,link6
1763837759.2751498,ddpg_train,FAR,train,6,10,-4.377381101953651,0,111,1,0.089,-0.08,0.704,-0.71026486,-0.18489283,1.1487105,0.36097345,-3.0638106,-2.2734818,0.0,0.0,0.0,0.39868682622909546,0.39868682622909546,link6
1763837760.6574898,ddpg_train,FAR,train,6,11,-4.382827254511216,0,112,1,0.105,-0.074,0.707,-0.61389756,-0.15878789,1.0793273,0.22276379,-3.137582,-2.2945442,0.0,0.0,0.0,0.4249212145805359,0.4249212145805359,link6
1763837762.0403817,ddpg_train,FAR,train,6,12,-4.796262371723427,0,113,1,0.016,-0.0,0.794,-0.47694442,-0.18643877,0.6924663,-0.1799512,-2.7947679,-2.623803,0.0,0.0,0.0,0.5073727965354919,0.5073727965354919,link6
1763837763.420443,ddpg_train,FAR,train,6,13,-4.806195494949227,0,114,1,0.005,0.003,0.792,-0.3667905,-0.19861655,0.6819234,-0.13063414,-2.8712437,-2.5919113,0.0,0.0,0.0,0.4526974558830261,0.4526974558830261,link6
1763837764.8014677,ddpg_train,FAR,train,6,14,-4.672374140815598,0,115,1,0.003,-0.001,0.773,-0.40589538,-0.24434258,0.67636025,0.40384266,-3.1391788,-2.7456458,0.0,0.0,0.0,0.4981018304824829,0.4981018304824829,link6
1763837766.180417,ddpg_train,FAR,train,6,15,-4.684107052235094,0,116,1,-0.025,0.016,0.776,-0.5672007,-0.28486156,0.6440321,0.33156213,-3.138619,-2.9268303,0.0,0.0,0.0,0.5310294032096863,0.5310294032096863,link6
1763837767.5669274,ddpg_train,FAR,train,6,16,-4.706193667604227,0,117,1,-0.054,0.039,0.779,-0.63137066,-0.32119557,0.5716464,0.29858002,-3.1383111,-2.8828797,0.0,0.0,0.0,0.5800018310546875,0.5800018310546875,link6
1763837768.9470515,ddpg_train,FAR,train,6,17,-4.79120678358169,0,118,1,-0.08,0.055,0.79,-0.6592372,-0.30342397,0.49735478,0.24360867,-2.957928,-2.6007102,0.0,0.0,0.0,0.5773147940635681,0.5773147940635681,link6
1763837770.3415,ddpg_train,FAR,train,6,18,-4.843460278217644,0,119,1,-0.124,0.099,0.79,-0.7327923,-0.3613608,0.45035118,0.21272124,-2.8139732,-2.509306,0.0,0.0,0.0,0.6342817544937134,0.6342817544937134,link6
1763837771.7207692,ddpg_train,FAR,train,6,19,-4.893197376842761,0,120,1,-0.154,0.154,0.784,-0.8257553,-0.4075643,0.3888553,0.17356881,-2.7128985,-2.4305239,0.0,0.0,0.0,0.6112957000732422,0.6112957000732422,link6
1763837775.365953,ddpg_train,FAR,train,7,0,-6.089445295505735,0,121,1,0.028,-0.016,1.005,-0.15015674,-0.025668517,0.35968873,0.10757899,-1.040393,-0.68186045,0.0,0.0,0.0,0.4485759735107422,0.4485759735107422,link6
1763837776.7479196,ddpg_train,FAR,train,7,1,-5.664143558094226,0,122,1,0.025,-0.019,0.942,-0.2646664,-0.035470776,0.4748964,0.09616955,-1.6351743,-1.2077813,0.0,0.0,0.0,0.6319490671157837,0.6319490671157837,link6
1763837778.126703,ddpg_train,FAR,train,7,2,-5.211278679623481,0,123,1,-0.158,0.188,0.832,-0.7011268,-0.16242369,-0.11206493,-0.4419379,-2.0682995,-2.0949087,0.0,0.0,0.0,0.6666765213012695,0.6666765213012695,link6
1763837779.5046117,ddpg_train,FAR,train,7,3,-5.166088928513179,0,124,1,-0.199,0.203,0.812,-0.5907777,-0.22538252,-0.11289316,-0.5680471,-2.0894723,-2.1176698,0.0,0.0,0.0,0.7092463970184326,0.7092463970184326,link6
1763837780.8818598,ddpg_train,FAR,train,7,4,-5.168588692632381,0,125,1,-0.229,0.189,0.808,-0.45872986,-0.26498377,-0.08580832,-0.670235,-2.0988648,-2.133472,0.0,0.0,0.0,0.7231639623641968,0.7231639623641968,link6
1763837782.2670383,ddpg_train,FAR,train,7,5,-5.142369509794532,0,126,1,-0.199,0.113,0.825,-0.24204172,-0.26706678,0.1387191,-0.69308466,-2.2649724,-2.5020962,0.0,0.0,0.0,0.6819400191307068,0.6819400191307068,link6
1763837783.6514452,ddpg_train,FAR,train,7,6,-5.037777997325432,0,127,1,-0.244,0.149,0.789,-0.36970046,-0.32975212,0.028240943,-0.63024485,-2.361879,-2.6608407,0.0,0.0,0.0,0.7572067975997925,0.7572067975997925,link6
1763837785.0315714,ddpg_train,FAR,train,7,7,-4.990146640120985,0,128,1,-0.304,0.095,0.768,-0.19276267,-0.38036492,0.029952455,-0.43698254,-2.4088097,-2.8229957,0.0,0.0,0.0,0.8043588995933533,0.8043588995933533,link6
1763837786.4201534,ddpg_train,FAR,train,7,8,-4.960764523974209,0,129,1,-0.343,-0.007,0.752,0.11485942,-0.4121986,0.025830327,-0.32274148,-2.4291003,-3.052813,0.0,0.0,0.0,0.8178959488868713,0.8178959488868713,link6
1763837787.7989702,ddpg_train,FAR,train,7,9,-4.924029709944653,0,130,1,-0.335,-0.029,0.748,0.14166628,-0.45633385,0.112801805,-0.2879833,-2.547386,-3.1219783,0.0,0.0,0.0,0.7291126847267151,0.7291126847267151,link6
1763837789.1905377,ddpg_train,FAR,train,7,10,-4.800483241322667,0,131,1,-0.199,-0.042,0.773,0.20683014,-0.38049534,0.1669225,0.010997171,-3.1416576,-3.1422067,0.0,0.0,0.0,0.6984089016914368,0.6984089016914368,link6
1763837790.568054,ddpg_train,FAR,train,7,11,-4.773812776254523,0,132,1,-0.28,-0.023,0.744,0.060129263,-0.49386108,0.19740093,0.16467747,-3.0103788,-3.1417458,0.0,0.0,0.0,0.7750476002693176,0.7750476002693176,link6
1763837791.9507136,ddpg_train,FAR,train,7,12,-4.734140309420191,0,133,1,-0.355,0.012,0.704,-0.056772612,-0.6190607,0.20154583,0.2137767,-2.981294,-3.1216357,0.0,0.0,0.0,0.7438914179801941,0.7438914179801941,link6
1763837793.3320134,ddpg_train,FAR,train,7,13,-4.755859283232077,0,134,1,-0.253,0.05,0.749,-0.19447978,-0.49442965,0.25190052,0.87653095,-3.1403477,-2.9430718,0.0,0.0,0.0,0.74430251121521,0.74430251121521,link6
1763837794.7154593,ddpg_train,FAR,train,7,14,-4.728986154051919,0,135,1,-0.326,0.101,0.71,-0.3106678,-0.5785261,0.10256924,0.69701076,-3.1439204,-2.8528545,0.0,0.0,0.0,0.7648594379425049,0.7648594379425049,link6
1763837796.1034286,ddpg_train,FAR,train,7,15,-4.715849250296462,0,136,1,-0.343,0.136,0.693,-0.37897283,-0.6232211,0.05605701,0.60402197,-3.1455297,-2.8095198,0.0,0.0,0.0,0.6867874264717102,0.6867874264717102,link6
1763837797.4911096,ddpg_train,FAR,train,7,16,-4.762425677299329,0,137,1,-0.149,0.132,0.767,-0.73654795,-0.4441603,0.35150665,0.87849736,-3.1409905,-2.877625,0.0,0.0,0.0,0.6442237496376038,0.6442237496376038,link6
1763837798.868638,ddpg_train,FAR,train,7,17,-4.719146413531112,0,138,1,-0.149,0.189,0.746,-0.90850884,-0.5449278,0.4422826,0.9737323,-3.1413496,-2.8190806,0.0,0.0,0.0,0.5745813250541687,0.5745813250541687,link6
1763837800.2468586,ddpg_train,FAR,train,7,18,-4.718311675184122,0,139,1,-0.051,0.084,0.778,-1.0226034,-0.35372886,0.5341867,1.039828,-3.1393359,-2.7210436,0.0,0.0,0.0,0.5935368537902832,0.5935368537902832,link6
1763837801.6276748,ddpg_train,FAR,train,7,19,-4.744043958590257,0,140,1,-0.09,0.095,0.778,-0.81224406,-0.3795394,0.45609167,1.0893394,-3.140396,-2.431476,0.0,0.0,0.0,0.6168695092201233,0.6168695092201233,link6
1763837805.3006914,ddpg_train,FAR,train,8,0,-6.309543521938753,0,141,1,-0.039,-0.004,1.047,0.01411596,-0.019154768,0.05271945,0.090004474,-0.41877294,-0.12545633,0.0,0.0,0.0,0.5375584959983826,0.5375584959983826,link6
1763837806.6814868,ddpg_train,FAR,train,8,1,-5.1509703337143895,0,142,1,-0.017,-0.048,0.852,-0.009394314,-0.0828762,0.40212646,0.5823323,-2.3486135,-0.86613566,0.0,0.0,0.0,0.5121068954467773,0.5121068954467773,link6
1763837808.0642972,ddpg_train,FAR,train,8,2,-5.000165470521887,0,143,1,-0.054,-0.025,0.829,-0.123478666,-0.17376459,0.45839623,0.45856926,-2.5797358,-1.5903195,0.0,0.0,0.0,0.5924351811408997,0.5924351811408997,link6
1763837809.4503045,ddpg_train,FAR,train,8,3,-4.78018964340319,0,144,1,-0.124,0.046,0.784,-0.3725108,-0.37099415,0.54860955,0.07010202,-2.9108298,-2.7461383,0.0,0.0,0.0,0.6242440342903137,0.6242440342903137,link6
1763837810.8276448,ddpg_train,FAR,train,8,4,-4.678574683313675,0,145,1,-0.121,0.068,0.765,-0.5088159,-0.44404987,0.6292701,-0.07474567,-3.0850356,-2.8192098,0.0,0.0,0.0,0.5904378294944763,0.5904378294944763,link6
1763837812.20575,ddpg_train,FAR,train,8,5,-4.663005880552767,0,146,1,-0.105,0.063,0.766,-0.53662413,-0.42630088,0.6172206,-0.13221323,-3.1405482,-2.8918755,0.0,0.0,0.0,0.6359277963638306,0.6359277963638306,link6
1763837813.5954614,ddpg_train,FAR,train,8,6,-4.793069114716844,0,147,1,-0.178,0.103,0.771,-0.52585894,-0.39696696,0.18504821,-0.18978673,-3.1431172,-3.1409342,0.0,0.0,0.0,0.6843414306640625,0.6843414306640625,link6
1763837814.9831452,ddpg_train,FAR,train,8,7,-4.76683729903513,0,148,1,-0.196,0.115,0.76,-0.52862513,-0.46023315,0.28635076,-0.38252443,-3.143423,-3.1448112,0.0,0.0,0.0,0.6521873474121094,0.6521873474121094,link6
1763837816.3610091,ddpg_train,FAR,train,8,8,-4.756517012159191,0,149,1,-0.169,0.099,0.767,-0.5303788,-0.44848594,0.36995333,-0.51031584,-3.143188,-3.1138837,0.0,0.0,0.0,0.6594471335411072,0.6594471335411072,link6
1763837817.739326,ddpg_train,FAR,train,8,9,-4.731858161266755,0,150,1,-0.21,0.136,0.747,-0.5019442,-0.55056804,0.4864857,-0.796434,-2.9397418,-2.9302044,0.0,0.0,0.0,0.6878401041030884,0.6878401041030884,link6
1763837819.1158926,ddpg_train,FAR,train,8,10,-4.685156376204708,0,151,1,-0.278,0.192,0.703,-0.5800612,-0.6772356,0.39126608,-0.7572188,-3.0342736,-2.9039888,0.0,0.0,0.0,0.6845388412475586,0.6845388412475586,link6
1763837820.4948375,ddpg_train,FAR,train,8,11,-4.762240056975116,0,152,1,-0.18,0.147,0.758,-0.67997915,-0.4718258,0.28481638,-0.7365857,-3.1161788,-2.8976605,0.0,0.0,0.0,0.685245156288147,0.685245156288147,link6
1763837821.880244,ddpg_train,FAR,train,8,12,-4.788439968004392,0,153,1,-0.186,0.244,0.736,-0.8304178,-0.5149501,0.15141061,-0.9661499,-2.8785415,-2.9858403,0.0,0.0,0.0,0.7103636860847473,0.7103636860847473,link6
1763837823.2680588,ddpg_train,FAR,train,8,13,-4.762663752473897,0,154,1,-0.198,0.25,0.726,-0.85179716,-0.5275811,0.09774278,-0.9836621,-2.9874382,-2.964709,0.0,0.0,0.0,0.6922910809516907,0.6922910809516907,link6
1763837824.6517274,ddpg_train,FAR,train,8,14,-4.771627553981612,0,155,1,-0.136,0.163,0.765,-0.8136567,-0.44968,0.33022684,-1.1643672,-3.0305092,-3.032084,0.0,0.0,0.0,0.6415596008300781,0.6415596008300781,link6
1763837826.0335045,ddpg_train,FAR,train,8,15,-4.7751278864810685,0,156,1,-0.114,0.12,0.777,-0.72253734,-0.4017034,0.38637593,-1.2973135,-3.0277503,-2.8938692,0.0,0.0,0.0,0.6374152302742004,0.6374152302742004,link6
1763837827.4152431,ddpg_train,FAR,train,8,16,-4.768298719541472,0,157,1,-0.117,0.116,0.776,-0.71789604,-0.396426,0.37942448,-1.3432416,-3.0577455,-2.906125,0.0,0.0,0.0,0.6375548243522644,0.6375548243522644,link6
1763837828.7950776,ddpg_train,FAR,train,8,17,-4.7551194898099665,0,158,1,-0.152,0.115,0.768,-0.64412373,-0.44220793,0.3821108,-1.5165244,-3.1427608,-2.935213,0.0,0.0,0.0,0.6525260210037231,0.6525260210037231,link6
1763837830.1764586,ddpg_train,FAR,train,8,18,-4.7413963182852115,0,159,1,-0.127,0.101,0.772,-0.5732786,-0.42918757,0.45588234,-1.6297735,-3.007382,-2.893903,0.0,0.0,0.0,0.6415078639984131,0.6415078639984131,link6
1763837831.5599275,ddpg_train,FAR,train,8,19,-4.722129629160656,0,160,1,-0.154,0.124,0.761,-0.5093184,-0.5081803,0.48575562,-1.7090257,-2.862966,-2.8749318,0.0,0.0,0.0,0.7004641890525818,0.7004641890525818,link6
1763837835.204803,ddpg_train,FAR,train,9,0,-5.823104871944131,0,161,1,-0.242,0.101,0.934,-0.26104325,-0.09324434,-0.22413078,-0.38129997,-1.2052225,-0.6186806,0.0,0.0,0.0,0.76328444480896,0.76328444480896,link6
1763837836.5834622,ddpg_train,FAR,train,9,1,-5.276152659040604,0,162,1,-0.288,0.169,0.813,-0.2898441,-0.20887296,-0.27266592,-0.69554067,-1.802096,-1.1245661,0.0,0.0,0.0,0.7515585422515869,0.7515585422515869,link6
1763837837.9607553,ddpg_train,FAR,train,9,2,-4.975662204336319,0,163,1,-0.189,0.11,0.799,-0.18418126,-0.36217874,0.17867476,-1.4203173,-2.4965844,-2.5955648,0.0,0.0,0.0,0.6839882135391235,0.6839882135391235,link6
1763837839.339367,ddpg_train,FAR,train,9,3,-4.829232226043449,0,164,1,-0.182,0.109,0.775,-0.26564175,-0.48707107,0.41729525,-1.7326735,-2.6534653,-2.730661,0.0,0.0,0.0,0.6417219638824463,0.6417219638824463,link6
1763837840.8179603,ddpg_train,FAR,train,9,4,-4.697619762369746,0,165,1,-0.155,0.099,0.758,-0.31696624,-0.5393066,0.6073181,-1.9228578,-2.7426496,-2.828217,0.0,0.0,0.0,0.5645991563796997,0.5645991563796997,link6
1763837842.1966841,ddpg_train,FAR,train,9,5,-4.518603267509499,0,166,1,-0.023,0.063,0.745,-0.4683615,-0.43865743,0.90134287,-1.9251184,-2.7353022,-2.9785001,0.0,0.0,0.0,0.5098579525947571,0.5098579525947571,link6
1763837843.581123,ddpg_train,FAR,train,9,6,-4.414839119129395,0,167,1,0.065,0.011,0.727,-0.5658172,-0.31814325,1.0090195,-1.9910142,-2.7486336,-3.0501196,0.0,0.0,0.0,0.4963507652282715,0.4963507652282715,link6
1763837844.9690473,ddpg_train,FAR,train,9,7,-4.210867574570308,0,168,1,0.013,0.021,0.695,-0.81276625,-0.4605342,1.1928644,-2.140468,-2.9173717,-3.1378136,0.0,0.0,0.0,0.48734337091445923,0.48734337091445923,link6
1763837846.350376,ddpg_train,FAR,train,9,8,-4.343793825394657,0,169,1,0.02,0.02,0.718,-0.7821805,-0.412707,1.0489141,-2.0803337,-2.8724327,-3.145473,0.0,0.0,0.0,0.5037415623664856,0.5037415623664856,link6
1763837847.7322037,ddpg_train,FAR,train,9,9,-4.389434539077412,0,170,1,0.055,-0.019,0.726,-0.7160075,-0.28802302,0.98754895,-2.1245153,-2.9493744,-3.1498187,0.0,0.0,0.0,0.5548564791679382,0.5548564791679382,link6
1763837849.1116123,ddpg_train,FAR,train,9,10,-4.389754521447995,0,171,1,-0.021,0.053,0.725,-0.5809186,-0.48541397,0.98735344,-2.1968806,-2.802492,-2.847931,0.0,0.0,0.0,0.5246599316596985,0.5246599316596985,link6
1763837850.559322,ddpg_train,FAR,train,9,11,-4.526436169459792,0,172,1,-0.081,0.079,0.744,-0.45823884,-0.512261,0.8202043,-2.003409,-2.8274362,-2.772287,0.0,0.0,0.0,0.6109323501586914,0.6109323501586914,link6
1763837851.9445918,ddpg_train,FAR,train,9,12,-4.562907383626879,0,173,1,-0.172,0.114,0.73,-0.42812765,-0.6379805,0.74364126,-1.9396762,-2.8580463,-2.6969464,0.0,0.0,0.0,0.6093851923942566,0.6093851923942566,link6
1763837853.3878126,ddpg_train,FAR,train,9,13,-4.628377041562422,0,174,1,-0.134,0.065,0.755,-0.264597,-0.5129958,0.6396636,-2.3178601,-2.8335738,-2.5896013,0.0,0.0,0.0,0.6111895442008972,0.6111895442008972,link6
1763837854.7744808,ddpg_train,FAR,train,9,14,-4.6118240013093725,0,175,1,-0.106,0.062,0.756,-0.29643607,-0.49200565,0.68202823,-2.3687818,-2.8066266,-2.561832,0.0,0.0,0.0,0.572160005569458,0.572160005569458,link6
1763837856.1528242,ddpg_train,FAR,train,9,15,-4.637463893574209,0,176,1,-0.158,0.025,0.755,-0.09669251,-0.51290643,0.59115046,-2.7552428,-2.9539626,-2.2175167,0.0,0.0,0.0,0.6585390567779541,0.6585390567779541,link6
1763837857.5335612,ddpg_train,FAR,train,9,16,-4.552773754763535,0,177,1,-0.114,0.033,0.747,-0.2237565,-0.49624497,0.761559,-2.744991,-2.9886348,-2.2878056,0.0,0.0,0.0,0.5838914513587952,0.5838914513587952,link6
1763837858.9150639,ddpg_train,FAR,train,9,17,-4.465571863429877,0,178,1,-0.087,0.038,0.735,-0.30974704,-0.5118429,0.86124825,-2.7417328,-2.9358022,-2.3809521,0.0,0.0,0.0,0.557611346244812,0.557611346244812,link6
1763837860.2992945,ddpg_train,FAR,train,9,18,-4.603300672803293,0,179,1,-0.078,0.092,0.755,-0.68054426,-0.5073963,0.66172713,-2.6391075,-2.741063,-2.775545,0.0,0.0,0.0,0.5753503441810608,0.5753503441810608,link6
1763837861.679084,ddpg_train,FAR,train,9,19,-4.601639525991477,0,180,1,-0.17,0.118,0.737,-0.5534292,-0.6092997,0.5970232,-2.9098802,-2.8445306,-2.8102329,0.0,0.0,0.0,0.6362093687057495,0.6362093687057495,link6
1763837865.3235328,ddpg_train,FAR,train,10,0,-5.133340862251677,0,181,1,-0.134,0.145,0.831,-0.30150774,-0.15024063,-0.2548702,-1.6307888,-2.2203717,-0.99758714,0.0,0.0,0.0,0.637161135673523,0.637161135673523,link6
1763837866.703104,ddpg_train,FAR,train,10,1,-4.975500786126793,0,182,1,-0.097,0.098,0.815,-0.3390816,-0.32708597,0.20098251,-2.241252,-2.5074868,-1.4234412,0.0,0.0,0.0,0.5744100213050842,0.5744100213050842,link6
1763837868.0847075,ddpg_train,FAR,train,10,2,-4.741706358718878,0,183,1,-0.023,0.047,0.784,-0.4990137,-0.33273557,0.5329957,-2.544596,-2.7066393,-1.6457505,0.0,0.0,0.0,0.521247148513794,0.521247148513794,link6
1763837869.463663,ddpg_train,FAR,train,10,3,-4.294056030000755,0,184,1,0.012,-0.005,0.709,-0.7476107,-0.39338678,1.1091905,-2.8240676,-3.0306811,-1.8731754,0.0,0.0,0.0,0.48449259996414185,0.48449259996414185,link6
1763837870.863457,ddpg_train,FAR,train,10,4,-4.216674338785662,0,185,1,0.006,-0.005,0.697,-1.0047963,-0.42115405,1.2029223,-2.7491574,-3.0979214,-2.020145,0.0,0.0,0.0,0.49787938594818115,0.49787938594818115,link6
1763837872.2408967,ddpg_train,FAR,train,10,5,-4.207323623051989,0,186,1,0.013,-0.031,0.696,-1.1780452,-0.37352175,1.2273319,-2.6874921,-3.1418517,-2.1110902,0.0,0.0,0.0,0.5241718888282776,0.5241718888282776,link6
1763837873.700521,ddpg_train,FAR,train,10,6,-4.25138418153311,0,187,1,-0.002,0.02,0.703,-1.0667131,-0.46588194,1.1201425,-2.774546,-2.972647,-1.9128606,0.0,0.0,0.0,0.5062123537063599,0.5062123537063599,link6
1763837875.0810063,ddpg_train,FAR,train,10,7,-4.239939248889249,0,188,1,0.012,-0.01,0.702,-1.0467035,-0.40401435,1.1323708,-2.8662364,-3.003384,-1.8081772,0.0,0.0,0.0,0.5225191712379456,0.5225191712379456,link6
1763837876.4684856,ddpg_train,FAR,train,10,8,-4.261410210720151,0,189,1,-0.015,0.021,0.705,-0.9411235,-0.4692563,1.1786326,-3.0836227,-3.1414676,-1.8580635,0.0,0.0,0.0,0.5164586901664734,0.5164586901664734,link6
1763837877.8478208,ddpg_train,FAR,train,10,9,-4.221466329050625,0,190,1,0.0,0.0,0.699,-1.0069594,-0.44037256,1.215628,-3.1170478,-3.1416702,-2.018157,0.0,0.0,0.0,0.5204232335090637,0.5204232335090637,link6
1763837879.230257,ddpg_train,FAR,train,10,10,-4.118774554544247,0,191,1,0.005,-0.007,0.681,-1.0127609,-0.44853985,1.3320014,-3.1327975,-3.1415064,-2.092274,0.0,0.0,0.0,0.503753662109375,0.503753662109375,link6
1763837880.6143687,ddpg_train,FAR,train,10,11,-3.996841661435098,0,192,1,-0.005,0.032,0.66,-1.3993858,-0.559381,1.4218718,-3.1390119,-3.1410341,-2.315502,0.0,0.0,0.0,0.5049074292182922,0.5049074292182922,link6
1763837881.9962766,ddpg_train,FAR,train,10,12,-3.9705201122162905,0,193,1,-0.003,0.022,0.656,-1.4292295,-0.5464102,1.4411709,-3.062919,-3.1409483,-2.3722956,0.0,0.0,0.0,0.5043173432350159,0.5043173432350159,link6
1763837883.3763928,ddpg_train,FAR,train,10,13,-3.962604210531771,0,194,1,-0.003,0.021,0.655,-1.4185047,-0.54622084,1.4510014,-3.0086715,-3.14077,-2.3571124,0.0,0.0,0.0,0.5098035335540771,0.5098035335540771,link6
1763837884.7573328,ddpg_train,FAR,train,10,14,-3.9879570778132654,0,195,1,-0.019,0.034,0.659,-1.0517812,-0.57446,1.426314,-3.1235,-3.1409938,-2.0271196,0.0,0.0,0.0,0.5219240784645081,0.5219240784645081,link6
1763837886.1384523,ddpg_train,FAR,train,10,15,-4.043615337614724,0,196,1,-0.024,0.036,0.669,-0.9785632,-0.56435126,1.365489,-3.130673,-3.1409597,-1.7688559,0.0,0.0,0.0,0.546180248260498,0.546180248260498,link6
1763837887.5218103,ddpg_train,FAR,train,10,16,-3.7578387008384175,0,197,1,-0.008,0.01,0.621,-0.88568735,-0.5759327,1.6160742,-3.1405983,-3.1406639,-1.4315504,0.0,0.0,0.0,0.5081706643104553,0.5081706643104553,link6
1763837888.9417503,ddpg_train,FAR,train,10,17,-3.87096313868448,0,198,1,-0.015,0.022,0.64,-0.9654375,-0.57813996,1.5149382,-3.1339252,-3.1393828,-1.2190568,0.0,0.0,0.0,0.5197888016700745,0.5197888016700745,link6
1763837890.3322504,ddpg_train,FAR,train,10,18,-3.882812239288424,0,199,1,-0.011,0.014,0.642,-0.9115545,-0.55665743,1.516574,-3.1286492,-3.1405332,-1.1867467,0.0,0.0,0.0,0.5138540863990784,0.5138540863990784,link6
1763837891.7140305,ddpg_train,FAR,train,10,19,-3.816475341448606,0,200,1,0.025,-0.02,0.628,-0.7852749,-0.4860148,1.4689388,-3.0291145,-2.8846512,-1.539895,0.0,0.0,0.0,0.474254846572876,0.474254846572876,link6
1763837895.3582788,ddpg_train,FAR,train,11,0,-6.206096954864229,0,201,1,-0.017,0.035,1.02,-0.18059722,-0.00838381,0.16151276,-0.33340234,-0.866327,0.06081444,0.0,0.0,0.0,0.41148048639297485,0.41148048639297485,link6
1763837896.7462304,ddpg_train,FAR,train,11,1,-4.873899273652128,0,202,1,0.026,0.035,0.804,-0.39305755,-0.12975672,0.40378356,-1.4562087,-2.7923672,0.30165514,0.0,0.0,0.0,0.4760393500328064,0.4760393500328064,link6
1763837898.1263363,ddpg_train,FAR,train,11,2,-4.65321309753043,0,203,1,0.008,0.031,0.77,-0.55956835,-0.30963227,0.711285,-2.0910459,-2.8715756,0.00960357,0.0,0.0,0.0,0.5142294764518738,0.5142294764518738,link6
1763837899.508945,ddpg_train,FAR,train,11,3,-4.398875283756471,0,204,1,-0.018,0.039,0.726,-0.7013415,-0.45569605,0.9856564,-2.3800032,-2.9265108,-0.15667933,0.0,0.0,0.0,0.49545013904571533,0.49545013904571533,link6
1763837900.8874228,ddpg_train,FAR,train,11,4,-3.9019847063737423,0,205,1,0.023,0.007,0.643,-1.0438185,-0.51947576,1.4723796,-2.0545096,-2.9296765,-0.070436016,0.0,0.0,0.0,0.47965991497039795,0.47965991497039795,link6
1763837902.267894,ddpg_train,FAR,train,11,5,-3.896099550647308,0,206,1,0.041,-0.016,0.639,-1.1853944,-0.47448808,1.4796853,-2.0186653,-2.8557966,-0.08768263,0.0,0.0,0.0,0.4546591639518738,0.4546591639518738,link6
1763837903.6486356,ddpg_train,FAR,train,11,6,-3.94009184702406,0,207,1,0.048,-0.038,0.646,-1.3374168,-0.42971858,1.4471929,-1.9974813,-2.805451,-0.119309746,0.0,0.0,0.0,0.467290997505188,0.467290997505188,link6
1763837905.0285451,ddpg_train,FAR,train,11,7,-3.8495457809709657,0,208,1,0.009,-0.077,0.631,-1.7766465,-0.38442662,1.4785727,-2.2293594,-2.8973086,-0.393266,0.0,0.0,0.0,0.49595874547958374,0.49595874547958374,link6
1763837906.43077,ddpg_train,FAR,train,11,8,-3.7965882137482536,0,209,1,0.015,-0.081,0.62,-1.8475152,-0.42040035,1.4841523,-2.3459024,-2.704054,-0.511712,0.0,0.0,0.0,0.4735361337661743,0.4735361337661743,link6
1763837907.8334372,ddpg_train,FAR,train,11,9,-3.881707515863111,0,210,1,0.036,-0.033,0.637,-2.0695856,-0.5473096,1.448235,-2.2100437,-2.6453867,-0.57946855,0.0,0.0,0.0,0.4635801911354065,0.4635801911354065,link6
1763837909.3066,ddpg_train,FAR,train,11,10,-3.8342038731932186,0,211,1,0.036,-0.025,0.63,-2.0231948,-0.56075764,1.475406,-2.261305,-2.6757157,-0.62331706,0.0,0.0,0.0,0.4709036350250244,0.4709036350250244,link6
1763837910.689343,ddpg_train,FAR,train,11,11,-3.7906864314065083,0,212,1,0.03,-0.026,0.624,-2.0487087,-0.5597744,1.5060811,-2.296869,-2.7218704,-0.64080256,0.0,0.0,0.0,0.48506319522857666,0.48506319522857666,link6
1763837912.0756688,ddpg_train,FAR,train,11,12,-3.8614923053426953,0,213,1,0.003,0.0,0.638,-2.0716145,-0.53036684,1.5254929,-2.4270856,-3.1130989,-1.011011,0.0,0.0,0.0,0.5007141828536987,0.5007141828536987,link6
1763837913.455929,ddpg_train,FAR,train,11,13,-3.7217145505068046,0,214,1,0.0,-0.001,0.615,-2.0279472,-0.5534891,1.6549227,-2.4023304,-3.1372378,-1.1862001,0.0,0.0,0.0,0.5060571432113647,0.5060571432113647,link6
1763837914.8343701,ddpg_train,FAR,train,11,14,-2.9465001312234533,0,215,1,0.007,-0.054,0.482,-1.9578649,-0.5386041,2.028119,-2.6056328,-2.7041216,-1.2061071,0.0,0.0,0.0,0.49307817220687866,0.49307817220687866,link6
1763837916.2152557,ddpg_train,FAR,train,11,15,-3.1609811513144983,0,216,1,0.006,-0.021,0.521,-2.1872327,-0.6106702,1.9180206,-2.7013192,-2.8332093,-1.195368,0.0,0.0,0.0,0.5044118165969849,0.5044118165969849,link6
1763837917.599033,ddpg_train,FAR,train,11,16,-3.212816130876332,0,217,1,0.014,-0.003,0.53,-2.2544656,-0.6604998,1.8866172,-2.7718244,-2.8550365,-1.1019427,0.0,0.0,0.0,0.506226658821106,0.506226658821106,link6
1763837918.9804137,ddpg_train,FAR,train,11,17,-3.3314511167317935,0,218,1,-0.009,-0.01,0.55,-2.337302,-0.5785176,1.930553,-2.95043,-3.135717,-0.66773134,0.0,0.0,0.0,0.5100647807121277,0.5100647807121277,link6
1763837920.363004,ddpg_train,FAR,train,11,18,-3.5675302544196272,0,219,1,0.016,0.015,0.588,-2.374582,-0.63107586,1.7624273,-2.9262881,-3.1405256,-0.545509,0.0,0.0,0.0,0.49041956663131714,0.49041956663131714,link6
1763837921.74076,ddpg_train,FAR,train,11,19,-3.675530739611736,0,220,1,0.019,0.016,0.606,-2.4453669,-0.6198742,1.6849682,-2.924371,-3.1404345,-0.5254148,0.0,0.0,0.0,0.49204957485198975,0.49204957485198975,link6
1763837925.48061,ddpg_train,FAR,train,12,0,-5.485248639638711,0,221,1,0.087,0.039,0.903,-1.3449154,-0.044262912,0.2841373,-0.9641631,-1.9599879,0.061180387,0.0,0.0,0.0,0.4902687072753906,0.4902687072753906,link6
1763837926.8653092,ddpg_train,FAR,train,12,1,-4.831503085187165,0,222,1,0.009,-0.054,0.792,-1.9863701,-0.11516814,0.4817886,-1.5842704,-2.9093637,0.06475505,0.0,0.0,0.0,0.4295271635055542,0.4295271635055542,link6
1763837928.2477984,ddpg_train,FAR,train,12,2,-4.42308652666022,0,223,1,0.079,0.083,0.716,-2.3341513,-0.57530755,1.0353051,-2.9564753,-3.1424952,0.27153483,0.0,0.0,0.0,0.42347055673599243,0.42347055673599243,link6
1763837929.6294742,ddpg_train,FAR,train,12,3,-4.342683247669015,0,224,1,0.079,0.053,0.704,-2.5631614,-0.57755154,1.1295482,-3.0496566,-3.1290238,0.4921719,0.0,0.0,0.0,0.4131518602371216,0.4131518602371216,link6
1763837931.007744,ddpg_train,FAR,train,12,4,-4.191539686949126,0,225,1,0.04,-0.004,0.689,-2.9189909,-0.57593685,1.1227632,-2.9243562,-2.6390817,0.9602427,0.0,0.0,0.0,0.4595034122467041,0.4595034122467041,link6
1763837932.3872888,ddpg_train,FAR,train,12,5,-4.261563253198675,0,226,1,0.05,-0.005,0.698,-2.880172,-0.5692893,1.0746019,-2.8322756,-2.659617,1.1238134,0.0,0.0,0.0,0.43784356117248535,0.43784356117248535,link6
1763837933.7678664,ddpg_train,FAR,train,12,6,-4.319580517673632,0,227,1,0.065,0.002,0.701,-2.940656,-0.5705776,1.0618215,-2.881228,-2.7823708,1.1547958,0.0,0.0,0.0,0.395784854888916,0.395784854888916,link6
1763837935.2488794,ddpg_train,FAR,train,12,7,-4.269161681089813,0,228,1,0.064,-0.003,0.698,-3.140248,-0.5749104,1.0735973,-3.0672264,-2.776906,1.1266774,0.0,0.0,0.0,0.4365280866622925,0.4365280866622925,link6
1763837936.6328542,ddpg_train,FAR,train,12,8,-4.306412477312158,0,229,1,0.063,-0.003,0.7,-3.1337652,-0.55282515,1.0952837,-3.0376253,-2.9210725,0.97208524,0.0,0.0,0.0,0.40240907669067383,0.40240907669067383,link6
1763837938.01483,ddpg_train,FAR,train,12,9,-4.3299486568096865,0,230,1,0.079,-0.001,0.706,-3.1244893,-0.5512939,1.0993208,-3.0162392,-3.0296938,0.847286,0.0,0.0,0.0,0.4304960370063782,0.4304960370063782,link6
1763837939.3926241,ddpg_train,FAR,train,12,10,-4.17475660119213,0,231,1,0.056,0.005,0.683,-3.044325,-0.5662348,1.2443262,-3.1238458,-3.0418184,0.9638778,0.0,0.0,0.0,0.43757152557373047,0.43757152557373047,link6
1763837940.7718418,ddpg_train,FAR,train,12,11,-4.178087521595002,0,232,1,0.044,0.009,0.683,-2.9242623,-0.54450256,1.2664585,-3.1333504,-3.0878708,0.9360958,0.0,0.0,0.0,0.4251171946525574,0.4251171946525574,link6
1763837942.1490376,ddpg_train,FAR,train,12,12,-4.292684847571651,0,233,1,0.081,0.011,0.698,-3.003936,-0.5758094,1.126686,-3.1415515,-3.018792,0.8792422,0.0,0.0,0.0,0.41856253147125244,0.41856253147125244,link6
1763837943.5377986,ddpg_train,FAR,train,12,13,-4.0596218536107,0,234,1,0.034,0.007,0.668,-2.91997,-0.5608417,1.2885861,-3.1385632,-2.9318042,1.0385845,0.0,0.0,0.0,0.46839141845703125,0.46839141845703125,link6
1763837944.9193134,ddpg_train,FAR,train,12,14,-3.81872957211567,0,235,1,0.002,-0.0,0.632,-2.9004464,-0.55802685,1.44933,-3.1313453,-2.8405888,1.1898098,0.0,0.0,0.0,0.5232133269309998,0.5232133269309998,link6
1763837946.3074486,ddpg_train,FAR,train,12,15,-3.582165993178699,0,236,1,-0.018,-0.001,0.592,-3.0767033,-0.57542354,1.5795686,-3.1397345,-2.7310038,1.9812328,0.0,0.0,0.0,0.5166608095169067,0.5166608095169067,link6
1763837947.7022688,ddpg_train,FAR,train,12,16,-3.5241110045903308,0,237,1,-0.023,-0.003,0.582,-3.0555027,-0.5649986,1.636606,-3.131015,-2.7719324,2.0044484,0.0,0.0,0.0,0.5138278603553772,0.5138278603553772,link6
1763837949.0886476,ddpg_train,FAR,train,12,17,-3.525578325296129,0,238,1,-0.02,-0.003,0.581,-3.0400608,-0.5635618,1.6583909,-3.1268098,-2.8286014,2.0312915,0.0,0.0,0.0,0.48937302827835083,0.48937302827835083,link6
1763837950.4805617,ddpg_train,FAR,train,12,18,-3.9815600572132555,0,239,1,0.034,0.0,0.654,-3.129687,-0.572037,1.4315364,-3.137782,-3.1266112,2.2948108,0.0,0.0,0.0,0.45609450340270996,0.45609450340270996,link6
1763837951.86365,ddpg_train,FAR,train,12,19,-4.036146439318768,0,240,1,0.03,0.0,0.662,-3.1332366,-0.55249876,1.4073108,-3.1308894,-3.1413484,2.460331,0.0,0.0,0.0,0.44216829538345337,0.44216829538345337,link6
1763837955.5163348,ddpg_train,FAR,train,13,0,-4.833093483649955,0,241,1,0.07,0.007,0.788,-2.406599,-0.3835138,0.555036,-2.4971464,-2.6237264,1.5635879,0.0,0.0,0.0,0.4059485197067261,0.4059485197067261,link6
1763837956.8981977,ddpg_train,FAR,train,13,1,-4.5690234324212415,0,242,1,0.08,0.018,0.742,-2.8941615,-0.473946,0.8611902,-2.9576373,-3.0328345,2.0178554,0.0,0.0,0.0,0.401827335357666,0.401827335357666,link6
1763837958.279643,ddpg_train,FAR,train,13,2,-4.296150643495781,0,243,1,0.084,-0.0,0.698,-3.1415927,-0.5759422,1.1843667,-3.1413894,-3.1420584,2.4904842,0.0,0.0,0.0,0.4161343574523926,0.4161343574523926,link6
1763837959.6610155,ddpg_train,FAR,train,13,3,-4.073688136393263,0,244,1,0.041,0.007,0.669,-2.9750733,-0.5611763,1.3732013,-3.1384668,-3.1416109,2.3894336,0.0,0.0,0.0,0.4567146897315979,0.4567146897315979,link6
1763837961.0366142,ddpg_train,FAR,train,13,4,-3.8919520677650645,0,245,1,0.016,0.004,0.642,-2.9079378,-0.55649304,1.5229397,-3.1297712,-3.1410346,2.4883568,0.0,0.0,0.0,0.4861838221549988,0.4861838221549988,link6
1763837962.4217582,ddpg_train,FAR,train,13,5,-3.414876229727052,0,246,1,-0.011,-0.003,0.564,-2.8775957,-0.57592255,1.8742932,-3.0114164,-3.140974,2.460299,0.0,0.0,0.0,0.5109854340553284,0.5109854340553284,link6
1763837963.802664,ddpg_train,FAR,train,13,6,-3.428241260621544,0,247,1,-0.006,-0.002,0.566,-2.8463242,-0.58512807,1.858789,-2.8606691,-3.1410546,2.4317892,0.0,0.0,0.0,0.5050543546676636,0.5050543546676636,link6
1763837965.1956112,ddpg_train,FAR,train,13,7,-3.453550212849476,0,248,1,-0.006,-0.002,0.57,-2.7981465,-0.5836949,1.848139,-2.7341719,-3.141289,2.397367,0.0,0.0,0.0,0.5010444521903992,0.5010444521903992,link6
1763837966.6412416,ddpg_train,FAR,train,13,8,-3.5844492230160667,0,249,1,0.006,-0.023,0.591,-2.6514063,-0.579423,1.6603653,-2.3814874,-2.861861,2.4384198,0.0,0.0,0.0,0.49453431367874146,0.49453431367874146,link6
1763837968.0305731,ddpg_train,FAR,train,13,9,-3.3095814800438137,0,250,1,-0.001,-0.035,0.546,-2.7518134,-0.6029454,1.8492261,-2.327584,-2.7719405,2.391166,0.0,0.0,0.0,0.5226848125457764,0.5226848125457764,link6
1763837969.4467618,ddpg_train,FAR,train,13,10,-3.1424328413425506,0,251,1,-0.031,-0.027,0.518,-3.022625,-0.5543819,1.9527273,-2.4509516,-2.8458126,1.896892,0.0,0.0,0.0,0.5311987996101379,0.5311987996101379,link6
1763837970.8380897,ddpg_train,FAR,train,13,11,-3.0723875899133333,0,252,1,-0.017,-0.016,0.507,-2.9576225,-0.58409107,2.0411346,-2.516719,-2.966932,1.8050137,0.0,0.0,0.0,0.521528422832489,0.521528422832489,link6
1763837972.218436,ddpg_train,FAR,train,13,12,-2.9499388201918104,0,253,1,-0.007,-0.014,0.487,-2.9183547,-0.61407334,2.124633,-2.579151,-2.9445927,1.8263407,0.0,0.0,0.0,0.5242694616317749,0.5242694616317749,link6
1763837973.66686,ddpg_train,FAR,train,13,13,-2.6338880011612122,0,254,1,-0.027,-0.029,0.433,-3.0731916,-0.5703855,2.2228098,-2.6203806,-2.6979957,2.2820184,0.0,0.0,0.0,0.5296995043754578,0.5296995043754578,link6
1763837975.0485182,ddpg_train,FAR,train,13,14,-2.666372762991537,0,255,1,-0.016,-0.025,0.439,-2.7980494,-0.57659787,2.2307127,-2.707317,-2.793812,2.2492852,0.0,0.0,0.0,0.5245378613471985,0.5245378613471985,link6
1763837976.4279401,ddpg_train,FAR,train,13,15,-2.7619476152883866,0,256,1,-0.004,-0.015,0.456,-2.5753808,-0.6135122,2.196986,-2.8083782,-2.8792408,2.1847441,0.0,0.0,0.0,0.5324146151542664,0.5324146151542664,link6
1763837977.8121347,ddpg_train,FAR,train,13,16,-2.6756293583345263,0,257,1,-0.015,-0.012,0.441,-2.6265855,-0.58681047,2.2257168,-3.0816457,-2.8195584,2.1458173,0.0,0.0,0.0,0.5216909050941467,0.5216909050941467,link6
1763837979.1933818,ddpg_train,FAR,train,13,17,-2.7251871534178242,0,258,1,-0.0,-0.006,0.45,-2.5333953,-0.6450437,2.1705356,-3.0185013,-2.8153577,2.2434967,0.0,0.0,0.0,0.5300433039665222,0.5300433039665222,link6
1763837980.576201,ddpg_train,FAR,train,13,18,-3.0715965230572846,0,259,1,-0.015,-0.03,0.506,-2.4397035,-0.5762865,1.954629,-2.8295853,-2.785935,2.2478645,0.0,0.0,0.0,0.5152180194854736,0.5152180194854736,link6
1763837981.955646,ddpg_train,FAR,train,13,19,-3.0629220903002103,0,260,1,0.002,-0.022,0.505,-2.3936815,-0.62430245,1.963767,-2.7335238,-2.7802584,2.0349658,0.0,0.0,0.0,0.5115180611610413,0.5115180611610413,link6
1763837985.5984123,ddpg_train,FAR,train,14,0,-4.790303731328593,0,261,1,0.019,-0.084,0.787,-2.0135016,-0.17531385,0.885861,-0.88608533,-2.554057,1.1970887,0.0,0.0,0.0,0.48254507780075073,0.48254507780075073,link6
1763837986.9796124,ddpg_train,FAR,train,14,1,-4.026066045961443,0,262,1,0.012,-0.074,0.661,-2.0903447,-0.41832268,1.3204246,-2.2117293,-2.6427488,1.4255074,0.0,0.0,0.0,0.49721628427505493,0.49721628427505493,link6
1763837988.3977513,ddpg_train,FAR,train,14,2,-3.6947432754461955,0,263,1,-0.001,-0.054,0.61,-2.1802952,-0.53292805,1.4829984,-2.7119944,-2.533035,1.5765504,0.0,0.0,0.0,0.5500414967536926,0.5500414967536926,link6
1763837989.783762,ddpg_train,FAR,train,14,3,-3.4628238931943036,0,264,1,-0.067,-0.078,0.565,-2.6149294,-0.4960142,1.6078832,-2.7660248,-2.3123822,2.0908232,0.0,0.0,0.0,0.5675697922706604,0.5675697922706604,link6
1763837991.1667902,ddpg_train,FAR,train,14,4,-3.485504281944266,0,265,1,-0.06,-0.067,0.57,-2.683657,-0.4839125,1.6002817,-2.6975477,-2.4893887,2.2215345,0.0,0.0,0.0,0.5373371243476868,0.5373371243476868,link6
1763837992.5485508,ddpg_train,FAR,train,14,5,-3.5543587789639677,0,266,1,-0.056,-0.054,0.584,-2.744264,-0.46787804,1.5917255,-2.6588545,-2.6249075,2.3054085,0.0,0.0,0.0,0.555158793926239,0.555158793926239,link6
1763837993.9291017,ddpg_train,FAR,train,14,6,-3.177032672156009,0,267,1,-0.06,-0.032,0.522,-2.6908064,-0.44466734,1.9778552,-2.9739108,-3.0456662,2.1997805,0.0,0.0,0.0,0.5595659017562866,0.5595659017562866,link6
1763837995.313919,ddpg_train,FAR,train,14,7,-3.0405567245158007,0,268,1,-0.049,-0.021,0.501,-2.7620163,-0.4808171,2.1032217,-2.878561,-3.1063945,2.2267978,0.0,0.0,0.0,0.5650052428245544,0.5650052428245544,link6
1763837996.7010796,ddpg_train,FAR,train,14,8,-3.0073904370584605,0,269,1,-0.054,-0.017,0.495,-2.8457906,-0.47043654,2.14113,-2.7648716,-3.1332378,2.2441823,0.0,0.0,0.0,0.5625194907188416,0.5625194907188416,link6
1763837998.0840442,ddpg_train,FAR,train,14,9,-3.09213862679201,0,270,1,-0.052,-0.037,0.508,-2.7040203,-0.4624754,2.0097039,-2.6092684,-2.9595754,2.0798535,0.0,0.0,0.0,0.5512518882751465,0.5512518882751465,link6
1763837999.4644763,ddpg_train,FAR,train,14,10,-2.953909876269193,0,271,1,-0.04,-0.034,0.486,-2.7314596,-0.4999627,2.0831752,-2.6051264,-2.9037375,2.0964754,0.0,0.0,0.0,0.5475203990936279,0.5475203990936279,link6
1763838000.8649688,ddpg_train,FAR,train,14,11,-2.9627729447614204,0,272,1,-0.046,-0.033,0.487,-2.868343,-0.5462576,1.959047,-2.8375335,-2.6126,1.7748104,0.0,0.0,0.0,0.546811580657959,0.546811580657959,link6
1763838002.2598522,ddpg_train,FAR,train,14,12,-2.703290060968562,0,273,1,-0.031,-0.017,0.445,-2.887344,-0.56258494,2.164921,-2.9931462,-2.7293656,1.5798557,0.0,0.0,0.0,0.530327558517456,0.530327558517456,link6
1763838003.646993,ddpg_train,FAR,train,14,13,-2.6574471595924405,0,274,1,-0.014,-0.007,0.439,-2.980915,-0.60889417,2.2155678,-3.0293307,-2.7917337,1.4457569,0.0,0.0,0.0,0.5436502695083618,0.5436502695083618,link6
1763838005.035003,ddpg_train,FAR,train,14,14,-3.181504710562395,0,275,1,-0.039,-0.001,0.525,-3.1250587,-0.5250887,1.952261,-3.1266909,-2.9985106,1.082206,0.0,0.0,0.0,0.5389575958251953,0.5389575958251953,link6
1763838006.423376,ddpg_train,FAR,train,14,15,-3.3117312530874186,0,276,1,-0.045,-0.001,0.546,-3.1358435,-0.5010406,1.8959094,-3.1205313,-3.0677552,0.9126833,0.0,0.0,0.0,0.5313705801963806,0.5313705801963806,link6
1763838007.8090243,ddpg_train,FAR,train,14,16,-3.4288653496127295,0,277,1,-0.053,-0.001,0.565,-3.1356034,-0.47019604,1.8371173,-3.116625,-3.1021852,0.74676037,0.0,0.0,0.0,0.5340069532394409,0.5340069532394409,link6
1763838009.191999,ddpg_train,FAR,train,14,17,-3.109958443668427,0,278,1,-0.032,-0.002,0.513,-3.117685,-0.547578,2.006038,-3.0960546,-2.986571,0.62521636,0.0,0.0,0.0,0.5260921120643616,0.5260921120643616,link6
1763838010.5710504,ddpg_train,FAR,train,14,18,-2.771575044659003,0,279,1,-0.019,-0.004,0.456,-3.119413,-0.57803565,2.2520232,-2.973168,-2.9315171,0.6117483,0.0,0.0,0.0,0.5017783641815186,0.5017783641815186,link6
1763838011.956338,ddpg_train,FAR,train,14,19,-2.083629468020651,0,280,1,-0.008,-0.006,0.342,-2.8349643,-0.57682425,2.4596627,-3.1078696,-2.4713,0.46666136,0.0,0.0,0.0,0.5091223120689392,0.5091223120689392,link6
1763838015.6760147,ddpg_train,FAR,train,15,0,-6.054573764437634,0,281,1,0.098,-0.081,0.999,-0.9358199,-0.029709,0.6131378,-0.19598217,-1.0059472,0.23246601,0.0,0.0,0.0,0.6013692617416382,0.6013692617416382,link6
1763838017.0557976,ddpg_train,FAR,train,15,1,-3.348696150856173,0,282,1,-0.074,-0.121,0.537,-2.438849,-0.29268527,1.8768997,-1.7446425,-2.781682,0.23361246,0.0,0.0,0.0,0.5731861591339111,0.5731861591339111,link6
1763838018.4350927,ddpg_train,FAR,train,15,2,-2.5218803802706216,0,283,1,-0.022,-0.04,0.412,-2.551214,-0.47619444,2.355849,-2.5758853,-2.824318,-0.11335643,0.0,0.0,0.0,0.49689584970474243,0.49689584970474243,link6
1763838019.8237202,ddpg_train,FAR,train,15,3,-2.214724349742061,0,284,1,0.039,0.013,0.361,-2.655365,-0.7213782,2.5754561,-2.9333692,-2.862304,-0.32253632,0.0,0.0,0.0,0.49697256088256836,0.49697256088256836,link6
1763838021.2053168,ddpg_train,FAR,train,15,4,-2.409797653259065,0,285,1,0.004,0.0,0.396,-2.7705183,-0.5825321,2.5228322,-3.0677097,-3.0412424,-0.37463135,0.0,0.0,0.0,0.5000394582748413,0.5000394582748413,link6
1763838022.5903585,ddpg_train,FAR,train,15,5,-2.3915009020211637,0,286,1,0.012,0.002,0.393,-2.9577856,-0.6109174,2.5632656,-3.0917122,-3.099383,-0.40989667,0.0,0.0,0.0,0.5039917826652527,0.5039917826652527,link6
1763838023.9696684,ddpg_train,FAR,train,15,6,-2.4272810417725914,0,287,1,0.011,0.0,0.399,-3.1275518,-0.61487514,2.569523,-3.0955493,-3.1415932,-0.4171962,0.0,0.0,0.0,0.5039916634559631,0.5039916634559631,link6
1763838025.34917,ddpg_train,FAR,train,15,7,-2.468459385406756,0,288,1,0.003,0.0,0.406,-3.006875,-0.5915557,2.5353022,-3.0452747,-3.1415946,0.10557469,0.0,0.0,0.0,0.5039254426956177,0.5039254426956177,link6
1763838026.7317824,ddpg_train,FAR,train,15,8,-2.4212947782298433,0,289,1,0.011,0.001,0.398,-3.0540328,-0.61482954,2.5688653,-2.8958685,-3.1415954,0.3740692,0.0,0.0,0.0,0.5039795637130737,0.5039795637130737,link6
1763838028.11446,ddpg_train,FAR,train,15,9,-2.4971490279768034,0,290,1,-0.012,-0.004,0.411,-2.840438,-0.5437983,2.513608,-2.6077638,-3.1415927,0.76562107,0.0,0.0,0.0,0.5116615295410156,0.5116615295410156,link6
1763838029.4963992,ddpg_train,FAR,train,15,10,-2.451182703274413,0,291,1,-0.016,-0.002,0.404,-3.0493894,-0.5111093,2.5395284,-2.5559604,-3.1416006,0.68248904,0.0,0.0,0.0,0.5288257002830505,0.5288257002830505,link6
1763838030.9042814,ddpg_train,FAR,train,15,11,-2.4142104580565142,0,292,1,-0.016,-0.001,0.398,-3.0957286,-0.5044361,2.569239,-2.5651531,-3.1416101,0.62650913,0.0,0.0,0.0,0.5327785015106201,0.5327785015106201,link6
1763838032.2915475,ddpg_train,FAR,train,15,12,-2.7258693094238913,0,293,1,-0.035,-0.003,0.449,-3.0684702,-0.50997305,2.343991,-2.6295729,-3.1415937,0.3995369,0.0,0.0,0.0,0.5354384183883667,0.5354384183883667,link6
1763838033.7004478,ddpg_train,FAR,train,15,13,-2.5856314521306714,0,294,1,-0.016,-0.001,0.426,-3.1150796,-0.5489325,2.4508886,-2.7256758,-3.1415994,0.2845992,0.0,0.0,0.0,0.5191357731819153,0.5191357731819153,link6
1763838035.0873091,ddpg_train,FAR,train,15,14,-2.5308802977862377,0,295,1,-0.006,-0.0,0.417,-3.1197076,-0.58012503,2.4887478,-2.7279036,-3.141602,0.15654011,0.0,0.0,0.0,0.5163041353225708,0.5163041353225708,link6
1763838036.4793556,ddpg_train,FAR,train,15,15,-2.6820528623807176,0,296,1,-0.009,-0.003,0.442,-2.8400228,-0.586468,2.3785386,-2.4453957,-3.1415944,0.016034635,0.0,0.0,0.0,0.5134768486022949,0.5134768486022949,link6
1763838037.8661466,ddpg_train,FAR,train,15,16,-2.6331722155517916,0,297,1,-0.001,-0.0,0.434,-2.793095,-0.6136824,2.4128413,-2.4613352,-3.1416016,-0.16154702,0.0,0.0,0.0,0.5144213438034058,0.5144213438034058,link6
1763838039.249503,ddpg_train,FAR,train,15,17,-2.9401866028844235,0,298,1,-0.022,-0.004,0.485,-2.942886,-0.56875813,2.200904,-2.5076191,-3.1415927,-0.5105841,0.0,0.0,0.0,0.5217826962471008,0.5217826962471008,link6
1763838040.6472445,ddpg_train,FAR,train,15,18,-2.9374590961798503,0,299,1,-0.029,-0.002,0.485,-3.092861,-0.54541475,2.1947412,-2.5503113,-3.1415932,-0.78096145,0.0,0.0,0.0,0.5415436625480652,0.5415436625480652,link6
1763838042.03423,ddpg_train,FAR,train,15,19,-2.9455561085960817,0,300,1,-0.029,-0.001,0.486,-3.1150782,-0.5498805,2.1918154,-2.6448693,-3.1415954,-0.95420563,0.0,0.0,0.0,0.5324119329452515,0.5324119329452515,link6
