QuanPM-doosan/DoosanRobot_Reinforcement_Learning/ros2_ws/rl_logs/20251126_045132_d4pg_train.csv
ts,run_tag,mode,phase,ep,step,reward,done,mem_len,learn_flag,ee_x,ee_y,ee_z,j1,j2,j3,j4,j5,j6,sphere_x,sphere_y,sphere_z,dist_out,signed,closest_link
1764107496.6909738,d4pg_train,FAR,train,1,0,-6.327869629827436,0,1,1,-0.029,-0.057,1.05,1.1948845,-0.15586329,0.15227602,1.3405532,0.04628589,-2.1732435,0.0,0.0,0.0,0.5732507109642029,0.5732507109642029,link6
1764107498.0675354,d4pg_train,FAR,train,1,1,-6.315760636583524,0,2,1,0.192,0.259,0.993,0.93759954,0.28678352,0.16007,1.1817633,-0.024157869,-0.15997523,0.0,0.0,0.0,0.4573788344860077,0.4573788344860077,link6
1764107499.4003458,d4pg_train,FAR,train,1,2,-6.231863332114245,0,3,1,0.243,0.397,0.925,1.0393852,0.52333283,0.03841672,0.67870295,-0.05942788,0.65684474,0.0,0.0,0.0,0.5583473443984985,0.5583473443984985,link6
1764107500.780085,d4pg_train,FAR,train,1,3,-6.088260166173049,0,4,1,0.295,0.568,0.786,1.0868759,0.75777256,0.09937508,-0.16880973,-0.13758054,0.093184225,0.0,0.0,0.0,0.6648092269897461,0.6648092269897461,link6
1764107502.1697152,d4pg_train,FAR,train,1,4,-6.222358451651001,0,5,1,0.139,0.413,0.937,1.2562491,0.61794645,-0.20752484,0.3308118,-0.06344152,0.24464896,0.0,0.0,0.0,0.5420591235160828,0.5420591235160828,link6
1764107503.5592773,d4pg_train,FAR,train,1,5,-6.2726360191599335,0,6,1,0.071,0.156,1.021,1.1144038,0.41346648,-0.39123666,0.5492166,-0.028866395,0.1419589,0.0,0.0,0.0,0.44076740741729736,0.44076740741729736,link6
1764107504.937669,d4pg_train,FAR,train,1,6,-6.14107630626194,0,7,1,0.107,0.38,0.943,1.3052777,0.24004488,0.42749864,0.43612996,-0.06738784,1.0421363,0.0,0.0,0.0,0.6532856225967407,0.6532856225967407,link6
1764107506.3197775,d4pg_train,FAR,train,1,7,-6.1350362140237795,0,8,1,0.209,0.415,0.899,1.0917374,0.30739957,0.45662078,0.59100324,-0.017348967,-0.7021724,0.0,0.0,0.0,0.437174528837204,0.437174528837204,link6
1764107507.707319,d4pg_train,FAR,train,1,8,-6.121676582095094,0,9,1,0.267,0.363,0.915,0.9663787,0.32768658,0.3783414,0.5652664,0.04853461,-1.7901121,0.0,0.0,0.0,0.781374454498291,0.781374454498291,link6
1764107509.0860872,d4pg_train,FAR,train,1,9,-5.890314558026508,0,10,1,0.01,0.722,0.665,1.5678327,0.74885255,0.36939815,-0.9912455,0.07473234,-0.6295259,0.0,0.0,0.0,0.9211779832839966,0.9211779832839966,link6
1764107510.4758391,d4pg_train,FAR,train,1,10,-5.891037858843359,0,11,1,0.275,0.718,0.584,1.1756214,0.8043781,0.4076076,-0.3437337,0.020066578,-0.6719533,0.0,0.0,0.0,0.39323070645332336,0.39323070645332336,link6
1764107511.8515754,d4pg_train,FAR,train,1,11,-6.316688509360624,0,12,1,0.152,0.264,1.002,1.0515921,0.32347894,0.043466773,0.16149095,-0.027019786,0.69644564,0.0,0.0,0.0,0.5021174550056458,0.5021174550056458,link6
1764107513.2262554,d4pg_train,FAR,train,1,12,-6.343324403373743,0,13,1,0.206,0.198,1.004,0.74665016,0.21589099,0.17242804,0.30967292,0.09063844,0.156707,0.0,0.0,0.0,0.4133554697036743,0.4133554697036743,link6
1764107514.6052017,d4pg_train,FAR,train,1,13,-6.293383085707514,0,14,1,0.194,0.162,1.009,0.6901751,0.12629901,0.28258923,0.38908306,0.07824097,-0.20312676,0.0,0.0,0.0,0.45593973994255066,0.45593973994255066,link6
1764107515.9859035,d4pg_train,FAR,train,1,14,-6.2509873965509435,0,15,1,0.109,0.388,0.959,1.2976413,0.42282793,0.07239425,0.6956651,0.036584098,-0.1793829,0.0,0.0,0.0,0.62629634141922,0.62629634141922,link6
1764107517.3691509,d4pg_train,FAR,train,1,15,-6.645002811003158,0,16,1,0.353,0.318,0.918,0.72712046,0.5103702,0.06714715,0.28885376,0.07980773,0.18161283,0.0,0.0,0.0,0.24235530197620392,0.24235530197620392,link6
1764107518.7489066,d4pg_train,FAR,train,1,16,-6.2298887413398605,0,17,1,0.426,0.207,0.92,0.4984558,0.51271546,0.05052815,-0.021364467,0.058460195,0.66555434,0.0,0.0,0.0,0.5456694960594177,0.5456694960594177,link6
1764107520.1326492,d4pg_train,FAR,train,1,17,-6.346833959595203,0,18,1,0.013,0.067,1.052,1.4276937,0.10843205,-0.06138111,0.5810414,-0.04421514,0.698611,0.0,0.0,0.0,0.5446138381958008,0.5446138381958008,link6
1764107521.5168474,d4pg_train,FAR,train,1,18,-6.4576015633925685,0,19,1,0.109,0.209,1.023,1.038856,0.21847405,0.14865947,0.40683743,-0.014016083,0.9134878,0.0,0.0,0.0,0.34497350454330444,0.34497350454330444,link6
1764107522.8935308,d4pg_train,FAR,train,1,19,-6.084076005027989,0,20,1,-0.043,-0.098,1.006,1.1977404,0.2145968,-0.62833226,0.9631054,0.042094063,1.0641807,0.0,0.0,0.0,0.5876849889755249,0.5876849889755249,link6
1764107526.54453,d4pg_train,FAR,train,2,0,-6.344810774710296,0,21,1,0.073,0.034,1.048,0.49299958,0.21959293,-0.22460505,-0.062389553,0.02704287,1.0510893,0.0,0.0,0.0,0.48724180459976196,0.48724180459976196,link6
1764107527.924856,d4pg_train,FAR,train,2,1,-6.168694596690661,0,22,1,-0.034,-0.101,1.02,1.2363362,0.15721683,-0.51442367,-0.79973954,0.0141851865,1.0298024,0.0,0.0,0.0,0.5783974528312683,0.5783974528312683,link6
1764107529.307561,d4pg_train,FAR,train,2,2,-6.395577449798061,0,23,1,0.151,0.154,1.025,0.7829192,0.33626392,-0.17477188,-0.1333709,0.18620777,0.6500242,0.0,0.0,0.0,0.38085222244262695,0.38085222244262695,link6
1764107530.692811,d4pg_train,FAR,train,2,3,-6.599684883834155,0,24,1,0.413,0.245,0.91,0.5531949,0.4523976,0.17712231,-0.5043372,0.14709193,1.3094769,0.0,0.0,0.0,0.2462487518787384,0.2462487518787384,link6
1764107532.076142,d4pg_train,FAR,train,2,4,-7.400713890440637,0,25,1,0.414,0.004,0.951,0.00749864,0.5710396,-0.16236962,-0.29267982,-0.024672741,-0.3238514,0.0,0.0,0.0,0.1446104198694229,0.1446104198694229,link6
1764107533.4629333,d4pg_train,FAR,train,2,5,-6.034026606305037,0,26,1,0.547,0.43,0.725,0.68689525,0.9275307,-0.061675474,0.13092144,-0.027194345,-0.12526013,0.0,0.0,0.0,0.6928912401199341,0.6928912401199341,link6
1764107534.843995,d4pg_train,FAR,train,2,6,-6.0211108632994215,0,27,1,0.483,0.612,0.596,0.9051251,0.9484273,0.20733264,0.258491,-0.038192824,-0.042652767,0.0,0.0,0.0,0.3626789450645447,0.3626789450645447,link6
1764107536.2281208,d4pg_train,FAR,train,2,7,-6.343489188182842,0,28,1,0.069,0.036,1.049,0.41192326,0.17235842,-0.19378407,0.34801477,0.12060414,0.1841062,0.0,0.0,0.0,0.5045514106750488,0.5045514106750488,link6
1764107537.6036158,d4pg_train,FAR,train,2,8,-6.296512265416406,0,29,1,-0.065,-0.036,1.046,0.5864031,0.038864776,-0.25343788,0.52150935,0.086395234,1.186722,0.0,0.0,0.0,0.6970145106315613,0.6970145106315613,link6
1764107538.9886968,d4pg_train,FAR,train,2,9,-6.330264108087529,0,30,1,-0.137,-0.124,1.031,0.756591,-0.08540479,-0.20331992,0.5076763,0.029862992,1.6648953,0.0,0.0,0.0,0.4695216715335846,0.4695216715335846,link6
1764107540.3657434,d4pg_train,FAR,train,2,10,-6.362444303759127,0,31,1,0.163,0.034,1.035,0.12463336,0.085013464,0.20423773,-0.8415558,-0.13060673,-2.7112203,0.0,0.0,0.0,0.42322924733161926,0.42322924733161926,link6
1764107541.742435,d4pg_train,FAR,train,2,11,-6.2584465666455635,0,32,1,0.167,0.153,1.017,0.8436235,0.098011404,0.31429198,-0.39781335,-0.014154601,-1.2345995,0.0,0.0,0.0,0.6577562093734741,0.6577562093734741,link6
1764107543.2020605,d4pg_train,FAR,train,2,12,-6.380262887689209,0,33,1,0.018,0.337,0.97,1.5068477,0.17631234,0.37859806,0.062793925,0.07477456,0.4891415,0.0,0.0,0.0,0.31323498487472534,0.31323498487472534,link6
1764107544.5976412,d4pg_train,FAR,train,2,13,-6.283675281493582,0,34,1,-0.068,-0.039,1.044,0.4621546,0.041107442,-0.22064888,0.31920415,-0.12863345,0.25891507,0.0,0.0,0.0,0.7803236842155457,0.7803236842155457,link6
1764107545.9796288,d4pg_train,FAR,train,2,14,-6.309259799630221,0,35,1,-0.165,-0.113,1.023,0.55920345,-0.06738798,-0.26240662,0.54419684,-0.13214427,0.058888175,0.0,0.0,0.0,0.4508498013019562,0.4508498013019562,link6
1764107547.3646295,d4pg_train,FAR,train,2,15,-6.168126893682244,0,36,1,-0.054,0.535,0.876,1.7010067,0.6274191,0.057286724,0.68208134,-0.10648255,1.0907471,0.0,0.0,0.0,0.861577033996582,0.861577033996582,link6
1764107548.7486224,d4pg_train,FAR,train,2,16,-6.188554383838879,0,37,1,0.117,0.398,0.938,1.2824141,0.279365,0.36845365,0.79003835,-0.030722007,1.9671642,0.0,0.0,0.0,0.49700045585632324,0.49700045585632324,link6
1764107550.1346471,d4pg_train,FAR,train,2,17,-6.214327779292441,0,38,1,0.125,0.194,1.001,0.98785526,0.018677434,0.4545721,0.61820513,0.021516573,2.4007127,0.0,0.0,0.0,0.458986759185791,0.458986759185791,link6
1764107551.521342,d4pg_train,FAR,train,2,18,-6.373784008576184,0,39,1,0.217,0.12,1.02,0.49370027,0.21936575,0.069802284,0.5878382,-0.011654987,-2.3976822,0.0,0.0,0.0,0.41926637291908264,0.41926637291908264,link6
1764107552.935183,d4pg_train,FAR,train,2,19,-6.341086515117284,0,40,1,0.043,0.041,1.053,0.7824533,0.00955512,0.08207714,0.5727931,0.006950907,-1.006637,0.0,0.0,0.0,0.5949361324310303,0.5949361324310303,link6
1764107556.6043377,d4pg_train,FAR,train,3,0,-6.350311763424461,0,41,1,-0.005,-0.004,1.055,0.581083,-0.009881658,0.024447076,0.09353266,-0.07720743,-0.2994522,0.0,0.0,0.0,0.5511749386787415,0.5511749386787415,link6
1764107557.991182,d4pg_train,FAR,train,3,1,-6.328228126482149,0,42,1,0.071,0.098,1.045,0.9539492,0.21395586,-0.13391155,0.19986168,-0.0020733539,-0.07376065,0.0,0.0,0.0,0.5724490284919739,0.5724490284919739,link6
1764107559.4063795,d4pg_train,FAR,train,3,2,-6.222133454904204,0,43,1,0.327,0.377,0.901,0.8562604,0.50709605,0.1545627,0.15529369,-0.0075917756,-0.2512362,0.0,0.0,0.0,0.4773520827293396,0.4773520827293396,link6
1764107560.7879763,d4pg_train,FAR,train,3,3,-6.037662840727599,0,44,1,0.256,0.385,0.888,0.9826075,0.24806349,0.54998964,0.3210985,0.050661977,-0.122981034,0.0,0.0,0.0,0.5091243982315063,0.5091243982315063,link6
1764107562.1703148,d4pg_train,FAR,train,3,4,-6.086143888392433,0,45,1,0.156,0.282,0.959,1.0724407,0.067623354,0.50280035,0.03966816,0.054614704,-0.75184214,0.0,0.0,0.0,0.5748882293701172,0.5748882293701172,link6
1764107563.5575376,d4pg_train,FAR,train,3,5,-6.12562235537162,0,46,1,0.004,0.387,0.944,1.5937614,0.2229685,0.39690664,-0.7067643,0.16138917,2.4918935,0.0,0.0,0.0,0.7108600735664368,0.7108600735664368,link6
1764107564.9488807,d4pg_train,FAR,train,3,6,-6.31839781213492,0,47,1,0.054,0.055,1.05,0.7334395,0.13223426,-0.12881029,0.19685553,0.17651726,0.64149463,0.0,0.0,0.0,0.8148162364959717,0.8148162364959717,link6
1764107566.330799,d4pg_train,FAR,train,3,7,-6.351994746329982,0,48,1,-0.249,-0.027,0.997,0.15678078,-0.050100654,-0.45021346,0.64507246,0.15252554,-0.5815002,0.0,0.0,0.0,0.33015725016593933,0.33015725016593933,link6
1764107567.7114851,d4pg_train,FAR,train,3,8,-6.288793258207314,0,49,1,0.083,0.033,1.039,0.3675868,0.2764623,-0.3727446,0.12419269,0.121276885,1.8466765,0.0,0.0,0.0,0.5057725310325623,0.5057725310325623,link6
1764107569.0943077,d4pg_train,FAR,train,3,9,-6.254715877970664,0,50,1,0.062,0.055,1.035,0.75452566,0.29664382,-0.3983386,0.07835785,0.103422515,0.4012732,0.0,0.0,0.0,0.5304836630821228,0.5304836630821228,link6
1764107570.4773302,d4pg_train,FAR,train,3,10,-6.422547326477075,0,51,1,0.248,0.141,1.006,0.52000725,0.23099124,0.15687026,-0.16353248,0.05136127,-1.765519,0.0,0.0,0.0,0.3516332507133484,0.3516332507133484,link6
1764107571.8647149,d4pg_train,FAR,train,3,11,-6.330938963331876,0,52,1,0.022,-0.003,1.054,0.1305895,0.028872078,-0.08921822,-0.511497,0.11482857,-1.045587,0.0,0.0,0.0,0.6805940270423889,0.6805940270423889,link6
1764107573.254192,d4pg_train,FAR,train,3,12,-6.334780906426692,0,53,1,-0.021,-0.018,1.053,0.41696963,0.045208804,-0.105532914,-0.8226133,0.11090203,-0.44020128,0.0,0.0,0.0,0.5836048722267151,0.5836048722267151,link6
1764107574.6421375,d4pg_train,FAR,train,3,13,-6.548020435446467,0,54,1,0.428,0.186,0.91,0.4279993,0.38632587,0.26077092,-0.47332793,0.20574892,-0.43475375,0.0,0.0,0.0,0.24963544309139252,0.24963544309139252,link6
1764107576.027646,d4pg_train,FAR,train,3,14,-6.231501164985755,0,55,1,0.138,0.146,1.017,0.8592488,-0.012458206,0.3492387,-0.29038078,0.0891753,-0.3680014,0.0,0.0,0.0,0.6067529916763306,0.6067529916763306,link6
1764107577.4065106,d4pg_train,FAR,train,3,15,-6.2741600950783,0,56,1,-0.039,-0.148,1.032,1.3077601,-0.33802283,0.29731056,-0.3311826,0.023031441,-0.5862026,0.0,0.0,0.0,0.5847569108009338,0.5847569108009338,link6
1764107578.7873962,d4pg_train,FAR,train,3,16,-6.362485927173057,0,57,1,0.076,0.066,1.048,0.6915734,0.037176248,0.13957801,-1.2301002,-0.01896184,1.3726896,0.0,0.0,0.0,0.4698411226272583,0.4698411226272583,link6
1764107580.1817544,d4pg_train,FAR,train,3,17,-6.488259604962308,0,58,1,0.171,0.078,1.034,0.41200688,0.16136351,0.10413168,-0.75432634,0.0050778924,0.17212886,0.0,0.0,0.0,0.330988347530365,0.330988347530365,link6
1764107581.5657,d4pg_train,FAR,train,3,18,-6.314110583300671,0,59,1,0.244,0.1,1.016,0.3934976,0.281919,0.019595128,-0.24429943,0.0377614,-1.3113046,0.0,0.0,0.0,0.5736278891563416,0.5736278891563416,link6
1764107582.9554625,d4pg_train,FAR,train,3,19,-6.385597699927007,0,60,1,0.159,0.156,1.019,0.76905304,0.11044593,0.26742464,-0.34494936,0.10454846,0.20879452,0.0,0.0,0.0,0.3671222925186157,0.3671222925186157,link6
1764107586.6091232,d4pg_train,FAR,train,4,0,-7.796595559908306,0,61,1,0.042,0.001,1.055,0.012896552,0.05900634,0.00033188798,-0.00066232483,-0.0050603864,-0.048680976,0.0,0.0,0.0,0.12299208343029022,0.12299208343029022,link6
1764107588.0107412,d4pg_train,FAR,train,4,1,-6.571836160897302,0,62,1,0.416,0.104,0.936,0.2466541,0.34026867,0.29706222,-0.010094452,-0.035231072,-0.59308606,0.0,0.0,0.0,0.25394439697265625,0.25394439697265625,link6
1764107589.4145348,d4pg_train,FAR,train,4,2,-6.280130503142211,0,63,1,0.332,0.125,0.976,0.3700322,0.2754642,0.22924395,-0.18103391,-0.057117682,-0.60199213,0.0,0.0,0.0,0.46193525195121765,0.46193525195121765,link6
1764107590.8098733,d4pg_train,FAR,train,4,3,-6.293918561242964,0,64,1,-0.12,-0.015,1.041,0.16836844,-0.006021158,-0.23586954,-0.9615017,-0.05737423,-1.1386094,0.0,0.0,0.0,0.6740067601203918,0.6740067601203918,link6
1764107592.1923597,d4pg_train,FAR,train,4,4,-6.440001288913225,0,65,1,0.122,0.062,1.045,0.4572362,0.1920737,-0.049334176,-0.8730309,-0.026095651,-1.2061207,0.0,0.0,0.0,0.37596002221107483,0.37596002221107483,link6
1764107593.5805058,d4pg_train,FAR,train,4,5,-7.612438142167509,0,66,1,0.346,0.195,0.962,0.48028123,0.41335896,0.10314392,-0.63990456,-0.03368537,-0.8535996,0.0,0.0,0.0,0.12961848080158234,0.12961848080158234,link6
1764107594.9633472,d4pg_train,FAR,train,4,6,-6.540880070655745,0,67,1,0.428,0.171,0.927,0.3933818,0.5856166,-0.10628034,-0.2520014,0.040108398,-0.7024043,0.0,0.0,0.0,0.27200815081596375,0.27200815081596375,link6
1764107596.3549395,d4pg_train,FAR,train,4,7,-6.178758152747708,0,68,1,0.286,0.41,0.899,1.0403984,0.45385987,0.20232894,-0.57514066,0.0957849,-1.2820547,0.0,0.0,0.0,0.6581675410270691,0.6581675410270691,link6
1764107597.7410045,d4pg_train,FAR,train,4,8,-6.142147600443991,0,69,1,0.053,0.356,0.957,1.4520487,0.18406537,0.41798705,-0.8997772,0.11327233,-1.6315811,0.0,0.0,0.0,0.650536835193634,0.650536835193634,link6
1764107599.132484,d4pg_train,FAR,train,4,9,-6.175332402919331,0,70,1,-0.417,-0.254,0.906,0.5367369,-0.49921435,-0.21170434,-0.1866981,0.13493347,0.23831035,0.0,0.0,0.0,1.03109610080719,1.03109610080719,link6
1764107600.521361,d4pg_train,FAR,train,4,10,-6.207425431032439,0,71,1,-0.44,-0.233,0.899,0.47561258,-0.43065867,-0.21290047,-0.4315925,0.036615886,0.86561924,0.0,0.0,0.0,0.47926798462867737,0.47926798462867737,link6
1764107601.9069731,d4pg_train,FAR,train,4,11,-6.483512028572225,0,72,1,0.304,0.098,0.979,0.34063172,0.15663442,0.38229236,-1.16185,0.08603799,-1.599704,0.0,0.0,0.0,0.2797567546367645,0.2797567546367645,link6
1764107603.2873032,d4pg_train,FAR,train,4,12,-8.463862360371953,0,73,1,0.496,-0.117,0.864,-0.2417058,0.35887927,0.47353998,-0.59307474,0.09358168,-0.51953536,0.0,0.0,0.0,0.07152749598026276,0.07152749598026276,link6
1764107604.7366123,d4pg_train,MID,train,4,13,-6.054423006978654,0,74,1,0.524,-0.231,0.815,-0.39261508,0.43809178,0.45789966,-0.39699066,0.07081488,-0.15376276,0.0,0.0,0.0,0.416069895029068,0.416069895029068,link6
1764107606.1199923,d4pg_train,FAR,train,4,14,-6.7985824099501055,0,75,1,0.309,-0.14,0.987,-0.4129184,0.32326847,0.108674206,-0.70678955,0.07998804,-2.1583734,0.0,0.0,0.0,0.22320260107517242,0.22320260107517242,link6
1764107607.502673,d4pg_train,FAR,train,4,15,-6.306909176726671,0,76,1,0.293,0.016,1.005,0.09078795,0.38321066,-0.12318098,-0.8226864,-0.009718684,-1.4963555,0.0,0.0,0.0,0.529291033744812,0.529291033744812,link6
1764107609.0022645,d4pg_train,FAR,train,4,16,-6.336125157937134,0,77,1,0.06,0.054,1.047,0.5707182,0.18866669,-0.17206325,-1.1937348,-0.11140879,0.47510839,0.0,0.0,0.0,0.4948158264160156,0.4948158264160156,link6
1764107610.38484,d4pg_train,FAR,train,4,17,-6.311131036678021,0,78,1,-0.136,-0.041,1.042,0.25595728,-0.08296418,-0.15197028,-0.698144,0.06773425,0.39193612,0.0,0.0,0.0,0.824925422668457,0.824925422668457,link6
1764107611.7679207,d4pg_train,FAR,train,4,18,-6.367548172242588,0,79,1,-0.266,-0.048,1.012,0.16741687,-0.24031165,-0.10698301,-0.5030227,0.14328359,0.051609408,0.0,0.0,0.0,0.41019999980926514,0.41019999980926514,link6
1764107613.1532435,d4pg_train,FAR,train,4,19,-6.30755585580936,0,80,1,-0.098,-0.215,1.023,1.1315018,-0.27559873,-0.034708563,-0.7368346,0.10729095,-0.5558668,0.0,0.0,0.0,0.6442565321922302,0.6442565321922302,link6
1764107616.8021805,d4pg_train,FAR,train,5,0,-6.356373398626805,0,81,1,0.017,0.005,1.055,0.2819424,0.015614098,0.009237445,-0.026425667,-0.0020147644,-0.19535096,0.0,0.0,0.0,0.5279276967048645,0.5279276967048645,link6
1764107618.2137594,d4pg_train,FAR,train,5,1,-5.671380017354153,0,82,1,-0.315,-0.344,0.822,0.825567,-0.12714039,-0.87972236,0.038455483,-0.07098391,1.8070393,0.0,0.0,0.0,0.8900435566902161,0.8900435566902161,link6
1764107619.5963242,d4pg_train,FAR,train,5,2,-6.1007991785072315,0,83,1,-0.329,-0.241,0.93,0.62206197,-0.22483787,-0.48260772,-0.22341369,0.09449859,1.3503689,0.0,0.0,0.0,0.6456285715103149,0.6456285715103149,link6
1764107620.9807913,d4pg_train,FAR,train,5,3,-6.448920639969317,0,84,1,-0.097,-0.064,1.045,0.45085976,-0.15846433,0.01624824,-0.5748512,0.2333077,0.35693657,0.0,0.0,0.0,0.3573628067970276,0.3573628067970276,link6
1764107622.366897,d4pg_train,FAR,train,5,4,-6.628489420660706,0,85,1,0.394,0.137,0.941,0.36107472,0.34562737,0.20326263,-0.36793327,0.24307992,-1.3003857,0.0,0.0,0.0,0.24021640419960022,0.24021640419960022,link6
1764107623.762191,d4pg_train,FAR,train,5,5,-6.235950580772933,0,86,1,0.3,0.06,0.993,0.19147162,0.19945182,0.15682364,-0.12766957,0.2365937,-0.4491813,0.0,0.0,0.0,0.8059132099151611,0.8059132099151611,link6
1764107625.1542854,d4pg_train,FAR,train,5,6,-6.5114759777224895,0,87,1,0.289,0.109,0.994,0.3725972,0.49096805,-0.23723896,-1.3588707,0.017960649,1.3370589,0.0,0.0,0.0,0.2933034300804138,0.2933034300804138,link6
1764107626.5419602,d4pg_train,FAR,train,5,7,-6.1550467726493086,0,88,1,-0.048,-0.025,1.024,0.7871731,0.19905701,-0.51777524,-1.3314939,-0.13572063,-0.6586516,0.0,0.0,0.0,0.761228621006012,0.761228621006012,link6
1764107627.9296842,d4pg_train,FAR,train,5,8,-6.893576526085002,0,89,1,-0.185,-0.19,0.984,0.8373889,-0.01943696,-0.46085155,-1.0267382,-0.13192752,-1.3332675,0.0,0.0,0.0,0.1859273463487625,0.1859273463487625,link6
1764107629.3109372,d4pg_train,FAR,train,5,9,-6.287867480319297,0,90,1,0.549,0.194,0.784,0.3523704,0.40324637,0.6127789,-0.95354974,0.05854893,-1.0802941,0.0,0.0,0.0,0.24570539593696594,0.24570539593696594,link6
1764107630.6915467,d4pg_train,FAR,train,5,10,-6.122225771062093,0,91,1,0.236,0.035,0.992,0.14343117,-0.008582728,0.52572095,-1.0477146,-0.009772373,-1.0103527,0.0,0.0,0.0,0.9199549555778503,0.9199549555778503,link6
1764107632.0796933,d4pg_train,FAR,train,5,11,-6.215089445039421,0,92,1,-0.419,0.021,0.943,-0.029554391,-0.6243866,0.26062083,-0.9995312,-0.06795223,-1.0233817,0.0,0.0,0.0,0.5406811833381653,0.5406811833381653,link6
1764107633.4654937,d4pg_train,FAR,train,5,12,-6.5285634628152165,0,93,1,0.243,0.091,1.015,0.42501542,0.29562634,-0.019837225,-0.7366641,0.20584476,-1.7580304,0.0,0.0,0.0,0.30253344774246216,0.30253344774246216,link6
1764107634.8588734,d4pg_train,FAR,train,5,13,-6.306957337094957,0,94,1,0.12,0.049,1.043,0.49711004,0.18134162,-0.13937683,-0.6451521,0.18948103,-0.77731144,0.0,0.0,0.0,0.8718731999397278,0.8718731999397278,link6
1764107636.3182833,d4pg_train,FAR,train,5,14,-6.343273184836306,0,95,1,-0.054,-0.035,1.053,0.56726825,-0.076355904,0.029273048,0.08742066,-0.06215181,-1.1957633,0.0,0.0,0.0,0.5915507078170776,0.5915507078170776,link6
1764107637.707227,d4pg_train,FAR,train,5,15,-6.254640858030268,0,96,1,-0.278,-0.036,1.004,0.07079036,-0.20350182,-0.26633406,-0.91114587,0.053703643,-0.12287445,0.0,0.0,0.0,0.9919928908348083,0.9919928908348083,link6
1764107639.0932047,d4pg_train,FAR,train,5,16,-6.145840976465704,0,97,1,-0.447,-0.004,0.917,-0.013018369,-0.3212725,-0.38326368,-1.298382,0.1388562,0.34060022,0.0,0.0,0.0,0.5301622152328491,0.5301622152328491,link6
1764107640.4826608,d4pg_train,FAR,train,5,17,-6.580546076684618,0,98,1,0.277,0.139,0.997,0.44757435,0.26539114,0.17080736,-0.6905699,0.023782333,-0.9538931,0.0,0.0,0.0,0.27608415484428406,0.27608415484428406,link6
1764107641.8671956,d4pg_train,FAR,train,5,18,-7.799768686415833,0,99,1,0.462,0.091,0.908,0.21466815,0.3789195,0.32218102,-1.2161684,0.078038074,-1.2716823,0.0,0.0,0.0,0.1100955531001091,0.1100955531001091,link6
1764107643.3191211,d4pg_train,MID,train,5,19,-6.257452938506954,0,100,1,-0.184,-0.0,1.026,0.052312538,-0.35753796,0.22016475,0.39494827,0.1965634,-0.7133109,0.0,0.0,0.0,0.7340942025184631,0.7340942025184631,link6
1764107646.9723015,d4pg_train,FAR,train,6,0,-6.304505945543463,0,101,1,-0.126,0.007,1.043,-0.06386553,-0.23656832,0.1613487,-0.13257019,0.05517582,0.37092242,0.0,0.0,0.0,0.8659913539886475,0.8659913539886475,link6
1764107648.3526735,d4pg_train,FAR,train,6,1,-6.339452104379529,0,102,1,0.0,0.014,1.053,1.386748,-0.048028965,0.12023069,0.4481115,0.046854116,0.73575956,0.0,0.0,0.0,0.5477744340896606,0.5477744340896606,link6
1764107649.7404683,d4pg_train,FAR,train,6,2,-6.318038671383573,0,103,1,-0.091,-0.054,1.047,0.45037487,-0.18562095,0.100083195,-0.67519766,0.084043175,1.2575096,0.0,0.0,0.0,0.712166965007782,0.712166965007782,link6
1764107651.1308222,d4pg_train,FAR,train,6,3,-6.294717079363982,0,104,1,-0.233,-0.058,1.021,0.22362208,-0.33134153,0.07552264,-0.9203707,0.12282299,0.6713845,0.0,0.0,0.0,0.8050244450569153,0.8050244450569153,link6
1764107652.5137854,d4pg_train,FAR,train,6,4,-6.356901450824528,0,105,1,0.042,-0.011,1.051,0.46420488,0.058912642,-0.03356946,-1.3376216,0.24091984,-2.5384684,0.0,0.0,0.0,0.46989721059799194,0.46989721059799194,link6
1764107653.902591,d4pg_train,FAR,train,6,5,-6.29029030933895,0,106,1,-0.012,-0.029,1.047,0.44805497,-0.14603423,0.1292862,-0.5649738,0.30231804,-2.8715942,0.0,0.0,0.0,0.6818171739578247,0.6818171739578247,link6
1764107655.293733,d4pg_train,FAR,train,6,6,-6.234793507910194,0,107,1,-0.219,-0.087,1.012,0.35906005,-0.3986018,0.15061434,-0.10004488,0.32265463,-2.705862,0.0,0.0,0.0,0.9562020301818848,0.9562020301818848,link6
1764107656.6848667,d4pg_train,FAR,train,6,7,-6.531549758368361,0,108,1,0.084,-0.041,1.048,-0.2372742,0.06046228,0.102287345,-1.0997198,0.18636854,-3.0028553,0.0,0.0,0.0,0.3130000829696655,0.3130000829696655,link6
1764107658.0709324,d4pg_train,FAR,train,6,8,-6.543055123209731,0,109,1,0.306,-0.072,0.982,-0.16269031,0.17324656,0.32861644,-1.1656736,0.19399023,-3.7919707,0.0,0.0,0.0,0.2640795409679413,0.2640795409679413,link6
1764107659.4525356,d4pg_train,FAR,train,6,9,-6.261225989193661,0,110,1,-0.064,-0.099,1.035,0.7795687,-0.28802896,0.24212573,-0.8477079,0.27588576,-1.1878254,0.0,0.0,0.0,0.6112536191940308,0.6112536191940308,link6
1764107660.8429532,d4pg_train,FAR,train,6,10,-6.353405847896394,0,111,1,0.067,0.028,1.039,0.44333276,-0.101207234,0.3071956,-0.2279112,0.13952477,-0.3250789,0.0,0.0,0.0,0.3870888948440552,0.3870888948440552,link6
1764107662.2259395,d4pg_train,FAR,train,6,11,-6.341887795028354,0,112,1,0.197,0.063,1.014,0.3214401,0.023684056,0.3733369,-0.2460668,0.08330112,-0.2842567,0.0,0.0,0.0,0.36297401785850525,0.36297401785850525,link6
1764107663.6111276,d4pg_train,FAR,train,6,12,-6.228809795923241,0,113,1,-0.29,-0.229,0.97,0.6061676,-0.36052164,-0.18659538,-0.8061405,0.2724747,-3.5978992,0.0,0.0,0.0,0.871751606464386,0.871751606464386,link6
1764107664.9975007,d4pg_train,FAR,train,6,13,-6.221152193038859,0,114,1,-0.359,-0.188,0.954,0.41457257,-0.45942903,-0.057373963,-0.6760036,0.3007826,-3.3822188,0.0,0.0,0.0,0.7762542963027954,0.7762542963027954,link6
1764107666.3905692,d4pg_train,FAR,train,6,14,-6.2366512443986695,0,115,1,-0.3,-0.11,0.989,0.2901756,-0.4544101,0.07700831,-0.64175546,0.31509408,-2.8861468,0.0,0.0,0.0,0.8978597521781921,0.8978597521781921,link6
1764107667.7714272,d4pg_train,FAR,train,6,15,-6.294052690412464,0,116,1,-0.081,-0.008,1.041,0.25140628,-0.2149982,0.19572142,0.42698118,0.27084273,-3.4607797,0.0,0.0,0.0,0.5150257349014282,0.5150257349014282,link6
1764107669.165704,d4pg_train,FAR,train,6,16,-6.26142351525932,0,117,1,-0.042,-0.003,1.042,0.14304794,-0.19572785,0.20131549,0.08377242,0.28444552,-3.4799414,0.0,0.0,0.0,0.7053708434104919,0.7053708434104919,link6
1764107670.5498693,d4pg_train,FAR,train,6,17,-6.266923019578784,0,118,1,-0.028,-0.07,1.039,0.8935511,-0.2531184,0.28538275,-0.98540974,0.21391803,-1.1534764,0.0,0.0,0.0,0.5711857080459595,0.5711857080459595,link6
1764107671.9350302,d4pg_train,FAR,train,6,18,-6.355919007849983,0,119,1,0.031,0.038,1.052,0.8813496,0.01565597,0.055593736,0.016196521,0.11559033,-2.524816,0.0,0.0,0.0,0.49045372009277344,0.49045372009277344,link6
1764107673.337269,d4pg_train,FAR,train,6,19,-6.392765143835575,0,120,1,0.115,0.098,1.042,0.6569068,0.12099741,0.05951373,-0.0064973007,0.12286467,-2.6504085,0.0,0.0,0.0,0.4194643795490265,0.4194643795490265,link6
1764107677.0089164,d4pg_train,FAR,train,7,0,-6.340895660017739,0,121,1,-0.019,-0.025,1.053,0.9957975,-0.10388687,0.10153731,0.058355905,0.08203726,-0.8313989,0.0,0.0,0.0,0.5517112016677856,0.5517112016677856,link6
1764107678.3976998,d4pg_train,FAR,train,7,1,-6.2890078739429915,0,122,1,-0.05,-0.151,1.036,1.2086833,-0.308023,0.1532119,-0.06324533,0.16687897,-1.682735,0.0,0.0,0.0,1.029392957687378,1.029392957687378,link6
1764107679.7835574,d4pg_train,FAR,train,7,2,-6.268298649579561,0,123,1,-0.244,-0.202,0.995,0.6651331,-0.28210044,-0.14657058,-0.84252065,0.10623973,-0.47983053,0.0,0.0,0.0,0.7396815419197083,0.7396815419197083,link6
1764107681.1662807,d4pg_train,FAR,train,7,3,-6.296038181553103,0,124,1,-0.15,-0.211,1.015,0.93049216,-0.24261647,-0.1238731,-0.44994855,0.21013327,-0.43543458,0.0,0.0,0.0,0.6113176941871643,0.6113176941871643,link6
1764107682.551075,d4pg_train,FAR,train,7,4,-6.310801024874485,0,125,1,-0.063,-0.161,1.034,1.1616199,-0.2049232,-0.034422044,-0.260822,0.2955465,-0.72778934,0.0,0.0,0.0,0.5488154888153076,0.5488154888153076,link6
1764107683.9344888,d4pg_train,FAR,train,7,5,-6.3094133971415935,0,126,1,-0.023,-0.011,1.05,0.3603811,0.079221986,-0.24269697,-0.11913042,0.14877719,-2.858057,0.0,0.0,0.0,0.6494781374931335,0.6494781374931335,link6
1764107685.3256295,d4pg_train,FAR,train,7,6,-6.290331410619059,0,127,1,-0.22,-0.063,1.023,0.27989787,-0.22806464,-0.12692961,-0.096016474,0.21102598,-2.3776762,0.0,0.0,0.0,0.8977232575416565,0.8977232575416565,link6
1764107686.730546,d4pg_train,FAR,train,7,7,-6.319695368975062,0,128,1,0.041,-0.252,1.016,1.718828,-0.32150707,0.027808517,-0.3324081,0.18635999,-2.8657835,0.0,0.0,0.0,0.4985954165458679,0.4985954165458679,link6
1764107688.126307,d4pg_train,FAR,train,7,8,-6.055122252519116,0,129,1,-0.334,-0.552,0.776,1.0004847,-0.8511946,0.017574226,-0.48963976,0.30234224,-2.0509002,0.0,0.0,0.0,1.1222586631774902,1.1222586631774902,link6
1764107689.5267725,d4pg_train,FAR,train,7,9,-5.825344089794539,0,130,1,-0.615,-0.527,0.535,0.6864904,-1.093306,-0.12081714,-0.57216126,0.30779532,-1.862157,0.0,0.0,0.0,0.818805992603302,0.818805992603302,link6
1764107690.9171343,d4pg_train,FAR,train,7,10,-6.301541392231257,0,131,1,-0.049,-0.135,1.038,1.4444826,-0.22086854,0.07450899,1.0035253,0.3040269,-2.9870393,0.0,0.0,0.0,0.5863157510757446,0.5863157510757446,link6
1764107692.312715,d4pg_train,FAR,train,7,11,-6.19546475711871,0,132,1,-0.113,-0.395,0.947,1.3243978,-0.5393367,0.006007883,0.3018075,0.38413087,-3.3715065,0.0,0.0,0.0,0.7939543128013611,0.7939543128013611,link6
1764107693.713249,d4pg_train,FAR,train,7,12,-6.131734515275794,0,133,1,-0.517,-0.03,0.881,0.04326207,-0.724283,0.12560521,-0.05576633,0.30916318,-2.7663255,0.0,0.0,0.0,1.0573900938034058,1.0573900938034058,link6
1764107695.1017218,d4pg_train,FAR,train,7,13,-6.180123565055799,0,134,1,-0.339,-0.372,0.898,0.86560434,-0.5318471,-0.15405436,0.39798486,0.20540223,-2.3940046,0.0,0.0,0.0,0.7238074541091919,0.7238074541091919,link6
1764107696.492682,d4pg_train,FAR,train,7,14,-6.192452443671275,0,135,1,-0.171,-0.479,0.895,1.2413872,-0.5376152,-0.1570066,0.35829672,0.15714605,-2.3224883,0.0,0.0,0.0,0.5749103426933289,0.5749103426933289,link6
1764107697.875712,d4pg_train,FAR,train,7,15,-6.172069960338581,0,136,1,0.009,-0.457,0.917,1.5164707,-0.45228744,-0.24513301,-0.7036452,0.44025132,-1.9997164,0.0,0.0,0.0,0.5321404337882996,0.5321404337882996,link6
1764107699.262382,d4pg_train,FAR,train,7,16,-6.222200688585814,0,137,1,-0.08,-0.382,0.959,1.3511224,-0.36894375,-0.2172836,-0.08706759,0.3041899,-2.4739513,0.0,0.0,0.0,0.6220602989196777,0.6220602989196777,link6
1764107700.6566644,d4pg_train,FAR,train,7,17,-6.273947951952516,0,138,1,-0.13,-0.241,1.009,1.0978786,-0.2304939,-0.19334836,0.3733506,0.18392934,-2.6224585,0.0,0.0,0.0,0.8545978665351868,0.8545978665351868,link6
1764107702.042064,d4pg_train,FAR,train,7,18,-6.305007209348001,0,139,1,-0.019,-0.247,1.016,1.5250119,-0.25487503,-0.10637941,-0.057777416,0.30540413,-3.2311342,0.0,0.0,0.0,0.5102332234382629,0.5102332234382629,link6
1764107703.4280367,d4pg_train,FAR,train,7,19,-6.245483204247796,0,140,1,0.008,-0.348,0.979,1.5950949,-0.4717941,0.05733411,0.013884547,0.29467672,-3.0035827,0.0,0.0,0.0,0.6098682880401611,0.6098682880401611,link6
1764107707.0873952,d4pg_train,FAR,train,8,0,-6.187371523186244,0,141,1,-0.374,-0.226,0.934,0.56739587,-0.48669696,-0.1796032,0.023675272,0.3866763,-3.4797428,0.0,0.0,0.0,0.9533563256263733,0.9533563256263733,link6
1764107708.4723291,d4pg_train,FAR,train,8,1,-6.105852647653885,0,142,1,-0.478,-0.318,0.84,0.60015756,-0.7015586,-0.05069719,0.28246948,0.37533152,-3.9082866,0.0,0.0,0.0,0.8384118676185608,0.8384118676185608,link6
1764107709.863465,d4pg_train,FAR,train,8,2,-6.206146564186728,0,143,1,-0.157,-0.407,0.937,1.2592434,-0.58171266,0.090768754,0.7334219,0.25274825,-6.2748723,0.0,0.0,0.0,0.6964028477668762,0.6964028477668762,link6
1764107711.2626941,d4pg_train,FAR,train,8,3,-5.963871427122018,0,144,1,-0.364,-0.573,0.726,1.0562369,-0.7403948,-0.28009868,1.3620445,0.4034714,-4.662202,0.0,0.0,0.0,0.9794146418571472,0.9794146418571472,link6
1764107712.6436267,d4pg_train,FAR,train,8,4,-5.506569588744219,0,145,1,-0.554,-0.592,0.43,0.86695653,-0.9472597,-0.597932,1.341289,0.40192416,-4.165569,0.0,0.0,0.0,1.2391905784606934,1.2391905784606934,link6
1764107714.0372784,d4pg_train,FAR,train,8,5,-6.177885348603948,0,146,1,-0.345,-0.33,0.912,0.8309854,-0.50279576,-0.09002378,0.7651625,0.33569995,-4.8583055,0.0,0.0,0.0,0.8130689263343811,0.8130689263343811,link6
1764107715.4342403,d4pg_train,FAR,train,8,6,-6.0469743044842845,0,147,1,-0.368,-0.53,0.774,1.0136485,-0.79024404,-0.1320269,0.5551888,0.34077224,-4.9519324,0.0,0.0,0.0,0.8567625880241394,0.8567625880241394,link6
1764107716.816079,d4pg_train,FAR,train,8,7,-5.807292582576366,0,148,1,-0.352,-0.73,0.529,1.1357108,-1.1017547,-0.18803258,0.4244342,0.35733742,-5.0745306,0.0,0.0,0.0,0.9278002381324768,0.9278002381324768,link6
1764107718.2089005,d4pg_train,FAR,train,8,8,-6.0131779989497876,0,149,1,0.249,-0.802,0.264,1.9494971,-1.096488,-0.6385939,1.6138618,0.43275642,-4.515562,0.0,0.0,0.0,0.19221365451812744,0.19221365451812744,link6
1764107719.589757,d4pg_train,FAR,train,8,9,-5.283296976890121,0,150,1,-0.104,-0.799,0.355,1.4684289,-0.8946864,-0.7781826,1.3759539,0.33268803,-4.0206513,0.0,0.0,0.0,0.9367457032203674,0.9367457032203674,link6
1764107720.9839792,d4pg_train,FAR,train,8,10,-5.586040492438069,0,151,1,-0.47,-0.529,0.605,0.87577057,-0.6135583,-0.7664166,0.98081833,0.2396754,-4.0378184,0.0,0.0,0.0,1.2231154441833496,1.2231154441833496,link6
1764107722.3686023,d4pg_train,FAR,train,8,11,-5.7877216542971,0,152,1,-0.647,-0.423,0.577,0.6323508,-0.85709125,-0.28217816,1.9996296,0.35394198,-4.192612,0.0,0.0,0.0,1.106044054031372,1.106044054031372,link6
1764107723.754082,d4pg_train,FAR,train,8,12,-5.896209250133475,0,153,1,-0.672,-0.268,0.665,0.42984566,-0.8144894,-0.19448188,2.1286407,0.4103074,-2.7157955,0.0,0.0,0.0,1.0070134401321411,1.0070134401321411,link6
1764107725.1412933,d4pg_train,FAR,train,8,13,-6.0982372634300805,0,154,1,-0.341,-0.47,0.834,1.01282,-0.75599205,0.038277533,0.8499054,0.34342554,-3.4231365,0.0,0.0,0.0,0.8719121813774109,0.8719121813774109,link6
1764107726.5224001,d4pg_train,FAR,train,8,14,-5.9154406476385155,0,155,1,-0.624,-0.448,0.618,0.6576919,-1.0324453,-0.020269068,1.1227412,0.24226612,-1.9797333,0.0,0.0,0.0,1.221189022064209,1.221189022064209,link6
1764107727.906455,d4pg_train,FAR,train,8,15,-6.053027272922798,0,156,1,-0.581,-0.597,0.489,0.8698554,-1.1305431,-0.12149716,0.9867063,0.18813878,-1.833907,0.0,0.0,0.0,0.2967225909233093,0.2967225909233093,link6
1764107729.287356,d4pg_train,FAR,train,8,16,-6.211778377851388,0,157,1,-0.272,-0.202,0.978,0.7123529,-0.2436774,-0.2947148,1.0998179,0.22935566,-4.8039002,0.0,0.0,0.0,0.8021188378334045,0.8021188378334045,link6
1764107730.6680982,d4pg_train,FAR,train,8,17,-6.07777226439218,0,158,1,-0.239,-0.469,0.862,1.1969492,-0.47607446,-0.3549389,1.1042403,0.39942092,-5.454577,0.0,0.0,0.0,0.5643908977508545,0.5643908977508545,link6
1764107732.0490384,d4pg_train,FAR,train,8,18,-5.819416125105486,0,159,1,-0.023,-0.72,0.648,1.6056261,-0.7647405,-0.4496378,0.9722567,0.48405036,-5.4488997,0.0,0.0,0.0,0.6757195591926575,0.6757195591926575,link6
1764107733.4268758,d4pg_train,FAR,train,8,19,-5.7671408758819895,0,160,1,-0.591,-0.536,0.536,0.80339,-1.0187958,-0.16208476,1.8810616,0.46600026,-4.8360996,0.0,0.0,0.0,1.168430209159851,1.168430209159851,link6
1764107737.0831497,d4pg_train,FAR,train,9,0,-6.333581482059854,0,161,1,-0.029,0.002,1.055,-0.027160363,-0.039204054,-0.01549825,0.25334516,0.047313232,-0.27054304,0.0,0.0,0.0,0.8352446556091309,0.8352446556091309,link6
1764107738.4646063,d4pg_train,FAR,train,9,1,-6.289514386214981,0,162,1,-0.059,-0.08,1.04,1.0195833,0.05519659,-0.32861024,-0.07901894,0.24141912,-0.89978296,0.0,0.0,0.0,0.5469043850898743,0.5469043850898743,link6
1764107739.869262,d4pg_train,FAR,train,9,2,-6.22514753479888,0,163,1,-0.102,-0.231,1.006,1.205314,-0.1598903,-0.36041027,0.53492594,0.2430184,-2.360186,0.0,0.0,0.0,0.7876444458961487,0.7876444458961487,link6
1764107741.2668161,d4pg_train,FAR,train,9,3,-5.634198962175847,0,164,1,-0.485,-0.609,0.525,0.9198262,-0.8231851,-0.62673557,0.49373782,0.30448142,-1.4896885,0.0,0.0,0.0,1.0306874513626099,1.0306874513626099,link6
1764107742.649686,d4pg_train,FAR,train,9,4,-5.841284833678554,0,165,1,-0.681,-0.24,0.653,0.3758438,-0.73370564,-0.46540383,0.9845638,0.26066414,-3.1975613,0.0,0.0,0.0,1.1093496084213257,1.1093496084213257,link6
1764107744.0427065,d4pg_train,FAR,train,9,5,-5.918114549584977,0,166,1,-0.652,-0.242,0.699,0.3985905,-0.7078586,-0.40413836,0.88772774,0.21109621,-3.3927982,0.0,0.0,0.0,0.7879323959350586,0.7879323959350586,link6
1764107745.4346063,d4pg_train,FAR,train,9,6,-5.9301837988318065,0,167,1,-0.627,-0.369,0.669,0.52714413,-0.80870056,-0.30379274,0.29343176,0.18270902,-4.163325,0.0,0.0,0.0,1.1802575588226318,1.1802575588226318,link6
1764107746.8180442,d4pg_train,FAR,train,9,7,-5.712842710480614,0,168,1,-0.581,-0.585,0.476,0.8489338,-1.0136354,-0.35215688,1.2525103,0.22834647,-2.2924001,0.0,0.0,0.0,0.8932799100875854,0.8932799100875854,link6
1764107748.2059107,d4pg_train,FAR,train,9,8,-5.675307233565426,0,169,1,-0.348,-0.757,0.444,1.1824416,-1.0338148,-0.33969027,1.9336638,0.24940152,-0.68506426,0.0,0.0,0.0,0.6135702133178711,0.6135702133178711,link6
1764107749.5894492,d4pg_train,FAR,train,9,9,-5.7196868496332085,0,170,1,-0.542,-0.587,0.52,0.81329995,-0.93624026,-0.48943838,0.14800936,0.2563367,1.3428477,0.0,0.0,0.0,1.1799017190933228,1.1799017190933228,link6
1764107750.9758863,d4pg_train,FAR,train,9,10,-5.528190018315709,0,171,1,-0.671,-0.48,0.41,0.6303262,-0.9233311,-0.6009409,0.54840004,0.3226242,0.51639575,0.0,0.0,0.0,0.9094169735908508,0.9094169735908508,link6
1764107752.3757534,d4pg_train,FAR,train,9,11,-6.202629138274349,0,172,1,-0.167,-0.435,0.922,1.2477207,-0.52046144,-0.09287896,0.5647269,0.23372893,-1.301136,0.0,0.0,0.0,0.7055653929710388,0.7055653929710388,link6
1764107753.7680995,d4pg_train,FAR,train,9,12,-6.009893806527353,0,173,1,-0.394,-0.52,0.76,0.9277654,-0.66960603,-0.3232146,0.85324955,0.22184022,-0.25768903,0.0,0.0,0.0,1.0158908367156982,1.0158908367156982,link6
1764107755.1516948,d4pg_train,FAR,train,9,13,-5.8386900357317995,0,174,1,-0.527,-0.503,0.645,0.7858751,-0.7489888,-0.46710357,0.63529384,0.23325759,0.059684455,0.0,0.0,0.0,0.9052984118461609,0.9052984118461609,link6
1764107756.5520837,d4pg_train,FAR,train,9,14,-6.216670425633914,0,175,1,-0.114,-0.256,0.996,1.1263288,-0.13997878,-0.37182018,-0.30421624,0.21314654,-1.5026307,0.0,0.0,0.0,0.6361594796180725,0.6361594796180725,link6
1764107757.9402368,d4pg_train,FAR,train,9,15,-6.325981158873291,0,176,1,-0.036,-0.172,1.036,1.3589559,-0.14658448,-0.1265084,-0.119719416,0.18324639,-1.0185146,0.0,0.0,0.0,0.546345591545105,0.546345591545105,link6
1764107759.332739,d4pg_train,FAR,train,9,16,-6.310536886201169,0,177,1,-0.015,-0.118,1.045,1.4394026,-0.19750817,0.05528119,0.039404813,0.16125664,-0.63241154,0.0,0.0,0.0,1.1543920040130615,1.1543920040130615,link6
1764107760.7134094,d4pg_train,FAR,train,9,17,-5.8362031612192515,0,178,1,-0.201,-0.7,0.642,1.3090711,-0.7462006,-0.4970009,0.4008939,0.27345255,-1.5061374,0.0,0.0,0.0,0.6114224195480347,0.6114224195480347,link6
1764107762.0973194,d4pg_train,FAR,train,9,18,-5.580365491034613,0,179,1,-0.31,-0.752,0.451,1.1839572,-0.92826504,-0.59004724,0.7025386,0.21922596,-1.219676,0.0,0.0,0.0,1.2136858701705933,1.2136858701705933,link6
1764107763.4901307,d4pg_train,FAR,train,9,19,-6.227208895939896,0,180,1,-0.168,-0.349,0.962,1.1121122,-0.33089292,-0.22099869,-0.35557693,0.18789281,-2.807762,0.0,0.0,0.0,0.6923964619636536,0.6923964619636536,link6
1764107767.146555,d4pg_train,FAR,train,10,0,-6.324522770025642,0,181,1,-0.107,-0.025,1.048,0.23101115,-0.08058234,-0.1005676,-0.024921892,0.08966837,0.1721893,0.0,0.0,0.0,0.7797275185585022,0.7797275185585022,link6
1764107768.5341754,d4pg_train,FAR,train,10,1,-6.199938864310805,0,182,1,-0.185,-0.429,0.921,1.190402,-0.49743792,-0.15077022,0.25992912,0.22767916,0.64466655,0.0,0.0,0.0,0.7228148579597473,0.7228148579597473,link6
1764107769.9142375,d4pg_train,FAR,train,10,2,-6.288551807878364,0,183,1,-0.01,-0.217,1.022,1.5087732,-0.09500326,-0.24353659,-0.39540252,0.22292055,0.06473345,0.0,0.0,0.0,0.5543583035469055,0.5543583035469055,link6
1764107771.2951276,d4pg_train,FAR,train,10,3,-6.291533541528041,0,184,1,0.013,-0.032,1.048,1.4147869,0.034599457,-0.23802832,-0.73227066,0.19328834,-0.5242222,0.0,0.0,0.0,1.064253568649292,1.064253568649292,link6
1764107772.6844764,d4pg_train,FAR,train,10,4,-5.959691385919193,0,185,1,-0.381,-0.509,0.763,0.9702722,-0.61013365,-0.43482706,0.5768211,0.37466654,-1.936302,0.0,0.0,0.0,0.9031640887260437,0.9031640887260437,link6
1764107774.072629,d4pg_train,FAR,train,10,5,-5.516584112505971,0,186,1,-0.749,-0.149,0.512,0.11999053,-0.7462899,-0.7885218,0.047966905,0.23892711,-0.59515077,0.0,0.0,0.0,1.2327576875686646,1.2327576875686646,link6
1764107775.460897,d4pg_train,FAR,train,10,6,-5.056975763087918,0,187,1,-0.646,0.412,0.351,-0.5567366,-0.77529705,-1.0166461,-0.5189347,0.10114171,0.81385225,0.0,0.0,0.0,0.9547956585884094,0.9547956585884094,link6
1764107776.852484,d4pg_train,FAR,train,10,7,-6.096682889224878,0,188,1,-0.237,-0.193,0.968,0.7047619,-0.04215274,-0.56325495,0.29298824,0.14199789,0.5421695,0.0,0.0,0.0,0.6718533635139465,0.6718533635139465,link6
1764107778.2379677,d4pg_train,FAR,train,10,8,-6.1305786190837495,0,189,1,-0.209,-0.167,0.986,0.6988301,-0.05933383,-0.5237493,0.29448867,0.19421503,-0.22446302,0.0,0.0,0.0,0.8893176913261414,0.8893176913261414,link6
1764107779.6296062,d4pg_train,FAR,train,10,9,-5.172068772065731,0,190,1,-0.313,-0.727,0.341,1.195251,-0.8598272,-0.9065324,1.269294,0.13796003,-0.81371665,0.0,0.0,0.0,0.8526104688644409,0.8526104688644409,link6
1764107781.019338,d4pg_train,FAR,train,10,10,-5.457547043841558,0,191,1,-0.572,-0.563,0.428,0.7366376,-0.83217245,-0.6745039,0.31494436,0.08776976,1.3284128,0.0,0.0,0.0,1.1281684637069702,1.1281684637069702,link6
1764107782.4143703,d4pg_train,FAR,train,10,11,-5.765376154359688,0,192,1,-0.635,-0.349,0.631,0.49983662,-0.69522864,-0.5712375,-0.15493934,0.12247839,1.5550809,0.0,0.0,0.0,0.9387286305427551,0.9387286305427551,link6
1764107783.799386,d4pg_train,FAR,train,10,12,-5.636346489636368,0,193,1,-0.478,-0.553,0.59,0.8525217,-0.6783107,-0.7043301,-0.2397655,0.20162345,-1.1234969,0.0,0.0,0.0,1.0126962661743164,1.0126962661743164,link6
1764107785.1837816,d4pg_train,FAR,train,10,13,-5.541260119924693,0,194,1,-0.524,-0.579,0.493,0.82744753,-0.7864161,-0.69803023,-0.061155908,0.1879477,-0.60929286,0.0,0.0,0.0,1.0052205324172974,1.0052205324172974,link6
1764107786.5778024,d4pg_train,FAR,train,10,14,-4.886430739815458,0,195,1,-0.469,-0.504,0.435,0.8221481,-0.5242081,-1.2477884,0.036055174,0.18779832,1.179325,0.0,0.0,0.0,1.01375150680542,1.01375150680542,link6
1764107787.9669054,d4pg_train,FAR,train,10,15,-5.341553972755771,0,196,1,-0.623,-0.154,0.617,0.23202568,-0.39258495,-1.042896,0.15878412,0.2529388,0.37079406,0.0,0.0,0.0,1.091132640838623,1.091132640838623,link6
1764107789.3586562,d4pg_train,FAR,train,10,16,-5.81519807996536,0,197,1,-0.596,-0.096,0.758,0.19484913,-0.44988322,-0.63098675,0.3243987,0.20454045,-0.06917337,0.0,0.0,0.0,0.8431270718574524,0.8431270718574524,link6
1764107790.7407472,d4pg_train,FAR,train,10,17,-5.928544946161039,0,198,1,-0.574,-0.315,0.74,0.49536058,-0.59618616,-0.46719298,-0.46854827,0.074326076,1.6609936,0.0,0.0,0.0,1.1201848983764648,1.1201848983764648,link6
1764107792.1254659,d4pg_train,FAR,train,10,18,-5.620641036491612,0,199,1,-0.351,-0.654,0.569,1.0963386,-0.69210553,-0.7043525,0.21469979,0.12487957,-0.562973,0.0,0.0,0.0,0.6299322247505188,0.6299322247505188,link6
1764107793.5120702,d4pg_train,FAR,train,10,19,-5.459666154179076,0,200,1,-0.121,-0.757,0.49,1.4142271,-0.7648106,-0.77638376,0.67445636,0.18408747,-1.7992829,0.0,0.0,0.0,0.8890828490257263,0.8890828490257263,link6
1764107797.171723,d4pg_train,FAR,train,11,0,-6.03414010107912,0,201,1,-0.496,-0.219,0.847,0.45383608,-0.46241355,-0.47748616,0.47673407,0.02928692,0.28060222,0.0,0.0,0.0,1.1058261394500732,1.1058261394500732,link6
1764107798.5616364,d4pg_train,FAR,train,11,1,-5.371123285308367,0,202,1,-0.558,-0.592,0.37,0.82503647,-0.9087359,-0.7242427,0.6653264,0.045577,0.26920483,0.0,0.0,0.0,0.6339235901832581,0.6339235901832581,link6
1764107799.946404,d4pg_train,FAR,train,11,2,-5.409421294896666,0,203,1,-0.428,-0.607,0.511,0.9629502,-0.67706096,-0.8946884,0.2408899,0.21173456,-0.37856343,0.0,0.0,0.0,0.9907155632972717,0.9907155632972717,link6
1764107801.3291595,d4pg_train,FAR,train,11,3,-5.195445707924263,0,204,1,-0.468,-0.635,0.357,0.9533235,-0.84207034,-0.9151099,0.60996526,0.19830489,0.9262149,0.0,0.0,0.0,0.9597329497337341,0.9597329497337341,link6
1764107802.7170653,d4pg_train,FAR,train,11,4,-5.3638332969300215,0,205,1,-0.179,-0.676,0.556,1.3125877,-0.5402079,-0.9204605,-0.0042898273,-0.037849408,3.1652305,0.0,0.0,0.0,0.7273396849632263,0.7273396849632263,link6
1764107804.103069,d4pg_train,FAR,train,11,5,-5.326272922920327,0,206,1,-0.647,-0.114,0.597,0.18132247,-0.44551554,-1.0532911,0.106161706,0.31367603,2.9724348,0.0,0.0,0.0,1.1269752979278564,1.1269752979278564,link6
1764107805.493661,d4pg_train,FAR,train,11,6,-5.21997925202516,0,207,1,-0.631,0.084,0.593,-0.11665653,-0.39441788,-1.155263,0.1593824,0.41540042,2.324674,0.0,0.0,0.0,1.0855460166931152,1.0855460166931152,link6
1764107806.880131,d4pg_train,FAR,train,11,7,-5.625572604750084,0,208,1,-0.615,-0.189,0.682,0.28978112,-0.45504808,-0.79658395,-0.67672193,0.106195316,1.2751876,0.0,0.0,0.0,1.1540725231170654,1.1540725231170654,link6
1764107808.2706933,d4pg_train,FAR,train,11,8,-5.929961057521751,0,209,1,-0.442,-0.457,0.756,0.80800176,-0.55402124,-0.50215304,0.25783914,0.11014819,1.7147498,0.0,0.0,0.0,0.7366440296173096,0.7366440296173096,link6
1764107809.662555,d4pg_train,FAR,train,11,9,-5.990655278149555,0,210,1,-0.314,-0.547,0.774,1.0448312,-0.6058704,-0.4220727,0.853463,0.13314119,1.8568662,0.0,0.0,0.0,1.245015025138855,1.245015025138855,link6
1764107811.0536947,d4pg_train,FAR,train,11,10,-5.879397637891347,0,211,1,-0.503,-0.222,0.811,0.41030946,-0.33153987,-0.6486836,-0.26907247,0.14750321,0.9731976,0.0,0.0,0.0,0.9062973856925964,0.9062973856925964,link6
1764107812.4377193,d4pg_train,FAR,train,11,11,-5.959499693804436,0,212,1,-0.427,-0.3,0.845,0.6138073,-0.3451482,-0.59983397,0.039003816,0.1794772,1.9765077,0.0,0.0,0.0,0.906482994556427,0.906482994556427,link6
1764107813.8306165,d4pg_train,FAR,train,11,12,-5.594713002022407,0,213,1,-0.071,-0.773,0.514,1.4733213,-0.79976815,-0.6726382,-0.3675259,0.21646595,0.459324,0.0,0.0,0.0,0.6354227662086487,0.6354227662086487,link6
1764107815.210271,d4pg_train,FAR,train,11,13,-5.882836923441735,0,214,1,-0.442,-0.513,0.709,0.8422578,-0.62581134,-0.5065846,0.0534656,0.2689748,2.0552285,0.0,0.0,0.0,0.9579624533653259,0.9579624533653259,link6
1764107816.5882568,d4pg_train,FAR,train,11,14,-5.8928950810985326,0,215,1,-0.557,-0.34,0.734,0.55055565,-0.592256,-0.5412093,0.18642908,0.23864299,2.06301,0.0,0.0,0.0,1.18224036693573,1.18224036693573,link6
1764107817.9753366,d4pg_train,FAR,train,11,15,-5.79813994179137,0,216,1,-0.67,-0.094,0.69,0.16791375,-0.59735936,-0.6172419,0.5887882,0.27578413,1.322577,0.0,0.0,0.0,1.207416296005249,1.207416296005249,link6
1764107819.3705466,d4pg_train,FAR,train,11,16,-6.0766247611326,0,217,1,-0.441,-0.361,0.836,0.74674916,-0.50989634,-0.32191056,1.0636215,0.17764932,1.2612298,0.0,0.0,0.0,0.6734299659729004,0.6734299659729004,link6
1764107820.7576888,d4pg_train,FAR,train,11,17,-6.170968860277598,0,218,1,-0.233,-0.394,0.921,1.0458632,-0.41929647,-0.31675464,1.2083873,0.09641128,1.5326419,0.0,0.0,0.0,1.0782800912857056,1.0782800912857056,link6
1764107822.1403675,d4pg_train,FAR,train,11,18,-4.415876384173171,0,219,1,-0.663,-0.308,0.085,0.42383817,-0.9832215,-1.3314579,0.09779497,0.23497665,1.6836559,0.0,0.0,0.0,1.1982027292251587,1.1982027292251587,link6
1764107823.5319393,d4pg_train,FAR,train,11,19,-3.408422512977427,0,220,1,-0.134,0.006,0.552,0.48299786,0.42470753,-1.7113755,-4.0126243,2.351044,-0.0048117246,0.0,0.0,0.0,1.168128490447998,1.168128490447998,link6
1764107827.191432,d4pg_train,FAR,train,12,0,-6.32546047618518,0,221,1,-0.068,-0.004,1.052,0.08217058,-0.040876854,-0.12564856,-0.01622799,0.0048179207,0.25617883,0.0,0.0,0.0,0.9934453368186951,0.9934453368186951,link6
1764107828.5850492,d4pg_train,FAR,train,12,1,-5.44632129984494,0,222,1,-0.66,-0.395,0.482,0.5258539,-0.75544035,-0.729406,0.3917672,-0.0107245315,1.2768717,0.0,0.0,0.0,1.2284791469573975,1.2284791469573975,link6
1764107829.9718814,d4pg_train,FAR,train,12,2,-5.512467773728501,0,223,1,-0.677,-0.428,0.45,0.5635232,-0.86526525,-0.6409849,0.20380263,-0.021449098,1.5952716,0.0,0.0,0.0,0.9876008629798889,0.9876008629798889,link6
1764107831.3556783,d4pg_train,FAR,train,12,3,-5.580129401142609,0,224,1,-0.773,0.26,0.447,-0.34959528,-0.929412,-0.5602451,-0.305986,0.05704327,2.178269,0.0,0.0,0.0,1.3504818677902222,1.3504818677902222,link6
1764107832.738972,d4pg_train,FAR,train,12,4,-5.141743590223007,0,225,1,-0.653,-0.464,0.304,0.66272336,-0.8982839,-0.92154026,0.50498235,0.19059642,2.666816,0.0,0.0,0.0,0.8631583452224731,0.8631583452224731,link6
1764107834.124436,d4pg_train,FAR,train,12,5,-4.74293952164126,0,226,1,-0.437,-0.626,0.205,0.9537156,-0.9131321,-1.1590974,0.8203364,0.27194747,3.0979295,0.0,0.0,0.0,1.2629354000091553,1.2629354000091553,link6
1764107835.5386906,d4pg_train,FAR,train,12,6,-5.09246706252734,0,227,1,-0.779,0.132,0.31,-0.1267943,-0.8782453,-0.93619037,1.1735839,0.30397168,4.4047527,0.0,0.0,0.0,1.335409164428711,1.335409164428711,link6
1764107836.9308977,d4pg_train,FAR,train,12,7,-4.247393167066789,0,228,1,-0.62,0.335,0.067,-0.44283754,-0.9866682,-1.3861854,0.7128728,0.465096,5.7624245,0.0,0.0,0.0,1.2064300775527954,1.2064300775527954,link6
1764107838.3260925,d4pg_train,FAR,train,12,8,-2.7264162910439134,0,229,1,-0.401,0.211,0.034,-0.6129921,-1.2028782,-1.4474373,0.69284767,-2.167468,3.3182337,0.0,0.0,0.0,1.2195333242416382,1.2195333242416382,link6
1764107839.7126586,d4pg_train,FAR,train,12,9,-4.425510069239634,0,230,1,0.172,-0.494,-0.52,-1.1607329,-3.9382114,0.62535554,-5.4029293,-0.40889087,-1.7611408,0.0,0.0,0.0,1.1566715240478516,1.1566715240478516,link6
1764107841.1089005,d4pg_train,FAR,train,12,10,29.816417848278434,1,231,1,0.015,0.002,-0.023,0.42301953,-5.0813894,2.7792602,-4.1234694,-0.040681195,-4.010256,0.0,0.0,0.0,0.5605312585830688,0.5605312585830688,link6
1764107844.7601783,d4pg_train,FAR,train,13,0,-1.3462917878364018,0,232,1,-0.005,-0.116,0.192,-1.4094468,-0.66494304,2.7644405,0.78844726,0.69439477,1.5213524,0.0,0.0,0.0,1.201387882232666,1.201387882232666,link6
1764107846.1502185,d4pg_train,FAR,train,13,1,-5.2312499462365585,0,233,1,-0.821,0.038,0.291,-0.04722818,-0.9782452,-0.8089686,0.44535607,0.22704338,4.084803,0.0,0.0,0.0,31.09412956237793,31.09412956237793,link6
1764107847.5377216,d4pg_train,FAR,train,13,2,-4.001851571460391,0,234,1,-0.126,0.646,0.108,-1.3642251,-0.81939363,-1.4119195,2.5642715,0.42490032,5.822576,0.0,0.0,0.0,50.01620101928711,50.01620101928711,link6
1764107848.9304652,d4pg_train,FAR,train,13,3,-3.991154720127998,0,235,1,0.126,0.403,0.514,-1.712218,-0.17447926,-1.2345328,2.6441774,1.7705542,0.001864245,0.0,0.0,0.0,72.32852935791016,72.32852935791016,link6
1764107850.319939,d4pg_train,FAR,train,13,4,-3.8056510612508867,0,236,1,-0.312,0.544,0.095,-1.009109,-0.8054572,-1.4474651,2.722408,0.53550935,6.2411723,0.0,0.0,0.0,85.12340545654297,85.12340545654297,link6
1764107851.7330637,d4pg_train,FAR,train,13,5,-4.169149553566051,0,237,1,-0.226,0.606,0.254,-1.1157746,-0.6808119,-1.2494498,2.4865499,0.87674105,5.7556195,0.0,0.0,0.0,96.68376922607422,96.68376922607422,link6
1764107853.1136954,d4pg_train,FAR,train,13,6,-3.5685476037177923,0,238,1,-0.144,0.576,-0.035,-1.3322381,-0.99904287,-1.4854238,2.8692534,0.48872542,5.3101654,0.0,0.0,0.0,97.01002502441406,97.01002502441406,link6
1764107854.4995828,d4pg_train,FAR,train,13,7,-0.6461640658532475,0,239,1,-0.085,-0.023,-0.062,-2.1282263,4.085934,-2.8034437,2.5712624,4.865857,-0.47312248,0.0,0.0,0.0,96.58712005615234,96.58712005615234,link6
