QuanPM-doosan/DoosanRobot_Reinforcement_Learning/ros2_ws/rl_logs/20251118_090720_d4pg_train.csv
ts,run_tag,mode,phase,ep,step,reward,done,mem_len,learn_flag,ee_x,ee_y,ee_z,j1,j2,j3,j4,j5,j6,sphere_x,sphere_y,sphere_z,dist_out,signed,closest_link
1763431644.3644707,d4pg_train,FAR,train,1,0,-8.531818925034965,0,1,0,0.021,0.038,1.395,-0.06830411,0.0012966867,0.015838305,-0.0034489257,0.056061335,-0.05148118,0.0,0.0,0.0,0.3456079363822937,0.3456079363822937,link6
1763431645.741221,d4pg_train,FAR,train,1,1,-8.254578128500983,0,2,0,0.006,0.14,1.363,-1.0305724,-0.10671939,0.12965307,-0.4893766,-0.72483826,-0.061486974,0.0,0.0,0.0,0.5006473064422607,0.5006473064422607,link6
1763431647.1263802,d4pg_train,FAR,train,1,2,-8.880375944096276,0,3,0,0.109,0.011,1.371,-0.4517711,-0.02505637,0.29656252,-0.28261954,-0.5462601,0.1181502,0.0,0.0,0.0,0.2074405997991562,0.2074405997991562,link6
1763431648.5185893,d4pg_train,FAR,train,1,3,-8.237363635723979,0,4,0,0.283,0.055,1.342,0.040198863,0.06435492,0.33795214,-0.2590155,-0.18259625,0.1364758,0.0,0.0,0.0,0.801014244556427,0.801014244556427,link6
1763431649.9027436,d4pg_train,FAR,train,1,4,-8.1506657614236,0,5,0,-0.245,0.19,1.322,-0.50747234,-0.10057783,-0.18002282,-0.18305036,-0.672656,-0.7590718,0.0,0.0,0.0,0.7278807163238525,0.7278807163238525,link6
1763431651.282775,d4pg_train,FAR,train,1,5,-8.30762609735954,0,6,0,-0.167,0.177,1.36,-0.66428226,-0.06276932,-0.2231235,0.07259299,-0.12771334,-0.43995273,0.0,0.0,0.0,0.562530517578125,0.562530517578125,link6
1763431652.663615,d4pg_train,FAR,train,1,6,-8.297121560149364,0,7,0,-0.111,0.158,1.369,-0.7324524,-0.04769795,-0.27953961,0.11799446,0.25015843,-0.2700991,0.0,0.0,0.0,0.7919285297393799,0.7919285297393799,link6
1763431654.0519042,d4pg_train,FAR,train,1,7,-8.063513432912636,0,8,0,0.063,0.196,1.318,-1.5152808,-0.011267965,-0.13410002,-0.36205322,-1.0010445,0.7940965,0.0,0.0,0.0,0.4429216682910919,0.4429216682910919,link6
1763431655.4399548,d4pg_train,FAR,train,1,8,-7.7547735197333845,0,9,0,-0.402,0.28,1.196,-0.50165635,-0.0469819,-0.7310642,-0.6110132,-0.18526146,0.28195617,0.0,0.0,0.0,1.0927655696868896,1.0927655696868896,link6
1763431656.827333,d4pg_train,FAR,train,1,9,-7.429283321761637,0,10,0,-0.601,0.185,1.064,-0.25526053,-0.12404266,-0.9325646,-0.87626135,0.045194652,-0.19350421,0.0,0.0,0.0,0.5899384021759033,0.5899384021759033,link6
1763431658.205132,d4pg_train,FAR,train,1,10,-8.199612311351686,0,11,0,-0.021,0.044,1.361,-0.25687248,0.09478232,-0.09588826,0.041677848,-0.7246314,-0.46330267,0.0,0.0,0.0,0.5171703696250916,0.5171703696250916,link6
1763431659.5809517,d4pg_train,FAR,train,1,11,-9.038005551404293,0,12,0,0.229,-0.078,1.356,-0.48704886,0.031952582,0.35131994,0.34572116,-0.060804404,-0.37605175,0.0,0.0,0.0,0.18662162125110626,0.18662162125110626,link6
1763431660.9698308,d4pg_train,FAR,train,1,12,-8.17708194990824,0,13,0,0.269,-0.17,1.321,-0.6935671,0.03323406,0.43949744,0.49780178,-0.08416916,-0.28502336,0.0,0.0,0.0,0.53242427110672,0.53242427110672,link6
1763431662.3465664,d4pg_train,FAR,train,1,13,-8.424913344995094,0,14,0,0.099,-0.028,1.385,-0.73473006,0.18249334,-0.2111633,0.6276575,0.0934482,-0.12255497,0.0,0.0,0.0,0.3995218873023987,0.3995218873023987,link6
1763431663.7317634,d4pg_train,FAR,train,1,14,-8.353374432049968,0,15,0,0.052,-0.009,1.385,-0.79501164,0.06622353,-0.13860784,-0.18152454,0.4261453,-0.38687727,0.0,0.0,0.0,0.4897017478942871,0.4897017478942871,link6
1763431665.1047537,d4pg_train,FAR,train,1,15,-8.415096293719245,0,16,0,0.033,0.016,1.395,-1.0645838,0.01302857,-0.03773424,-0.24128379,0.08969513,-0.35950428,0.0,0.0,0.0,0.47746706008911133,0.47746706008911133,link6
1763431666.4840744,d4pg_train,FAR,train,1,16,-8.347584441738546,0,17,0,0.02,0.031,1.384,-0.69571126,0.14392516,-0.282231,-0.82970595,0.031707674,-0.4096826,0.0,0.0,0.0,0.48125678300857544,0.48125678300857544,link6
1763431667.8580158,d4pg_train,FAR,train,1,17,-8.280394897273919,0,18,0,-0.096,0.169,1.365,-0.91174066,-0.006284231,-0.31146798,-0.8930121,0.114130944,-0.08795725,0.0,0.0,0.0,0.6464974880218506,0.6464974880218506,link6
1763431669.2333307,d4pg_train,FAR,train,1,18,-8.40650814536158,0,19,0,-0.078,0.181,1.371,-0.93059456,-0.035341233,-0.21603307,-0.90685403,-0.06926183,-0.34658542,0.0,0.0,0.0,0.395344078540802,0.395344078540802,link6
1763431670.6153061,d4pg_train,FAR,train,1,19,-8.491414449587797,0,20,0,0.307,0.159,1.268,0.23180354,0.0066362047,0.6836737,-0.5832853,-0.7506562,-0.19728768,0.0,0.0,0.0,0.21108347177505493,0.21108347177505493,link6
1763431674.2788038,d4pg_train,FAR,train,2,0,-8.398811510157076,0,21,0,-0.017,0.051,1.394,-0.4879778,-0.01818165,-0.042873826,-0.09808794,0.06831887,0.07577457,0.0,0.0,0.0,0.516398549079895,0.516398549079895,link6
1763431675.6535127,d4pg_train,FAR,train,2,1,-8.394202491016642,0,22,0,-0.014,0.07,1.392,-0.88342714,-0.033705942,-0.068897806,-0.23755375,0.18984629,-0.115921006,0.0,0.0,0.0,0.507591187953949,0.507591187953949,link6
1763431677.0342944,d4pg_train,FAR,train,2,2,-7.999986244751933,0,23,0,-0.17,0.374,1.268,-0.97212875,-0.07123835,-0.49013072,-0.4453371,-0.42697576,0.252881,0.0,0.0,0.0,0.754767119884491,0.754767119884491,link6
1763431678.4150622,d4pg_train,FAR,train,2,3,-8.324305055704933,0,24,0,-0.015,0.183,1.367,-1.208036,0.00038531117,-0.22138128,-0.40815762,-0.26080984,-0.35615528,0.0,0.0,0.0,0.4632592797279358,0.4632592797279358,link6
1763431679.7991023,d4pg_train,FAR,train,2,4,-8.313163494233853,0,25,0,0.011,0.125,1.378,-1.2791145,0.03791546,-0.25864017,-0.5056166,-0.10996301,-0.3566807,0.0,0.0,0.0,0.6123474836349487,0.6123474836349487,link6
1763431681.1795413,d4pg_train,FAR,train,2,5,-8.313387322215537,0,26,0,-0.075,0.332,1.306,-1.2474324,-0.024052436,-0.51938206,-0.6737148,0.068537466,-0.043360338,0.0,0.0,0.0,0.31435680389404297,0.31435680389404297,link6
1763431682.556678,d4pg_train,FAR,train,2,6,-8.29928086364212,0,27,0,0.039,0.057,1.376,-0.7954282,0.009687891,0.050802287,-0.42723805,-0.62048787,0.32133576,0.0,0.0,0.0,0.5024094581604004,0.5024094581604004,link6
1763431683.9327028,d4pg_train,FAR,train,2,7,-8.204717742876491,0,28,0,-0.147,0.239,1.338,-0.8599671,-0.06005638,-0.27020884,-0.11416839,-0.36452532,0.3669523,0.0,0.0,0.0,0.7778924703598022,0.7778924703598022,link6
1763431685.3070457,d4pg_train,FAR,train,2,8,-8.01816423308502,0,29,0,-0.288,0.349,1.256,-0.78829974,-0.09929855,-0.5654702,-0.040005714,0.011022085,0.22189994,0.0,0.0,0.0,0.6432964205741882,0.6432964205741882,link6
1763431686.685421,d4pg_train,FAR,train,2,9,-8.396699093563033,0,30,0,0.024,0.044,1.391,-0.7187068,0.05664669,-0.09650126,-0.5527765,-0.15819314,0.5147001,0.0,0.0,0.0,0.4704257845878601,0.4704257845878601,link6
1763431688.0646744,d4pg_train,FAR,train,2,10,-8.360797278253191,0,31,0,-0.062,0.098,1.387,-0.5629815,-0.03750329,-0.058158822,-0.40622002,-0.20639558,0.16309004,0.0,0.0,0.0,0.6238829493522644,0.6238829493522644,link6
1763431689.4465945,d4pg_train,FAR,train,2,11,-8.39164418674385,0,32,0,-0.095,0.127,1.382,-0.6150974,-0.068316616,-0.07531501,-0.3996908,-0.19045141,-0.08369147,0.0,0.0,0.0,0.47056686878204346,0.47056686878204346,link6
1763431690.831149,d4pg_train,FAR,train,2,12,-8.396917856057376,0,33,0,0.008,0.062,1.392,-1.0731348,0.01660629,-0.11428292,-0.8832737,0.022889419,-0.012033872,0.0,0.0,0.0,0.4919889569282532,0.4919889569282532,link6
1763431692.2196052,d4pg_train,FAR,train,2,13,-11.232575394538905,0,34,0,0.331,-0.223,1.231,-0.6182578,-0.0011189895,0.6206763,-0.24671412,0.6562746,-0.47660187,0.0,0.0,0.0,0.03658376634120941,0.03658376634120941,link6
1763431693.7343483,d4pg_train,NEAR,train,2,14,-7.997132700263454,0,35,0,0.337,-0.121,1.278,-0.42662695,0.009776929,0.42285952,-0.16104725,0.42105737,-0.31840056,0.0,0.0,0.0,0.49950921535491943,0.49950921535491943,link6
1763431695.1123776,d4pg_train,FAR,train,2,15,-8.217747071356825,0,36,0,0.081,-0.152,1.347,-1.2033883,-0.10322439,0.44283926,-0.822286,0.20061578,-0.49642915,0.0,0.0,0.0,0.42694711685180664,0.42694711685180664,link6
1763431696.5210223,d4pg_train,FAR,train,2,16,-8.316727978631997,0,37,0,0.007,0.006,1.385,-0.7795211,-0.05295814,0.014309016,-0.67254734,0.410973,-0.38948852,0.0,0.0,0.0,0.6638665199279785,0.6638665199279785,link6
1763431697.9057286,d4pg_train,FAR,train,2,17,-8.35914918564034,0,38,0,-0.207,0.114,1.351,-0.48037365,-0.056261808,-0.32432684,-0.7089113,0.39109012,-0.33771795,0.0,0.0,0.0,0.3649079203605652,0.3649079203605652,link6
1763431699.2934759,d4pg_train,FAR,train,2,18,-8.455445788605811,0,39,0,0.204,-0.101,1.348,-0.7183263,0.08390895,0.31521994,-0.26417044,-0.64364725,0.017370025,0.0,0.0,0.0,0.29840540885925293,0.29840540885925293,link6
1763431700.675,d4pg_train,FAR,train,2,19,-8.436541193739703,0,40,0,0.252,-0.232,1.323,-0.8997676,0.08700866,0.40453222,-0.47178516,-0.12529717,0.27567834,0.0,0.0,0.0,0.304995059967041,0.304995059967041,link6
1763431704.3125112,d4pg_train,FAR,train,3,0,-8.387114248068823,0,41,0,-0.017,0.04,1.395,-0.04526621,-0.01060697,-0.0039253905,-0.007168924,-0.02708632,0.016495032,0.0,0.0,0.0,0.5948185324668884,0.5948185324668884,link6
1763431705.6881027,d4pg_train,FAR,train,3,1,-8.411539707654784,0,42,0,0.072,-0.044,1.387,-1.2039078,-0.033781335,0.21138713,-0.695212,-0.12230923,0.35126147,0.0,0.0,0.0,0.42110520601272583,0.42110520601272583,link6
1763431707.0644364,d4pg_train,FAR,train,3,2,-8.376865879967559,0,43,0,0.048,-0.01,1.394,-1.0700821,-0.023156578,0.044839982,-0.6334116,0.026497837,0.22979167,0.0,0.0,0.0,0.6476768255233765,0.6476768255233765,link6
1763431708.442781,d4pg_train,FAR,train,3,3,-8.343670286660702,0,44,0,-0.148,0.227,1.355,-0.85063714,-0.09602063,-0.24979538,-0.43731788,0.020364756,0.0805543,0.0,0.0,0.0,0.45529207587242126,0.45529207587242126,link6
1763431709.827631,d4pg_train,FAR,train,3,4,-7.909680658980679,0,45,0,-0.266,0.338,1.246,-0.82197773,-0.07764426,-0.4829589,0.058577556,-0.55005175,0.15997578,0.0,0.0,0.0,0.8754881620407104,0.8754881620407104,link6
1763431711.2018116,d4pg_train,FAR,train,3,5,-7.801468538348793,0,46,0,-0.38,0.247,1.218,-0.45099542,-0.062222805,-0.5611952,-0.25708577,-0.58251923,0.37492752,0.0,0.0,0.0,0.7148239612579346,0.7148239612579346,link6
1763431712.5767128,d4pg_train,FAR,train,3,6,-7.960163504742999,0,47,0,-0.244,0.126,1.297,-0.20328197,0.06618816,-0.4824122,-0.53831863,-0.57314533,0.5583156,0.0,0.0,0.0,0.6786326766014099,0.6786326766014099,link6
1763431713.9523816,d4pg_train,FAR,train,3,7,-7.789077119612358,0,48,0,-0.19,0.429,1.21,-1.0503467,-0.037660684,-0.6999913,-0.57438135,-0.25826472,-0.34267262,0.0,0.0,0.0,0.7650739550590515,0.7650739550590515,link6
1763431715.3356903,d4pg_train,FAR,train,3,8,-8.29850055023707,0,49,0,0.002,0.23,1.357,-1.4116894,-0.010999442,-0.261762,-0.4214042,-0.084219396,0.16805974,0.0,0.0,0.0,0.48190879821777344,0.48190879821777344,link6
1763431716.7176986,d4pg_train,FAR,train,3,9,-8.407324661555103,0,50,0,0.039,-0.25,1.366,-1.5767156,0.14787497,0.129394,-0.38273475,-0.11285555,0.5001884,0.0,0.0,0.0,0.42418065667152405,0.42418065667152405,link6
1763431718.094584,d4pg_train,FAR,train,3,10,-8.307292660956522,0,51,0,0.073,-0.053,1.371,-1.6346269,0.05869998,0.08155517,-0.4889637,-0.642712,0.07343684,0.0,0.0,0.0,0.43660831451416016,0.43660831451416016,link6
1763431719.4701943,d4pg_train,FAR,train,3,11,-8.074106185357712,0,52,0,0.048,0.181,1.331,-1.4360145,0.12448373,-0.4593331,-0.6308822,-0.45687556,0.019843338,0.0,0.0,0.0,0.6270238161087036,0.6270238161087036,link6
1763431720.8499715,d4pg_train,FAR,train,3,12,-7.636709714604496,0,53,0,-0.109,0.362,1.212,-1.0671998,0.10504474,-0.7848317,-0.6919224,-0.35790023,-0.07110426,0.0,0.0,0.0,0.5565123558044434,0.5565123558044434,link6
1763431722.2242076,d4pg_train,FAR,train,3,13,-8.58798663367653,0,54,0,0.197,0.027,1.372,-0.15686119,0.055365935,0.21137203,-1.3024149,-0.15621069,0.8060597,0.0,0.0,0.0,0.29188358783721924,0.29188358783721924,link6
1763431723.6111677,d4pg_train,FAR,train,3,14,-8.281620854253863,0,55,0,-0.083,0.12,1.372,-0.6747454,0.04794654,-0.3172469,-0.9962646,-0.039472476,0.38217258,0.0,0.0,0.0,0.735359251499176,0.735359251499176,link6
1763431724.9985108,d4pg_train,FAR,train,3,15,-8.162223697206095,0,56,0,-0.202,0.291,1.291,-0.86573046,-0.004445936,-0.57052386,-0.77028805,0.10158237,0.1826348,0.0,0.0,0.0,0.3650309443473816,0.3650309443473816,link6
1763431726.3791158,d4pg_train,FAR,train,3,16,-7.800755972591246,0,57,0,-0.169,0.4,1.225,-0.96881384,-0.08748529,-0.4708774,-0.5854947,-0.83453697,0.33389902,0.0,0.0,0.0,0.7548438906669617,0.7548438906669617,link6
1763431727.7583132,d4pg_train,FAR,train,3,17,-7.807598728489917,0,58,0,-0.287,0.17,1.257,-0.4069849,0.04034163,-0.4918941,0.08198775,-0.7685342,0.005582975,0.0,0.0,0.0,0.7000356912612915,0.7000356912612915,link6
1763431729.131618,d4pg_train,FAR,train,3,18,-7.918935427363774,0,59,0,-0.197,0.104,1.299,-0.3884234,0.12622108,-0.50212955,0.12817521,-0.5901292,-0.04864666,0.0,0.0,0.0,0.6104992032051086,0.6104992032051086,link6
1763431730.515706,d4pg_train,FAR,train,3,19,-7.855886631536278,0,60,0,-0.4,0.261,1.219,-0.49937493,-0.069693975,-0.6513457,0.07145019,-0.17437036,0.4738431,0.0,0.0,0.0,0.9191783666610718,0.9191783666610718,link6
1763431734.1553142,d4pg_train,FAR,train,4,0,-8.27535670311379,0,61,0,-0.125,0.109,1.368,-0.4672364,0.027802669,-0.27028388,-0.12990409,-0.21109383,0.26644686,0.0,0.0,0.0,0.6535287499427795,0.6535287499427795,link6
1763431735.5406566,d4pg_train,FAR,train,4,1,-8.095721586412195,0,62,0,-0.21,0.216,1.315,-0.59462947,-0.0014837272,-0.42805088,-0.4834918,-0.349912,0.108858675,0.0,0.0,0.0,0.8238577246665955,0.8238577246665955,link6
1763431736.9206183,d4pg_train,FAR,train,4,2,-8.294504932496453,0,63,0,-0.034,0.025,1.377,0.1585168,0.03451505,0.014157925,0.18006428,-0.5817032,-0.28201908,0.0,0.0,0.0,0.5162889361381531,0.5162889361381531,link6
1763431738.2935538,d4pg_train,FAR,train,4,3,-8.82852795594171,0,64,0,0.221,-0.036,1.361,-0.43365836,0.07162915,0.30883908,-0.25727734,-0.35076386,0.0483747,0.0,0.0,0.0,0.22022859752178192,0.22022859752178192,link6
1763431739.8503425,d4pg_train,FAR,train,4,4,-63.0053289751265,1,65,1,0.435,-0.161,1.251,-0.45516673,0.116902374,0.59597147,-0.38008726,-0.21988553,0.35492888,0.0,0.0,0.0,0.0,-0.008914247155189514,link6
1763431743.5005357,d4pg_train,FAR,train,5,0,-8.218589451503313,0,66,1,-0.002,0.04,1.362,-0.25912628,0.04844997,0.049039636,0.011217052,-0.85645807,0.0549796,0.0,0.0,0.0,0.47546643018722534,0.47546643018722534,link6
1763431744.890326,d4pg_train,FAR,train,5,1,-8.311370688804784,0,67,1,0.081,0.044,1.368,-0.27947655,0.057291653,0.12141344,-0.3321762,-0.70179194,0.09924887,0.0,0.0,0.0,0.4077392816543579,0.4077392816543579,link6
1763431746.3605504,d4pg_train,FAR,train,5,2,-8.202801466046035,0,68,1,0.093,0.101,1.346,-1.0295657,-0.11753666,0.20277777,-1.3201528,-0.88199437,0.18711326,0.0,0.0,0.0,0.40757566690444946,0.40757566690444946,link6
1763431747.7986465,d4pg_train,FAR,train,5,3,-8.208277717182122,0,69,1,0.117,0.04,1.344,-1.1628805,-0.09606665,0.29669976,-1.0197074,-0.9040758,-0.3245949,0.0,0.0,0.0,0.3814693093299866,0.3814693093299866,link6
1763431749.18269,d4pg_train,FAR,train,5,4,-8.119997975645271,0,70,1,0.122,-0.024,1.334,-1.4004531,-0.062818564,0.33053687,-0.7864487,-1.0300734,-0.12878968,0.0,0.0,0.0,0.4118978977203369,0.4118978977203369,link6
1763431750.559354,d4pg_train,FAR,train,5,5,-7.805369084206626,0,71,1,-0.343,0.21,1.237,-0.5357431,0.00098147,-0.767374,-0.7117294,0.46895653,0.190048,0.0,0.0,0.0,0.8574625849723816,0.8574625849723816,link6
1763431751.9452422,d4pg_train,FAR,train,5,6,-8.083477115264069,0,72,1,-0.21,0.313,1.292,-0.90092164,-0.044450093,-0.49557984,-0.26691636,-0.062944315,0.105199024,0.0,0.0,0.0,0.6397233605384827,0.6397233605384827,link6
1763431753.3322759,d4pg_train,FAR,train,5,7,-8.421916185321098,0,73,1,-0.043,0.162,1.374,-1.0780549,-0.010371944,-0.2058357,0.018967457,-0.1647279,0.10419511,0.0,0.0,0.0,0.37566936016082764,0.37566936016082764,link6
1763431754.7864635,d4pg_train,FAR,train,5,8,-8.33762639992341,0,74,1,-0.205,0.086,1.371,-0.24133432,-0.11198127,-0.1465141,-1.0484822,0.050260417,0.07858529,0.0,0.0,0.0,0.7085492014884949,0.7085492014884949,link6
1763431756.1768398,d4pg_train,FAR,train,5,9,-8.439501026513684,0,75,1,0.114,0.036,1.355,-0.61859554,-0.089545034,0.40634286,-0.79780954,-0.6964277,-0.47046685,0.0,0.0,0.0,0.2889861464500427,0.2889861464500427,link6
1763431757.5596437,d4pg_train,FAR,train,5,10,-8.060801517697945,0,76,1,0.19,0.012,1.327,-0.5150415,-0.022961117,0.3934908,-0.8089439,-0.90265715,-0.66632974,0.0,0.0,0.0,0.5667605996131897,0.5667605996131897,link6
1763431758.9789631,d4pg_train,FAR,train,5,11,-8.28648551312789,0,77,1,-0.066,0.13,1.347,-0.21351051,-0.019404834,-0.012057417,-0.8875575,-0.8768715,-0.7075041,0.0,0.0,0.0,0.34591490030288696,0.34591490030288696,link6
1763431760.3638067,d4pg_train,FAR,train,5,12,-8.210325297820086,0,78,1,0.105,0.026,1.354,-0.45004153,0.085919805,0.108905084,-0.33539915,-0.8966594,-0.34417686,0.0,0.0,0.0,0.4415523409843445,0.4415523409843445,link6
1763431761.745065,d4pg_train,FAR,train,5,13,-8.076530061883526,0,79,1,-0.054,0.151,1.336,-0.6243818,0.035813563,-0.1780284,-0.6103714,-0.8623582,-0.60241026,0.0,0.0,0.0,0.7422310709953308,0.7422310709953308,link6
1763431763.1328368,d4pg_train,FAR,train,5,14,-8.298795114205378,0,80,1,-0.154,0.06,1.372,-0.19434911,-0.19297095,0.19075434,0.19804716,-0.4519556,0.06420659,0.0,0.0,0.0,0.6531872749328613,0.6531872749328613,link6
1763431764.5105383,d4pg_train,FAR,train,5,15,-8.05746651150269,0,81,1,-0.27,-0.016,1.315,0.2596668,0.05547091,-0.46377972,-0.17217083,-0.45408812,0.2566479,0.0,0.0,0.0,0.7684512734413147,0.7684512734413147,link6
1763431765.8930547,d4pg_train,FAR,train,5,16,-8.124898212557914,0,82,1,-0.262,-0.043,1.327,0.37560603,0.02593623,-0.42122456,-0.5097937,-0.26449683,-0.23240353,0.0,0.0,0.0,0.68887859582901,0.68887859582901,link6
1763431767.293233,d4pg_train,FAR,train,5,17,-8.334014678825877,0,83,1,-0.176,-0.019,1.377,0.3701567,-0.034212098,-0.18487778,-0.7721778,-0.11570785,-0.719969,0.0,0.0,0.0,0.7125383615493774,0.7125383615493774,link6
1763431768.6860993,d4pg_train,FAR,train,5,18,-6.6487998859827915,0,84,1,-0.525,0.286,0.933,-0.3557843,-0.02150265,-1.1904838,-0.73387206,-0.8161979,-0.98431844,0.0,0.0,0.0,1.0528196096420288,1.0528196096420288,link6
1763431770.1184514,d4pg_train,FAR,train,5,19,-7.238025125162795,0,85,1,-0.521,0.364,1.021,-0.48653665,-0.13148269,-0.7865633,-0.6315289,-0.6058133,-0.60609657,0.0,0.0,0.0,0.5421717762947083,0.5421717762947083,link6
1763431773.77262,d4pg_train,FAR,train,6,0,-7.823570545787376,0,86,1,-0.327,0.159,1.252,-0.19375056,-0.030262114,-0.42683887,-0.58602244,-0.8976884,-0.33068153,0.0,0.0,0.0,0.8346823453903198,0.8346823453903198,link6
1763431775.149899,d4pg_train,FAR,train,6,1,-7.676860247951312,0,87,1,-0.302,-0.057,1.241,0.32680935,-0.035266828,-0.27385575,0.014861901,-1.2974056,-0.0036437379,0.0,0.0,0.0,0.673775315284729,0.673775315284729,link6
1763431776.543637,d4pg_train,FAR,train,6,2,-7.5940969313743985,0,88,1,-0.294,-0.131,1.224,0.5082776,-0.050233617,-0.30328587,0.020430362,-1.3607626,0.15029162,0.0,0.0,0.0,0.9368931651115417,0.9368931651115417,link6
1763431777.980353,d4pg_train,FAR,train,6,3,-7.111754810670611,0,89,1,-0.239,0.182,1.146,-0.5248283,0.074470356,-0.54073405,0.0028262574,-1.6817979,-0.62070984,0.0,0.0,0.0,0.7282878756523132,0.7282878756523132,link6
1763431779.3655508,d4pg_train,FAR,train,6,4,-6.577028891037188,0,90,1,-0.279,0.447,0.961,-1.0108244,-0.044803996,-0.95299083,0.13004003,-1.4120649,-0.6490222,0.0,0.0,0.0,0.8375635147094727,0.8375635147094727,link6
1763431780.7674873,d4pg_train,FAR,train,6,5,-5.802253612426386,0,91,1,-0.172,0.655,0.69,-1.2689102,-0.20850298,-1.2632416,0.03011886,-1.2549312,-0.34125942,0.0,0.0,0.0,0.8157677054405212,0.8157677054405212,link6
1763431782.159765,d4pg_train,FAR,train,6,6,-7.414809767959523,0,92,1,-0.373,0.285,1.143,-0.43402895,-0.037391752,-0.6247496,-0.5389518,-1.0630337,-0.26068547,0.0,0.0,0.0,0.8539888262748718,0.8539888262748718,link6
1763431783.545106,d4pg_train,FAR,train,6,7,-7.6351420865323085,0,93,1,-0.253,0.244,1.221,-0.4614894,-0.08177219,-0.25460392,-0.61256117,-1.4005531,-0.5561375,0.0,0.0,0.0,0.6063376665115356,0.6063376665115356,link6
1763431784.9250364,d4pg_train,FAR,train,6,8,-7.672028764743304,0,94,1,-0.111,0.199,1.257,-0.5608257,-0.064872935,-0.06164891,-0.6106275,-1.5260901,-0.4574227,0.0,0.0,0.0,0.6555473804473877,0.6555473804473877,link6
1763431786.3472314,d4pg_train,FAR,train,6,9,-7.2566938562109895,0,95,1,-0.4,0.372,1.079,-0.5959131,-0.15543497,-0.59267515,-0.37267432,-1.2910585,-1.7251643,0.0,0.0,0.0,0.9561878442764282,0.9561878442764282,link6
1763431787.730273,d4pg_train,FAR,train,6,10,-8.07388633444181,0,96,1,-0.253,0.229,1.299,-0.47373977,-0.043033842,-0.38420874,-0.84271777,-0.5372946,-1.206538,0.0,0.0,0.0,0.5780547857284546,0.5780547857284546,link6
1763431789.1132164,d4pg_train,FAR,train,6,11,-8.09192255391892,0,97,1,-0.162,0.169,1.328,-0.3375114,0.016817983,-0.337889,-0.97232175,-0.7442916,-0.9724461,0.0,0.0,0.0,0.8455846905708313,0.8455846905708313,link6
1763431790.494919,d4pg_train,FAR,train,6,12,-6.9412427644479395,0,98,1,-0.642,-0.027,0.962,0.20339021,-0.27957612,-0.6477271,-0.49304265,-1.5148073,-0.23746388,0.0,0.0,0.0,1.1477551460266113,1.1477551460266113,link6
1763431791.891148,d4pg_train,FAR,train,6,13,-7.730797890605858,0,99,1,-0.405,0.26,1.194,-0.35359883,-0.20241745,-0.30670422,-0.6030519,-1.1437347,-0.31022516,0.0,0.0,0.0,0.6612266302108765,0.6612266302108765,link6
1763431793.2688003,d4pg_train,FAR,train,6,14,-7.824295294667536,0,100,1,-0.242,0.182,1.268,-0.19860864,-0.06298012,-0.23178308,-0.7362193,-1.2306895,-0.42364725,0.0,0.0,0.0,0.7652058601379395,0.7652058601379395,link6
1763431794.6552525,d4pg_train,FAR,train,6,15,-7.555676572856406,0,101,1,-0.148,0.246,1.225,-0.5362966,-0.1251634,-0.0937655,-0.94351,-1.6769491,-0.4249392,0.0,0.0,0.0,0.6640847325325012,0.6640847325325012,link6
1763431796.0457468,d4pg_train,FAR,train,6,16,-7.259277831217466,0,102,1,-0.046,0.155,1.192,-0.5804434,-0.0477709,0.030576438,-0.7036874,-2.2668438,-0.7648311,0.0,0.0,0.0,0.4784618020057678,0.4784618020057678,link6
1763431797.442537,d4pg_train,FAR,train,6,17,-7.187427036327862,0,103,1,-0.096,0.146,1.185,-0.33217165,-0.04481005,-0.05915018,-0.7488389,-2.2258832,-0.8015367,0.0,0.0,0.0,0.9121434092521667,0.9121434092521667,link6
1763431798.8258464,d4pg_train,FAR,train,6,18,-7.2933688954510485,0,104,1,-0.544,-0.005,1.087,0.2619477,-0.2301359,-0.47673187,-0.89087963,-1.5172447,-1.2417141,0.0,0.0,0.0,1.0431900024414062,1.0431900024414062,link6
1763431800.2060153,d4pg_train,FAR,train,6,19,-7.542001745941249,0,105,1,-0.334,0.186,1.196,-0.19926602,-0.17433721,-0.13406993,-0.7657497,-1.6117198,-0.5069583,0.0,0.0,0.0,0.6399227976799011,0.6399227976799011,link6
1763431803.8686724,d4pg_train,FAR,train,7,0,-8.373809196964533,0,106,1,-0.04,0.042,1.394,-0.10221288,-0.02440365,-0.030603379,-0.05945185,-0.15004373,-0.026403982,0.0,0.0,0.0,0.757222592830658,0.757222592830658,link6
1763431805.258598,d4pg_train,FAR,train,7,1,-8.17269611290049,0,107,1,-0.292,0.163,1.32,-0.43054256,-0.2811764,0.13282245,0.2474556,-0.7071708,-0.805795,0.0,0.0,0.0,0.7607865929603577,0.7607865929603577,link6
1763431806.6479545,d4pg_train,FAR,train,7,2,-8.078342902947647,0,108,1,-0.399,-0.037,1.285,0.2830714,-0.22310199,-0.09308559,-0.2437674,-0.8319908,-1.1343822,0.0,0.0,0.0,0.7743929028511047,0.7743929028511047,link6
1763431808.0320833,d4pg_train,FAR,train,7,3,-8.003416144373272,0,109,1,-0.297,-0.175,1.255,0.8709982,-0.065759026,-0.3111889,-0.86363167,-1.1189137,-1.3455589,0.0,0.0,0.0,0.32466796040534973,0.32466796040534973,link6
1763431809.439883,d4pg_train,FAR,train,7,4,-6.625991427847322,0,110,1,-0.474,-0.274,0.959,0.7152976,-0.18616964,-0.7392411,-0.5188937,-1.9090235,-0.3607941,0.0,0.0,0.0,0.9672345519065857,0.9672345519065857,link6
1763431810.8291812,d4pg_train,FAR,train,7,5,-6.455107935114429,0,111,1,-0.629,-0.279,0.827,0.6044851,-0.29730293,-0.91986525,-0.7956198,-1.587521,-1.0303028,0.0,0.0,0.0,1.0591262578964233,1.0591262578964233,link6
1763431812.2149315,d4pg_train,FAR,train,7,6,-7.419630017160681,0,112,1,-0.617,0.038,1.027,0.13383761,-0.22092457,-0.73840535,-1.2224932,-1.2544512,-1.7207257,0.0,0.0,0.0,0.30901339650154114,0.30901339650154114,link6
1763431813.621355,d4pg_train,FAR,train,7,7,-7.324944724628901,0,113,1,-0.358,0.084,1.164,0.30036384,-0.17676322,-0.2834816,-1.2661471,-1.8688716,-0.20202021,0.0,0.0,0.0,0.8837029337882996,0.8837029337882996,link6
1763431815.0130434,d4pg_train,FAR,train,7,8,-7.288465914240717,0,114,1,-0.488,-0.071,1.11,0.40136632,-0.24488421,-0.3485108,-0.9879017,-1.7168871,-0.22921862,0.0,0.0,0.0,0.8756375312805176,0.8756375312805176,link6
1763431816.3936243,d4pg_train,FAR,train,7,9,-6.801190465016048,0,115,1,-0.595,-0.13,0.956,0.42018571,-0.2542035,-0.6921454,-0.75500315,-1.7218832,-1.2321651,0.0,0.0,0.0,1.0948665142059326,1.0948665142059326,link6
1763431817.7900987,d4pg_train,FAR,train,7,10,-6.775421566533778,0,116,1,-0.488,-0.103,1.013,0.51871985,-0.09506526,-0.80343485,-1.2082362,-1.8102986,-0.872935,0.0,0.0,0.0,0.8910340666770935,0.8910340666770935,link6
1763431819.169604,d4pg_train,FAR,train,7,11,-6.728866230325048,0,117,1,-0.43,-0.03,1.035,0.3644906,-0.095654644,-0.6749488,-1.0284481,-2.1293218,-1.0436792,0.0,0.0,0.0,0.7908158898353577,0.7908158898353577,link6
1763431820.5491443,d4pg_train,FAR,train,7,12,-7.85701229947399,0,118,1,-0.479,0.249,1.193,-0.24178486,-0.23481426,-0.44698903,-1.3394454,-0.81730545,-1.8232259,0.0,0.0,0.0,0.9945645332336426,0.9945645332336426,link6
1763431821.8885326,d4pg_train,FAR,train,7,13,-6.837533186484781,0,119,1,-0.473,0.126,1.029,-0.009390077,-0.16181014,-0.59885097,-0.76573646,-1.9919035,-1.4855986,0.0,0.0,0.0,0.9078079462051392,0.9078079462051392,link6
1763431823.2895505,d4pg_train,FAR,train,7,14,-6.430079710160829,0,120,1,-0.526,0.056,0.932,0.10988677,-0.23274398,-0.7610543,-0.92493606,-2.3341603,-1.205978,0.0,0.0,0.0,1.0269725322723389,1.0269725322723389,link6
1763431824.6911113,d4pg_train,FAR,train,7,15,-6.778966814520855,0,121,1,-0.581,-0.316,0.916,0.7455363,-0.3131259,-0.89205843,-1.6379257,-1.6587503,-2.4804933,0.0,0.0,0.0,1.0814416408538818,1.0814416408538818,link6
1763431826.0923185,d4pg_train,FAR,train,7,16,-7.457275288961224,0,122,1,-0.351,-0.508,1.078,1.2540334,-0.38634545,-0.43857187,-1.9021924,-1.4791111,-1.4900876,0.0,0.0,0.0,0.7299496531486511,0.7299496531486511,link6
1763431827.4818068,d4pg_train,FAR,train,7,17,-7.480602073543439,0,123,1,-0.361,-0.43,1.113,1.1486567,-0.43940347,-0.2274138,-1.7553161,-1.6521877,-1.3011044,0.0,0.0,0.0,0.8464639782905579,0.8464639782905579,link6
1763431828.8773093,d4pg_train,FAR,train,7,18,-7.68637961345895,0,124,1,0.051,-0.471,1.18,1.9329199,-0.20484647,-0.3010985,-0.72343403,-1.2971126,-0.87473,0.0,0.0,0.0,0.44728535413742065,0.44728535413742065,link6
1763431830.218886,d4pg_train,FAR,train,7,19,-6.849601675716629,0,125,1,-0.562,-0.271,0.956,0.66904014,-0.29989955,-0.6524869,-0.9224959,-1.7623034,-0.6205879,0.0,0.0,0.0,1.1050996780395508,1.1050996780395508,link6
1763431833.8748796,d4pg_train,FAR,train,8,0,-8.36407723678907,0,126,1,-0.048,0.045,1.391,-0.064628996,-0.0010444013,-0.04389824,-0.13578849,-0.20494951,-0.2760756,0.0,0.0,0.0,0.6348596215248108,0.6348596215248108,link6
1763431835.268656,d4pg_train,FAR,train,8,1,-7.5855167406363515,0,127,1,-0.473,-0.057,1.171,0.48070267,-0.14828311,-0.5278391,-1.2921543,-1.1735282,-1.7759461,0.0,0.0,0.0,0.9806198477745056,0.9806198477745056,link6
1763431836.6544445,d4pg_train,FAR,train,8,2,-7.075294777469093,0,128,1,-0.404,-0.138,1.099,0.6899359,-0.105136976,-0.579178,-1.1919104,-1.831955,-1.60334,0.0,0.0,0.0,0.8298951983451843,0.8298951983451843,link6
1763431838.033571,d4pg_train,FAR,train,8,3,-6.591186311170142,0,129,1,-0.433,-0.192,0.991,0.6041987,-0.27132326,-0.5858676,-1.0742599,-2.5947275,-1.5297115,0.0,0.0,0.0,0.8601725697517395,0.8601725697517395,link6
1763431839.4123135,d4pg_train,FAR,train,8,4,-6.800933425047673,0,130,1,-0.458,-0.039,1.036,0.36574987,-0.17612971,-0.6842168,-1.6917138,-2.1941144,-1.6703262,0.0,0.0,0.0,0.9075872302055359,0.9075872302055359,link6
1763431840.791651,d4pg_train,FAR,train,8,5,-7.085260202844948,0,131,1,-0.433,-0.114,1.092,0.6330804,-0.28009838,-0.31299484,-1.5396824,-2.1350513,-1.6822227,0.0,0.0,0.0,0.7165340781211853,0.7165340781211853,link6
1763431842.1823244,d4pg_train,FAR,train,8,6,-6.779273519308219,0,132,1,-0.269,-0.349,1.04,1.1637101,-0.24549618,-0.59500086,-1.9875035,-2.4851296,-2.3484404,0.0,0.0,0.0,0.7686272263526917,0.7686272263526917,link6
1763431843.5668776,d4pg_train,FAR,train,8,7,-6.293034424692465,0,133,1,0.093,-0.548,0.855,1.9166756,-0.28700227,-0.95455515,-1.4175984,-2.6406026,-1.7958112,0.0,0.0,0.0,0.33565545082092285,0.33565545082092285,link6
1763431844.9968247,d4pg_train,FAR,train,8,8,-6.45995094477649,0,134,1,-0.049,-0.6,0.892,1.6394627,-0.38325045,-0.71043265,-1.6346722,-2.4566727,-1.9397514,0.0,0.0,0.0,0.7371305227279663,0.7371305227279663,link6
1763431846.3806071,d4pg_train,FAR,train,8,9,-7.304279412329244,0,135,1,-0.204,-0.15,1.19,1.2506793,-0.21576443,0.06937907,-1.3854533,-2.0772882,-1.8487926,0.0,0.0,0.0,0.7028400301933289,0.7028400301933289,link6
1763431847.764595,d4pg_train,FAR,train,8,10,-7.157635300443423,0,136,1,-0.411,-0.104,1.115,0.48815247,-0.28668872,-0.15377434,-0.85011774,-2.129805,-2.4480731,0.0,0.0,0.0,0.9547081589698792,0.9547081589698792,link6
1763431849.1615174,d4pg_train,FAR,train,8,11,-6.783107682664875,0,137,1,-0.56,-0.21,0.959,0.57549,-0.4074699,-0.4271764,-0.6863912,-2.2595055,-2.475292,0.0,0.0,0.0,0.7912433743476868,0.7912433743476868,link6
1763431850.5425615,d4pg_train,FAR,train,8,12,-6.934034486800642,0,138,1,-0.042,-0.13,1.144,2.0473049,-0.2818616,0.53580374,-0.95637894,-2.5347645,-2.0535457,0.0,0.0,0.0,0.5460191965103149,0.5460191965103149,link6
1763431851.9310982,d4pg_train,FAR,train,8,13,-6.853669995829086,0,139,1,-0.101,-0.137,1.128,1.4760679,-0.32840407,0.45363885,-1.2627743,-2.6993935,-2.4849808,0.0,0.0,0.0,0.6313791871070862,0.6313791871070862,link6
1763431853.3114235,d4pg_train,FAR,train,8,14,-7.031482570307625,0,140,1,-0.129,-0.262,1.123,1.5165373,-0.36227667,0.2070905,-1.2181947,-2.5373406,-2.417912,0.0,0.0,0.0,0.4277627468109131,0.4277627468109131,link6
1763431854.6996942,d4pg_train,FAR,train,8,15,-7.030541817871458,0,141,1,-0.271,-0.477,1.035,1.2842658,-0.38736072,-0.26862532,-0.985895,-2.1161017,-1.1808807,0.0,0.0,0.0,0.7776123881340027,0.7776123881340027,link6
1763431856.0821733,d4pg_train,FAR,train,8,16,-7.021451065785823,0,142,1,-0.449,-0.351,1.022,0.9062542,-0.32338873,-0.445734,-0.99545175,-1.921569,-1.6491143,0.0,0.0,0.0,0.9290700554847717,0.9290700554847717,link6
1763431857.4602816,d4pg_train,FAR,train,8,17,-6.98903395976507,0,143,1,-0.421,-0.35,1.025,1.0014839,-0.3075754,-0.45617574,-1.1148819,-2.0369925,-1.8609905,0.0,0.0,0.0,0.5700647830963135,0.5700647830963135,link6
1763431858.8601515,d4pg_train,FAR,train,8,18,-7.395885260249314,0,144,1,-0.183,-0.048,1.217,0.9692924,-0.17649356,0.27038696,-0.8480514,-1.9583445,-1.2537231,0.0,0.0,0.0,0.6695964336395264,0.6695964336395264,link6
1763431860.2493203,d4pg_train,FAR,train,8,19,-7.416093782963113,0,145,1,-0.13,-0.088,1.224,1.670836,-0.098216616,0.17966796,-1.0072203,-1.9678166,-0.8720981,0.0,0.0,0.0,0.6037450432777405,0.6037450432777405,link6
1763431863.8940947,d4pg_train,FAR,train,9,0,-8.430828493656177,0,146,1,0.007,0.04,1.394,0.03538262,-0.022375148,0.08321766,-0.05133149,-0.1226486,0.005392166,0.0,0.0,0.0,0.43696165084838867,0.43696165084838867,link6
1763431865.2753408,d4pg_train,FAR,train,9,1,-7.491082721118457,0,147,1,0.14,0.051,1.217,0.05997859,-0.062583275,0.6704384,0.011178668,-1.8444759,-0.77879786,0.0,0.0,0.0,0.3615189790725708,0.3615189790725708,link6
1763431866.664033,d4pg_train,FAR,train,9,2,-7.0777562510967655,0,148,1,0.174,0.097,1.149,0.25194064,-0.033245288,0.7327884,-0.2005333,-2.306205,-1.0147057,0.0,0.0,0.0,0.41238898038864136,0.41238898038864136,link6
1763431868.047575,d4pg_train,FAR,train,9,3,-7.116094748289943,0,149,1,-0.127,-0.039,1.177,0.9337527,-0.18502471,0.3408692,-0.48516503,-2.3951118,-2.0451763,0.0,0.0,0.0,0.6292582750320435,0.6292582750320435,link6
1763431869.4440904,d4pg_train,FAR,train,9,4,-6.901714395155104,0,150,1,-0.119,0.008,1.142,0.78707534,-0.24621707,0.46758676,-1.03109,-2.6460624,-2.0979955,0.0,0.0,0.0,0.599570631980896,0.599570631980896,link6
1763431870.8341312,d4pg_train,FAR,train,9,5,-6.925450032078181,0,151,1,-0.133,-0.035,1.144,0.97645843,-0.23069291,0.33489636,-1.0509118,-2.6781602,-1.983537,0.0,0.0,0.0,0.6029930710792542,0.6029930710792542,link6
1763431872.2329965,d4pg_train,FAR,train,9,6,-7.0109370162678095,0,152,1,-0.09,0.041,1.162,1.5616734,-0.0044650002,0.19428746,-0.9906838,-2.6289566,-2.7019022,0.0,0.0,0.0,0.5897578597068787,0.5897578597068787,link6
1763431873.6146233,d4pg_train,FAR,train,9,7,-7.347799617277596,0,153,1,-0.143,0.131,1.208,1.5186982,0.03877337,0.2280138,-1.3958737,-1.977576,-2.4710116,0.0,0.0,0.0,0.6572499871253967,0.6572499871253967,link6
1763431875.0175335,d4pg_train,FAR,train,9,8,-7.555481730286232,0,154,1,-0.141,0.114,1.245,1.4254322,0.03520141,0.17950335,-1.2884405,-1.7491528,-2.3463557,0.0,0.0,0.0,0.6618714332580566,0.6618714332580566,link6
1763431876.404481,d4pg_train,FAR,train,9,9,-7.1361930779688185,0,155,1,-0.123,0.133,1.174,1.4958441,-0.21686608,0.90999407,-0.90689355,-1.7839749,-1.2268511,0.0,0.0,0.0,0.6339670419692993,0.6339670419692993,link6
1763431877.8083863,d4pg_train,FAR,train,9,10,-7.248376778453447,0,156,1,-0.113,0.181,1.187,1.5765411,-0.09115134,0.77127653,-0.63955456,-1.8231449,-1.617022,0.0,0.0,0.0,0.6014114022254944,0.6014114022254944,link6
1763431879.209878,d4pg_train,FAR,train,9,11,-7.449304464216956,0,157,1,-0.085,0.215,1.212,1.4730804,0.016871393,0.6034856,-0.5572121,-1.7950631,-1.8234409,0.0,0.0,0.0,0.4684547185897827,0.4684547185897827,link6
1763431880.597028,d4pg_train,FAR,train,9,12,-7.354758135966193,0,158,1,0.036,0.307,1.182,1.0169249,0.0704481,0.5897921,-0.90823746,-1.8291345,-1.5809393,0.0,0.0,0.0,0.5328029990196228,0.5328029990196228,link6
1763431881.997301,d4pg_train,FAR,train,9,13,-7.575125545223565,0,159,1,0.022,0.303,1.221,1.1573867,0.03292092,0.6471751,-0.513218,-1.4721279,-1.4472575,0.0,0.0,0.0,0.5268123149871826,0.5268123149871826,link6
1763431883.3893127,d4pg_train,FAR,train,9,14,-8.580729268218548,0,160,1,0.309,0.166,1.283,0.34105986,-0.01903898,0.651182,-0.5414811,-0.22617123,-1.7030958,0.0,0.0,0.0,0.21198977530002594,0.21198977530002594,link6
1763431884.7875156,d4pg_train,FAR,train,9,15,-7.7260660668059025,0,161,1,0.013,0.123,1.278,0.9600238,-0.015904913,0.42701456,-0.1761,-1.622907,-1.1621101,0.0,0.0,0.0,0.5415347218513489,0.5415347218513489,link6
1763431886.1813385,d4pg_train,FAR,train,9,16,-7.642734951220206,0,162,1,-0.033,0.105,1.265,1.1403995,-0.063745156,0.52792203,-0.3070192,-1.5741329,-0.99583423,0.0,0.0,0.0,0.5336631536483765,0.5336631536483765,link6
1763431887.5642638,d4pg_train,FAR,train,9,17,-7.252414860989291,0,163,1,-0.285,0.183,1.16,2.2172046,0.021193039,0.8126877,-0.69091576,-1.7095523,-0.9862075,0.0,0.0,0.0,0.7925130128860474,0.7925130128860474,link6
1763431888.9505079,d4pg_train,FAR,train,9,18,-7.811333081710881,0,164,1,-0.18,0.19,1.274,1.7192345,0.05572629,0.35698104,-1.1331668,-1.2821599,-1.1612241,0.0,0.0,0.0,0.6476361751556396,0.6476361751556396,link6
1763431890.3600078,d4pg_train,FAR,train,9,19,-7.942389032668283,0,165,1,-0.119,0.263,1.291,1.5273632,0.059110936,0.4855041,-0.9433306,-1.0040716,-0.9624211,0.0,0.0,0.0,0.6885963678359985,0.6885963678359985,link6
1763431894.0251021,d4pg_train,FAR,train,10,0,-8.031020067628017,0,166,1,0.141,0.136,1.3,0.5475108,0.03820464,0.47468448,-0.03987908,-1.2336988,-0.024470946,0.0,0.0,0.0,0.35546639561653137,0.35546639561653137,link6
1763431895.4063385,d4pg_train,FAR,train,10,1,-7.7283338885494235,0,167,1,0.227,0.292,1.223,0.77062,0.10448267,0.689505,-0.16283743,-1.2768432,-0.36855638,0.0,0.0,0.0,0.43880796432495117,0.43880796432495117,link6
1763431896.789477,d4pg_train,FAR,train,10,2,-8.24289901086555,0,168,1,0.271,-0.109,1.256,-0.3122613,-0.042073812,0.7426796,0.61925876,-0.96601075,-0.16155784,0.0,0.0,0.0,0.2291075736284256,0.2291075736284256,link6
1763431898.1724582,d4pg_train,FAR,train,10,3,-8.100384010843198,0,169,1,0.25,0.102,1.289,0.047081895,0.011856032,0.56479406,-0.5847182,-1.0226802,-1.2480183,0.0,0.0,0.0,0.32262539863586426,0.32262539863586426,link6
1763431899.5511513,d4pg_train,FAR,train,10,4,-8.057863147984017,0,170,1,0.081,0.157,1.331,0.39124513,0.0426604,0.20829952,-0.8400895,-1.0065012,-1.0387201,0.0,0.0,0.0,0.79157954454422,0.79157954454422,link6
1763431900.9343193,d4pg_train,FAR,train,10,5,-7.504393174405512,0,171,1,-0.004,0.491,1.149,1.552424,0.049808767,0.9548533,0.29658586,-0.8028645,-1.1999127,0.0,0.0,0.0,0.6532264351844788,0.6532264351844788,link6
1763431902.3211045,d4pg_train,FAR,train,10,6,-7.246988809873538,0,172,1,0.095,0.6,1.042,1.340177,0.12675002,1.0894457,-0.04079674,-0.79561687,-0.13754763,0.0,0.0,0.0,0.6203593611717224,0.6203593611717224,link6
1763431903.7067432,d4pg_train,FAR,train,10,7,-7.052612372889814,0,173,1,0.138,0.692,0.939,1.2870735,0.21401672,1.1536797,-0.31130362,-0.6943024,0.06179204,0.0,0.0,0.0,0.6877068877220154,0.6877068877220154,link6
1763431905.0895638,d4pg_train,FAR,train,10,8,-7.952079296036773,0,174,1,0.338,0.243,1.17,0.4910526,-0.0032407746,0.9690434,-0.14170025,-1.0636894,-1.4068455,0.0,0.0,0.0,0.23006360232830048,0.23006360232830048,link6
1763431906.4738977,d4pg_train,FAR,train,10,9,-7.804454149518725,0,175,1,0.373,0.455,1.151,0.79068476,0.20635252,0.7309199,-0.44142628,-0.52075446,-0.34403813,0.0,0.0,0.0,0.4635038375854492,0.4635038375854492,link6
1763431907.8678517,d4pg_train,FAR,train,10,10,-62.68774219130688,1,176,1,0.502,0.526,1.055,0.700049,0.32846358,0.75393206,-0.5429462,-0.29846624,0.05266557,0.0,0.0,0.0,0.0,-0.00434449315071106,link6
1763431911.518155,d4pg_train,FAR,train,11,0,-8.036746723142848,0,177,1,0.114,0.321,1.294,1.1131274,0.02271358,0.6432395,-0.51784045,-0.5222019,-0.18180364,0.0,0.0,0.0,0.6409007906913757,0.6409007906913757,link6
1763431912.9073067,d4pg_train,FAR,train,11,1,-7.284189125469407,0,178,1,-0.11,0.574,1.064,1.6606343,0.08235517,1.0873556,-0.44359693,-0.6715558,-0.46609658,0.0,0.0,0.0,0.9219266176223755,0.9219266176223755,link6
1763431914.3116953,d4pg_train,FAR,train,11,2,-8.167387472088974,0,179,1,0.104,0.33,1.308,1.1135819,0.040009573,0.42958692,0.34600478,0.18549621,0.02080032,0.0,0.0,0.0,0.4616195261478424,0.4616195261478424,link6
1763431915.7045963,d4pg_train,FAR,train,11,3,-7.037209311617841,0,180,1,0.464,0.416,0.868,0.7155979,0.026001705,1.4950973,0.5140851,-0.681456,-0.33018836,0.0,0.0,0.0,0.2077884078025818,0.2077884078025818,link6
1763431917.1562984,d4pg_train,FAR,train,11,4,-6.040723282467543,0,181,1,0.541,0.325,0.645,0.5280162,0.07898636,1.7786827,0.31179658,-0.8602376,-0.44380093,0.0,0.0,0.0,0.20773543417453766,0.20773543417453766,link6
1763431918.5379617,d4pg_train,FAR,train,11,5,-6.775970929379625,0,182,1,0.328,0.607,0.891,1.0141969,0.11275822,1.2598677,-0.7213943,-0.14459494,0.9230796,0.0,0.0,0.0,0.5840064883232117,0.5840064883232117,link6
1763431919.9266999,d4pg_train,FAR,train,11,6,-7.120592118623991,0,183,1,0.27,0.617,0.969,1.0889406,0.12717429,1.1162883,-0.48488852,-0.13141242,0.87499326,0.0,0.0,0.0,0.4823058247566223,0.4823058247566223,link6
1763431921.3147826,d4pg_train,FAR,train,11,7,-7.814093141143158,0,184,1,0.204,0.471,1.158,1.0708631,0.02965104,0.8882861,-0.2757837,-0.13761203,0.6672041,0.0,0.0,0.0,0.3150522708892822,0.3150522708892822,link6
1763431922.7079513,d4pg_train,FAR,train,11,8,-7.292281934480023,0,185,1,0.277,0.52,1.059,0.99589086,0.082776524,0.85623,0.3171733,0.65876114,-0.043228023,0.0,0.0,0.0,0.5467507243156433,0.5467507243156433,link6
1763431924.0872982,d4pg_train,FAR,train,11,9,-6.816090642729817,0,186,1,0.255,0.634,0.905,1.1270983,0.15448035,1.0310477,0.04339459,0.6976854,0.1412807,0.0,0.0,0.0,0.6035761833190918,0.6035761833190918,link6
1763431925.471269,d4pg_train,FAR,train,11,10,-7.462090897216854,0,187,1,-0.242,0.525,1.101,1.9393966,0.06852391,0.9276706,0.751391,-0.009831284,0.83436376,0.0,0.0,0.0,0.8673759698867798,0.8673759698867798,link6
1763431926.8552713,d4pg_train,FAR,train,11,11,-5.643055542890428,0,188,1,-0.106,0.66,0.661,1.6469297,0.04951117,1.692117,0.84364593,0.04557618,0.5885752,0.0,0.0,0.0,0.7579336166381836,0.7579336166381836,link6
1763431928.2542315,d4pg_train,FAR,train,11,12,-5.614814153340047,0,189,1,0.154,0.668,0.588,1.2832484,0.1273945,1.7026808,0.7713891,-0.2430253,0.79505295,0.0,0.0,0.0,0.3239585757255554,0.3239585757255554,link6
1763431929.6517854,d4pg_train,FAR,train,11,13,-7.939093233158125,0,190,1,0.011,0.409,1.256,1.362224,0.05833908,0.6580811,-0.57978547,-0.5664737,1.1781802,0.0,0.0,0.0,0.5927389860153198,0.5927389860153198,link6
1763431931.036885,d4pg_train,FAR,train,11,14,-7.314541983298123,0,191,1,0.003,0.642,1.036,1.5136169,0.12805416,1.0246614,0.18535891,-0.24417049,0.75677747,0.0,0.0,0.0,0.7955914735794067,0.7955914735794067,link6
1763431932.4158933,d4pg_train,FAR,train,11,15,-6.977851259873869,0,192,1,-0.052,0.718,0.911,1.6076695,0.18337664,1.1170171,0.5608404,-0.14477785,0.63111776,0.0,0.0,0.0,0.6095746755599976,0.6095746755599976,link6
1763431933.7930732,d4pg_train,FAR,train,11,16,-5.735910106268343,0,193,1,-0.173,0.633,0.695,1.7007967,0.041163664,1.6317142,1.3861862,0.4546927,0.5238573,0.0,0.0,0.0,0.8703961372375488,0.8703961372375488,link6
1763431935.1913745,d4pg_train,FAR,train,11,17,-5.632151181528296,0,194,1,-0.158,0.646,0.662,1.6116059,0.12309009,1.4735224,1.0067713,1.0228889,1.2312713,0.0,0.0,0.0,0.7835733294487,0.7835733294487,link6
1763431936.5766027,d4pg_train,FAR,train,11,18,-6.319545423646083,0,195,1,-0.119,0.656,0.811,1.596597,0.13705598,1.1831099,0.6670672,0.99777603,1.6845269,0.0,0.0,0.0,0.5504053831100464,0.5504053831100464,link6
1763431937.9652169,d4pg_train,FAR,train,11,19,-6.680590097299825,0,196,1,0.15,0.571,0.941,1.177707,-0.034559,1.2707098,0.9543187,0.3903537,0.5081607,0.0,0.0,0.0,0.5782986283302307,0.5782986283302307,link6
1763431941.6530037,d4pg_train,FAR,train,12,0,-8.577425154741087,0,197,1,0.13,0.053,1.382,0.15566652,0.017134922,0.25319964,0.21303333,-0.10189015,-0.015367013,0.0,0.0,0.0,0.30251556634902954,0.30251556634902954,link6
1763431943.0422883,d4pg_train,FAR,train,12,1,-5.9347114034704,0,198,1,0.429,0.435,0.751,0.74681747,-0.03166368,1.6986504,0.20028344,-0.48764664,0.09349361,0.0,0.0,0.0,0.36812418699264526,0.36812418699264526,link6
1763431944.4260108,d4pg_train,FAR,train,12,2,-5.832833233906575,0,199,1,0.307,0.625,0.678,1.1123525,0.117848955,1.572356,0.058710944,-0.15835944,0.27922595,0.0,0.0,0.0,0.8091398477554321,0.8091398477554321,link6
1763431945.823285,d4pg_train,FAR,train,12,3,-6.473899376358306,0,200,1,-0.015,0.771,0.754,1.5399331,0.23671654,1.2983897,0.1312238,0.08152539,0.5403975,0.0,0.0,0.0,0.7471827268600464,0.7471827268600464,link6
1763431947.207851,d4pg_train,FAR,train,12,4,-6.904051251890892,0,201,1,0.097,0.718,0.893,1.3684996,0.17957689,1.1405901,0.43866432,0.05602519,0.49412757,0.0,0.0,0.0,0.7044931054115295,0.7044931054115295,link6
1763431948.5978107,d4pg_train,FAR,train,12,5,-7.27895352834719,0,202,1,0.227,0.713,0.937,1.1995697,0.24509022,0.9768297,0.60318166,0.024052968,0.1443781,0.0,0.0,0.0,0.4082953631877899,0.4082953631877899,link6
1763431949.9979756,d4pg_train,FAR,train,12,6,-6.80612774022385,0,203,1,-0.048,0.545,0.993,1.5390426,-0.07317929,1.1851183,0.5464028,0.4287892,0.13563667,0.0,0.0,0.0,0.722054660320282,0.722054660320282,link6
1763431951.394384,d4pg_train,FAR,train,12,7,-5.799041603868095,0,204,1,-0.415,0.546,0.681,2.2557044,0.117600374,1.6634115,0.6388506,-0.5490983,0.58766073,0.0,0.0,0.0,1.0776145458221436,1.0776145458221436,link6
1763431952.7768939,d4pg_train,FAR,train,12,8,-5.420403215971409,0,205,1,-0.425,0.576,0.549,2.169028,0.22894314,1.7061877,0.83965063,-0.618777,0.8403223,0.0,0.0,0.0,0.6470181941986084,0.6470181941986084,link6
1763431954.180102,d4pg_train,FAR,train,12,9,-4.885918298312478,0,206,1,0.315,0.536,0.516,1.1190221,0.14036073,1.7625566,2.0552032,-0.9721345,0.12668048,0.0,0.0,0.0,0.4873276352882385,0.4873276352882385,link6
1763431955.5660167,d4pg_train,FAR,train,12,10,-5.855094882755696,0,207,1,0.183,0.665,0.689,1.3916777,0.18539268,1.4507283,1.7461145,-0.9677475,0.42553768,0.0,0.0,0.0,0.6780325174331665,0.6780325174331665,link6
1763431956.9450004,d4pg_train,FAR,train,12,11,-6.553626491297874,0,208,1,0.069,0.69,0.843,1.5477432,0.18166901,1.2279682,1.5680608,-0.8321338,0.7870801,0.0,0.0,0.0,0.7070769667625427,0.7070769667625427,link6
1763431958.3424299,d4pg_train,FAR,train,12,12,-6.142453417370499,0,209,1,0.421,0.457,0.778,0.89395577,0.03518508,1.5218096,1.4124775,-0.8919357,0.74084586,0.0,0.0,0.0,0.33909255266189575,0.33909255266189575,link6
1763431959.722636,d4pg_train,FAR,train,12,13,-7.339306525344735,0,210,1,0.551,0.339,0.761,0.61861897,0.0856677,1.5310811,1.1348647,-0.8790594,0.67882794,0.0,0.0,0.0,0.13120171427726746,0.13120171427726746,link6
1763431961.1222923,d4pg_train,FAR,train,12,14,-6.612186526002022,0,211,1,0.552,0.285,0.891,0.53611976,0.06557115,1.3671142,0.9343371,-0.8618298,0.71637183,0.0,0.0,0.0,0.39628639817237854,0.39628639817237854,link6
1763431962.517215,d4pg_train,FAR,train,12,15,-6.890075600187553,0,212,1,0.071,0.59,0.982,1.4779073,0.020898009,1.1747,1.9840803,-0.39965254,0.6776635,0.0,0.0,0.0,0.7346909046173096,0.7346909046173096,link6
1763431963.9158835,d4pg_train,FAR,train,12,16,-6.38045391365224,0,213,1,0.216,0.638,0.785,1.2429273,0.08178302,1.4355457,1.4899845,-0.60023844,0.6081625,0.0,0.0,0.0,0.3356856107711792,0.3356856107711792,link6
1763431965.3442907,d4pg_train,FAR,train,12,17,-7.782378643736441,0,214,1,0.394,0.326,1.132,0.7414904,0.030797325,0.8941866,1.4748605,-0.5539473,0.45599392,0.0,0.0,0.0,0.27196770906448364,0.27196770906448364,link6
1763431966.7291718,d4pg_train,FAR,train,12,18,-7.5296748887614084,0,215,1,0.066,0.457,1.165,1.5020572,-0.0112887705,0.8740446,1.3621218,-0.5755821,0.102402724,0.0,0.0,0.0,0.6150040626525879,0.6150040626525879,link6
1763431968.1109982,d4pg_train,FAR,train,12,19,-7.659791604460112,0,216,1,0.086,0.473,1.092,1.4083946,-0.07204696,1.1228873,1.2234849,-0.59303683,-0.06563895,0.0,0.0,0.0,0.23007135093212128,0.23007135093212128,link6
1763431971.7575026,d4pg_train,FAR,train,13,0,-7.791806276314743,0,217,1,0.075,0.32,1.254,1.4239421,-0.07668925,0.78935415,1.023483,-0.56465876,-0.16260813,0.0,0.0,0.0,0.5902328491210938,0.5902328491210938,link6
1763431973.147688,d4pg_train,FAR,train,13,1,-9.309701737725458,0,218,1,0.255,0.442,1.061,1.0930189,-0.017894268,1.1238863,1.1691601,-0.81196934,-0.06738171,0.0,0.0,0.0,0.0800415575504303,0.0800415575504303,link6
1763431974.5953074,d4pg_train,MID,train,13,2,-8.488443711941589,0,219,1,0.499,0.216,1.082,0.434007,0.014653024,1.0284164,1.3390924,-0.4568397,0.85240513,0.0,0.0,0.0,0.14083023369312286,0.14083023369312286,link6
1763431975.9906695,d4pg_train,FAR,train,13,3,-8.011299516889707,0,220,1,0.369,0.166,1.239,0.412422,-0.017643299,0.7017349,1.4672971,-0.27952528,0.018220607,0.0,0.0,0.0,0.32652825117111206,0.32652825117111206,link6
1763431977.3806834,d4pg_train,FAR,train,13,4,-8.192571249864448,0,221,1,0.208,0.106,1.314,0.51467997,-0.09482911,0.5859324,1.3425512,-0.41657412,-0.19398604,0.0,0.0,0.0,0.3296249806880951,0.3296249806880951,link6
1763431978.8742168,d4pg_train,FAR,train,13,5,-6.814787951081537,0,222,1,0.455,0.335,0.916,0.63379586,-0.08276618,1.4199672,1.153936,-0.3455812,0.04243817,0.0,0.0,0.0,0.263858824968338,0.263858824968338,link6
1763431980.2742467,d4pg_train,FAR,train,13,6,-7.138525137333994,0,223,1,0.45,0.34,1.005,0.66094303,-0.032085944,1.1751153,1.1241382,-0.38307098,0.16121216,0.0,0.0,0.0,0.3106141984462738,0.3106141984462738,link6
1763431981.6787336,d4pg_train,FAR,train,13,7,-7.574397790269071,0,224,1,0.186,0.055,1.211,0.7320697,-0.13134016,0.65613997,1.4356375,-1.5114675,-0.22633246,0.0,0.0,0.0,0.314288854598999,0.314288854598999,link6
1763431983.0622482,d4pg_train,FAR,train,13,8,-7.136524684928212,0,225,1,0.16,0.479,1.076,1.429793,0.060872514,0.9241393,1.6217988,-1.0903667,0.3073532,0.0,0.0,0.0,0.6947336792945862,0.6947336792945862,link6
1763431984.4552858,d4pg_train,FAR,train,13,9,-7.624650628847485,0,226,1,0.236,0.584,1.032,1.2666986,0.1753224,0.90171367,1.5678461,-0.80444676,0.3331085,0.0,0.0,0.0,0.26025694608688354,0.26025694608688354,link6
1763431985.8336587,d4pg_train,FAR,train,13,10,-8.248076793813656,0,227,1,0.367,0.209,1.176,0.61293864,-0.028279696,0.7686784,2.0225706,-0.7828117,-0.078000136,0.0,0.0,0.0,0.1895991414785385,0.1895991414785385,link6
1763431987.2142694,d4pg_train,FAR,train,13,11,-9.760529973861189,0,228,1,0.537,0.027,0.771,0.13165417,-0.11074562,1.6933761,1.5200558,-0.9253705,-0.48771754,0.0,0.0,0.0,0.019340887665748596,0.019340887665748596,link6
1763431988.7252517,d4pg_train,NEAR,train,13,12,-6.9617204555844,0,229,1,0.506,0.067,1.021,0.20987983,-0.07015804,1.1864595,1.0880636,-0.66683763,-0.29704824,0.0,0.0,0.0,0.3790971636772156,0.3790971636772156,link6
1763431990.1189697,d4pg_train,FAR,train,13,13,-8.006480670812318,0,230,1,0.368,0.313,1.197,0.66123813,0.057215072,0.8223756,0.32042688,-0.39429733,0.2028918,0.0,0.0,0.0,0.2950400114059448,0.2950400114059448,link6
1763431991.5110786,d4pg_train,FAR,train,13,14,-7.955989211512139,0,231,1,0.363,0.234,1.246,0.54188526,0.054119665,0.63065684,0.75771844,-0.41342658,-0.03201665,0.0,0.0,0.0,0.47415173053741455,0.47415173053741455,link6
1763431992.8970084,d4pg_train,FAR,train,13,15,-8.58059328858221,0,232,1,0.012,-0.008,1.375,0.38579842,-0.11958054,0.26325947,1.3177298,-0.4517518,-0.23550564,0.0,0.0,0.0,0.271767795085907,0.271767795085907,link6
1763431994.2954981,d4pg_train,FAR,train,13,16,-7.9721420646687715,0,233,1,0.195,0.153,1.279,0.84571797,-0.09173634,0.5322856,2.0676446,-0.80791956,0.080543764,0.0,0.0,0.0,0.34713733196258545,0.34713733196258545,link6
1763431995.6895504,d4pg_train,FAR,train,13,17,-8.260819408616273,0,234,1,0.269,0.171,1.182,0.76050663,-0.08803865,0.6835239,2.102447,-1.218555,0.21537134,0.0,0.0,0.0,0.16977539658546448,0.16977539658546448,link6
1763431997.0732596,d4pg_train,FAR,train,13,18,-6.033118112635115,0,235,1,0.359,0.342,0.829,0.9243024,-0.037725884,1.3882833,1.9070588,-1.5831068,-1.7102214,0.0,0.0,0.0,0.3047718405723572,0.3047718405723572,link6
1763431998.459793,d4pg_train,FAR,train,13,19,-7.348213400470838,0,236,1,0.162,0.351,1.15,1.3551133,-0.009353871,0.7700764,1.5306679,-1.2875625,0.32456738,0.0,0.0,0.0,0.4286149740219116,0.4286149740219116,link6
1763432002.1297255,d4pg_train,FAR,train,14,0,-8.071076811458465,0,237,1,0.284,0.161,1.221,0.20964965,-0.1726258,0.8646905,1.3910602,0.5033845,-0.69403446,0.0,0.0,0.0,0.23274175822734833,0.23274175822734833,link6
1763432003.5214255,d4pg_train,FAR,train,14,1,-8.085426207751814,0,238,1,0.333,0.106,1.16,0.16787194,-0.24784566,1.0945746,1.1619889,0.05799279,0.025797864,0.0,0.0,0.0,0.18122346699237823,0.18122346699237823,link6
1763432004.9275763,d4pg_train,FAR,train,14,2,-7.4574537573640285,0,239,1,0.302,0.143,1.171,0.46602336,-0.22877446,1.0638702,1.2335995,-0.35452738,0.28068003,0.0,0.0,0.0,0.34998759627342224,0.34998759627342224,link6
1763432006.3281238,d4pg_train,FAR,train,14,3,-7.793373295212126,0,240,1,0.252,0.146,1.201,0.7424351,-0.11643125,0.863533,1.119611,-1.1461807,-0.45675045,0.0,0.0,0.0,0.2580907642841339,0.2580907642841339,link6
1763432007.7127366,d4pg_train,FAR,train,14,4,-8.131507665825778,0,241,1,0.111,0.133,1.338,1.0129204,-0.040215198,0.42181975,0.91828567,-0.6517672,-0.09315888,0.0,0.0,0.0,0.4919872283935547,0.4919872283935547,link6
1763432009.111255,d4pg_train,FAR,train,14,5,-8.292443855872317,0,242,1,0.029,0.024,1.369,1.1383435,-0.048162032,0.22494006,0.85776174,-0.63984215,0.21728426,0.0,0.0,0.0,0.41951918601989746,0.41951918601989746,link6
1763432010.498383,d4pg_train,FAR,train,14,6,-7.123035581346554,0,243,1,0.133,0.218,1.144,1.3069245,-0.25441536,1.0924718,1.2162038,-1.2126836,0.038055092,0.0,0.0,0.0,0.4016258120536804,0.4016258120536804,link6
1763432011.8856514,d4pg_train,FAR,train,14,7,-7.668332556751267,0,244,1,0.217,0.288,1.188,1.0690889,-0.073667325,0.8320145,1.4243422,-0.8786647,-0.067653745,0.0,0.0,0.0,0.31272074580192566,0.31272074580192566,link6
1763432013.2670677,d4pg_train,FAR,train,14,8,-7.873961368907582,0,245,1,0.27,0.313,1.233,0.9786072,0.050692584,0.6422214,1.4622294,-0.7313074,-0.19004315,0.0,0.0,0.0,0.42504438757896423,0.42504438757896423,link6
1763432014.6454678,d4pg_train,FAR,train,14,9,-6.871790408138321,0,246,1,0.046,0.099,1.133,1.3646058,-0.12616237,0.45432395,2.1724925,-2.4693143,0.05695919,0.0,0.0,0.0,0.47721928358078003,0.47721928358078003,link6
1763432016.0361862,d4pg_train,FAR,train,14,10,-6.9742712865054,0,247,1,0.024,0.111,1.151,1.6037434,-0.035721764,0.268041,2.0849907,-2.4876485,-0.46943623,0.0,0.0,0.0,0.496937096118927,0.496937096118927,link6
1763432017.4193025,d4pg_train,FAR,train,14,11,-7.11413584854175,0,248,1,-0.012,0.179,1.172,1.9382495,0.063206226,0.18900646,1.8945078,-2.237796,-1.0690372,0.0,0.0,0.0,0.9995332360267639,0.9995332360267639,link6
1763432018.8037403,d4pg_train,FAR,train,14,12,-8.206157408353686,0,249,1,0.03,0.417,1.294,1.505383,0.22916944,0.20941254,1.6892108,-0.47144678,-0.065541156,0.0,0.0,0.0,0.46673721075057983,0.46673721075057983,link6
1763432020.1929932,d4pg_train,FAR,train,14,13,-8.011082792915264,0,250,1,0.156,0.283,1.281,1.2572963,0.12993206,0.34604406,1.3216747,-0.99287826,0.03479338,0.0,0.0,0.0,0.40828192234039307,0.40828192234039307,link6
1763432021.5771718,d4pg_train,FAR,train,14,14,-7.556389209955975,0,251,1,0.013,0.258,1.228,1.7951611,-0.12029027,0.66899866,1.7630577,-1.0943737,-0.69053113,0.0,0.0,0.0,0.5216718912124634,0.5216718912124634,link6
1763432022.960958,d4pg_train,FAR,train,14,15,-7.2161864676083,0,252,1,0.016,0.214,1.178,1.8270586,-0.045858108,0.44035605,1.9854535,-1.8755182,0.37936556,0.0,0.0,0.0,0.5055730938911438,0.5055730938911438,link6
1763432024.350881,d4pg_train,FAR,train,14,16,-7.004641013047217,0,253,1,0.023,0.296,1.124,1.6890275,0.04217916,0.5174278,1.9431272,-2.0746362,0.18590185,0.0,0.0,0.0,0.513807475566864,0.513807475566864,link6
1763432025.750113,d4pg_train,FAR,train,14,17,-7.55640565675573,0,254,1,0.082,-0.004,1.244,1.5467868,0.033086676,-0.061529428,1.5185131,-1.7822871,-0.44748992,0.0,0.0,0.0,0.41842347383499146,0.41842347383499146,link6
1763432027.1313753,d4pg_train,FAR,train,14,18,-7.442744454327404,0,255,1,0.073,-0.008,1.229,2.0747237,0.08445668,-0.13427415,0.98999065,-1.8725266,-0.17015797,0.0,0.0,0.0,0.44991570711135864,0.44991570711135864,link6
1763432028.530964,d4pg_train,FAR,train,14,19,-7.45264138534853,0,256,1,0.014,0.087,1.237,2.203853,0.095420316,0.060182206,1.0676376,-1.8478072,0.002566126,0.0,0.0,0.0,0.6046270132064819,0.6046270132064819,link6
1763432032.1784172,d4pg_train,FAR,train,15,0,-7.901989977841244,0,257,1,0.059,0.032,1.303,0.9628627,-0.07556381,0.44337568,0.6231182,-1.3197371,-0.47355315,0.0,0.0,0.0,0.42182135581970215,0.42182135581970215,link6
1763432033.5645266,d4pg_train,FAR,train,15,1,-7.746772417664555,0,258,1,0.064,0.07,1.277,1.5041049,-0.07997043,0.4328392,0.90242934,-1.3995725,-0.17680444,0.0,0.0,0.0,0.4363517761230469,0.4363517761230469,link6
1763432034.950041,d4pg_train,FAR,train,15,2,-8.36226041530324,0,259,1,0.235,0.095,1.306,0.54003775,-0.011603901,0.46648866,1.4755416,-0.7381394,-0.37943837,0.0,0.0,0.0,0.2576925456523895,0.2576925456523895,link6
1763432036.3380978,d4pg_train,FAR,train,15,3,-7.882112067664915,0,260,1,0.165,0.25,1.271,1.2188703,-0.030402904,0.56199366,1.6302153,-0.81130505,-0.0111784,0.0,0.0,0.0,0.46629735827445984,0.46629735827445984,link6
1763432037.7189696,d4pg_train,FAR,train,15,4,-7.901353235667655,0,261,1,0.072,0.231,1.283,1.5251336,-0.047051147,0.5096835,1.5409585,-0.94098276,-0.25294298,0.0,0.0,0.0,0.4302768111228943,0.4302768111228943,link6
1763432039.127999,d4pg_train,FAR,train,15,5,-8.12152320179887,0,262,1,0.159,0.031,1.315,0.5705449,0.021274822,0.14931141,1.9749118,-1.071715,-1.0390823,0.0,0.0,0.0,0.33703911304473877,0.33703911304473877,link6
1763432040.5355427,d4pg_train,FAR,train,15,6,-7.884349348737505,0,263,1,0.007,-0.141,1.301,1.106297,-0.072133146,-0.022646775,1.1925339,-1.289214,-0.8495844,0.0,0.0,0.0,0.5035126209259033,0.5035126209259033,link6
1763432041.9353483,d4pg_train,FAR,train,15,7,-7.677594874759474,0,264,1,-0.032,-0.368,1.223,1.3299598,-0.15484828,-0.24618372,0.9077952,-1.3282824,-0.5709133,0.0,0.0,0.0,0.6016256809234619,0.6016256809234619,link6
1763432043.320629,d4pg_train,FAR,train,15,8,-7.956377288828385,0,265,1,0.182,0.441,1.234,1.2653702,0.21096307,0.5014521,1.3103782,-0.7011321,-0.90170026,0.0,0.0,0.0,0.5610033869743347,0.5610033869743347,link6
1763432044.761243,d4pg_train,FAR,train,15,9,-7.83721841770584,0,266,1,0.121,0.386,1.231,1.4339161,0.14525722,0.4027647,1.7602096,-1.0588566,-0.61117226,0.0,0.0,0.0,0.43796437978744507,0.43796437978744507,link6
1763432046.141245,d4pg_train,FAR,train,15,10,-7.849892479199539,0,267,1,0.043,-0.19,1.285,1.395816,-0.054960385,-0.27598962,1.8404572,-1.2859006,-0.89862114,0.0,0.0,0.0,0.45698249340057373,0.45698249340057373,link6
1763432047.537863,d4pg_train,FAR,train,15,11,-8.024390065855618,0,268,1,0.062,0.031,1.331,1.9792315,-0.028189054,0.1092113,1.6125067,-1.040852,-0.87717104,0.0,0.0,0.0,0.5200566649436951,0.5200566649436951,link6
1763432048.9212549,d4pg_train,FAR,train,15,12,-7.789354527038001,0,269,1,-0.076,0.261,1.269,2.1038685,-0.006080253,0.5206956,1.5013343,-1.0445629,-0.6771475,0.0,0.0,0.0,0.7555328607559204,0.7555328607559204,link6
1763432050.3127356,d4pg_train,FAR,train,15,13,-7.4876912229684,0,270,1,-0.063,0.429,1.169,1.8628321,0.10988466,0.7093492,1.0609295,-1.2698268,0.11357226,0.0,0.0,0.0,0.660838782787323,0.660838782787323,link6
1763432051.7082477,d4pg_train,FAR,train,15,14,-7.180940723924134,0,271,1,-0.033,0.343,1.142,1.8860011,0.13934281,0.43537363,1.4756774,-2.0132232,-0.2416411,0.0,0.0,0.0,0.5346946120262146,0.5346946120262146,link6
1763432053.1010695,d4pg_train,FAR,train,15,15,-7.031691834940126,0,272,1,-0.085,0.309,1.127,2.0266483,0.1612613,0.35078606,1.6742246,-2.217072,-0.2968876,0.0,0.0,0.0,0.8041374087333679,0.8041374087333679,link6
1763432054.5014205,d4pg_train,FAR,train,15,16,-7.7764789150090525,0,273,1,-0.411,0.319,1.187,2.5130908,0.17480065,0.69516563,0.6541946,-0.7428502,-1.018117,0.0,0.0,0.0,0.9438755512237549,0.9438755512237549,link6
1763432055.8846335,d4pg_train,FAR,train,15,17,-7.822971284215253,0,274,1,-0.115,0.405,1.224,1.9755307,0.13668023,0.57258147,1.0758195,-1.0113536,-0.809265,0.0,0.0,0.0,0.4479835033416748,0.4479835033416748,link6
1763432057.26567,d4pg_train,FAR,train,15,18,-7.892728828089265,0,275,1,0.064,0.189,1.291,1.6209592,0.045813657,0.28854167,1.2907958,-1.2063131,-0.59541714,0.0,0.0,0.0,0.4514434337615967,0.4514434337615967,link6
1763432058.654743,d4pg_train,FAR,train,15,19,-8.25633319583468,0,276,1,0.022,0.006,1.37,2.07272,-0.02266271,0.11974735,0.94497615,-0.6485304,-0.609556,0.0,0.0,0.0,0.49563008546829224,0.49563008546829224,link6
1763432062.3136742,d4pg_train,FAR,train,16,0,-8.373336548416155,0,277,1,-0.091,0.013,1.391,0.27416345,-0.050141778,-0.012164115,0.09880216,-0.13609277,0.03490478,0.0,0.0,0.0,0.6305397152900696,0.6305397152900696,link6
1763432063.6967416,d4pg_train,FAR,train,16,1,-8.15903350108108,0,278,1,-0.025,-0.0,1.355,1.4240975,-0.22907048,0.53195995,0.24653664,-0.49591413,-0.6990174,0.0,0.0,0.0,0.5197572708129883,0.5197572708129883,link6
1763432065.0790873,d4pg_train,FAR,train,16,2,-8.764368206745566,0,279,1,0.074,-0.114,1.376,2.2054353,-0.14099827,0.091747575,0.8025593,-0.43547305,0.07087449,0.0,0.0,0.0,0.23683132231235504,0.23683132231235504,link6
1763432066.4625638,d4pg_train,FAR,train,16,3,-8.22530066230341,0,280,1,0.281,-0.151,1.325,2.5888906,-0.14843549,-0.1936373,1.1174084,-0.5524004,0.45087272,0.0,0.0,0.0,0.4643048644065857,0.4643048644065857,link6
1763432067.8691735,d4pg_train,FAR,train,16,4,-7.6103441522402075,0,281,1,0.323,0.135,1.013,0.5849681,-0.25560898,1.243435,1.9384845,-1.2396879,-0.8061131,0.0,0.0,0.0,0.14442333579063416,0.14442333579063416,link6
1763432069.2526808,d4pg_train,FAR,train,16,5,-7.1236817269764865,0,282,1,0.237,0.157,1.149,0.89416754,-0.18392946,0.96253854,1.0781118,-1.2576389,-1.0865812,0.0,0.0,0.0,0.5435153841972351,0.5435153841972351,link6
1763432070.6375554,d4pg_train,FAR,train,16,6,-8.204969129499045,0,283,1,0.053,-0.269,1.33,1.6932304,-0.08425639,-0.23055261,1.0118903,-0.59467906,0.13566932,0.0,0.0,0.0,0.4471045136451721,0.4471045136451721,link6
1763432072.0294096,d4pg_train,FAR,train,16,7,-8.126517595669938,0,284,1,0.034,-0.058,1.337,1.0464959,-0.024463968,0.072469585,1.1721761,-1.0213567,-0.44325507,0.0,0.0,0.0,0.39698439836502075,0.39698439836502075,link6
1763432073.4260333,d4pg_train,FAR,train,16,8,-7.964783294665436,0,285,1,0.09,0.052,1.315,1.190675,-0.05115684,0.33209693,1.1222446,-1.127408,-1.0208045,0.0,0.0,0.0,0.46017009019851685,0.46017009019851685,link6
1763432074.8116617,d4pg_train,FAR,train,16,9,-7.702189706903337,0,286,1,0.167,0.07,1.24,0.8675664,-0.12420487,0.5728699,1.5367986,-1.3678594,-0.07410169,0.0,0.0,0.0,0.33061784505844116,0.33061784505844116,link6
1763432076.1962721,d4pg_train,FAR,train,16,10,-7.631698589030906,0,287,1,0.085,0.085,1.256,1.560246,-0.093331374,0.42149827,1.2902672,-1.5257024,0.062483165,0.0,0.0,0.0,0.4402018189430237,0.4402018189430237,link6
1763432077.5826933,d4pg_train,FAR,train,16,11,-7.596951239865793,0,288,1,0.051,0.085,1.252,1.7784083,-0.06521656,0.4066002,1.0488372,-1.6490432,0.037343998,0.0,0.0,0.0,0.43990784883499146,0.43990784883499146,link6
1763432078.9844582,d4pg_train,FAR,train,16,12,-8.106299385366784,0,289,1,0.237,-0.138,1.239,2.3710399,-0.14944394,-0.34062222,2.091319,-1.536453,0.108332306,0.0,0.0,0.0,0.23179765045642853,0.23179765045642853,link6
1763432080.3724375,d4pg_train,FAR,train,16,13,-7.748344846759435,0,290,1,0.131,-0.064,1.28,2.0567498,-0.16384141,0.2422459,1.3079351,-1.4213548,-0.6010478,0.0,0.0,0.0,0.5589509010314941,0.5589509010314941,link6
1763432081.7640834,d4pg_train,FAR,train,16,14,-7.6023180152622505,0,291,1,-0.014,0.29,1.222,1.7560052,-0.005041539,0.7296634,0.711173,-1.3559964,-1.0058057,0.0,0.0,0.0,0.43243175745010376,0.43243175745010376,link6
1763432083.1719162,d4pg_train,FAR,train,16,15,-7.863403908844868,0,292,1,-0.094,0.143,1.298,2.5636926,0.061137266,0.26158327,1.114794,-1.2444595,0.04184267,0.0,0.0,0.0,0.6436427235603333,0.6436427235603333,link6
1763432084.5705123,d4pg_train,FAR,train,16,16,-7.802061443696069,0,293,1,-0.041,0.153,1.279,2.2679152,0.08301324,0.17200565,1.1461228,-1.4690322,-0.14709266,0.0,0.0,0.0,0.4276806116104126,0.4276806116104126,link6
1763432085.9502628,d4pg_train,FAR,train,16,17,-7.404569882694546,0,294,1,0.03,0.054,1.225,2.5802562,0.1258753,-0.1403404,1.0361973,-1.9069499,0.017047735,0.0,0.0,0.0,0.47054213285446167,0.47054213285446167,link6
1763432087.3341582,d4pg_train,FAR,train,16,18,-7.698104023919565,0,295,1,-0.152,0.137,1.266,2.8016098,0.050654083,0.34979895,1.2358888,-1.3922343,-0.07705656,0.0,0.0,0.0,0.7259114384651184,0.7259114384651184,link6
1763432088.7281487,d4pg_train,FAR,train,16,19,-7.882059873043064,0,296,1,-0.16,0.137,1.279,2.7660706,0.06883157,0.30218846,1.1268747,-1.3251599,-0.033966914,0.0,0.0,0.0,0.386623740196228,0.386623740196228,link6
1763432092.3882964,d4pg_train,FAR,train,17,0,-7.9778651782563825,0,297,1,-0.047,0.226,1.308,1.7485678,-0.12180495,0.7012671,0.4237351,-0.43793383,-0.47013548,0.0,0.0,0.0,0.6366719603538513,0.6366719603538513,link6
1763432093.7788386,d4pg_train,FAR,train,17,1,-8.213476283153955,0,298,1,-0.029,0.097,1.346,2.0221224,-0.057681404,0.37883192,0.69225615,-0.7963632,-0.7588202,0.0,0.0,0.0,0.37751954793930054,0.37751954793930054,link6
1763432095.1636934,d4pg_train,FAR,train,17,2,-7.897792645571052,0,299,1,0.129,-0.126,1.298,2.051625,0.0047619226,-0.20751882,0.99894077,-1.1447905,-0.9899806,0.0,0.0,0.0,0.49619320034980774,0.49619320034980774,link6
1763432096.5488682,d4pg_train,FAR,train,17,3,-8.406785255806998,0,300,1,0.101,-0.176,1.361,2.079195,-0.051559027,-0.22958913,1.1278918,-0.362559,-0.63613296,0.0,0.0,0.0,0.35031020641326904,0.35031020641326904,link6
1763432097.9472845,d4pg_train,FAR,train,17,4,-8.184559653857669,0,301,1,0.127,-0.231,1.33,1.9720417,-0.06646038,-0.18275233,0.9365959,-0.7105109,-0.41675726,0.0,0.0,0.0,0.461875855922699,0.461875855922699,link6
1763432099.3320324,d4pg_train,FAR,train,17,5,-7.730871640172427,0,302,1,0.005,0.109,1.278,1.672814,0.038821254,0.33237606,0.46092078,-1.5466465,-1.1732891,0.0,0.0,0.0,0.4962587356567383,0.4962587356567383,link6
1763432100.740041,d4pg_train,FAR,train,17,6,-7.772908208255258,0,303,1,-0.031,0.147,1.283,2.1749578,0.17804791,0.03611377,0.9047991,-1.4294881,-0.81291485,0.0,0.0,0.0,0.5412017703056335,0.5412017703056335,link6
1763432102.1195543,d4pg_train,FAR,train,17,7,-7.84572886871276,0,304,1,-0.029,0.177,1.285,2.1722672,0.2021824,-0.050165687,1.2939296,-1.3502368,-0.50167996,0.0,0.0,0.0,0.4406547248363495,0.4406547248363495,link6
1763432103.5117555,d4pg_train,FAR,train,17,8,-7.5400176297618025,0,305,1,-0.074,0.19,1.238,1.7782073,0.062058795,0.5209133,-0.0014614171,-1.7362944,-1.0199132,0.0,0.0,0.0,0.6037116646766663,0.6037116646766663,link6
1763432104.8960214,d4pg_train,FAR,train,17,9,-7.3942370320937325,0,306,1,-0.358,0.347,1.127,2.5553415,0.1941793,0.6698948,1.3042765,-1.3444493,0.03579664,0.0,0.0,0.0,1.0826257467269897,1.0826257467269897,link6
1763432106.2992916,d4pg_train,FAR,train,17,10,-7.108250397685072,0,307,1,-0.578,0.27,0.995,2.7911487,0.29657593,0.66605735,1.8952664,-1.458241,0.30696714,0.0,0.0,0.0,0.5711273550987244,0.5711273550987244,link6
1763432107.6827416,d4pg_train,FAR,train,17,11,-7.55337526804525,0,308,1,-0.05,0.066,1.253,2.0866973,0.17025101,0.03431224,0.19802453,-1.7322942,-0.24244033,0.0,0.0,0.0,0.5573905110359192,0.5573905110359192,link6
1763432109.079784,d4pg_train,FAR,train,17,12,-7.870313337792952,0,309,1,-0.197,0.15,1.288,2.454276,0.18135324,0.30993327,0.19972783,-1.2753992,-0.5732934,0.0,0.0,0.0,0.8729894161224365,0.8729894161224365,link6
1763432110.4696124,d4pg_train,FAR,train,17,13,-7.806730023479021,0,310,1,-0.446,0.14,1.214,2.8048089,0.17561245,0.67171735,0.27640545,-0.92458093,-1.0707129,0.0,0.0,0.0,0.8183251023292542,0.8183251023292542,link6
1763432111.8793464,d4pg_train,FAR,train,17,14,-7.837959247041616,0,311,1,-0.244,0.256,1.257,2.5425792,0.1734133,0.2389997,1.7280368,-1.1542243,-0.30335143,0.0,0.0,0.0,0.7372226119041443,0.7372226119041443,link6
1763432113.2763612,d4pg_train,FAR,train,17,15,-7.828384392759398,0,312,1,-0.256,0.241,1.256,2.6034565,0.17557794,0.28847772,1.463693,-1.153468,0.11579843,0.0,0.0,0.0,0.7528014779090881,0.7528014779090881,link6
1763432114.6699667,d4pg_train,FAR,train,17,16,-7.111976482847621,0,313,1,-0.085,0.127,1.173,2.3711796,0.12682791,0.16233486,0.98535013,-2.3858109,-0.7598138,0.0,0.0,0.0,0.5843120217323303,0.5843120217323303,link6
1763432116.0586674,d4pg_train,FAR,train,17,17,-7.681911336052369,0,314,1,-0.228,0.248,1.235,2.555006,0.1898453,0.2906654,1.3342551,-1.388939,-1.144661,0.0,0.0,0.0,0.8353564143180847,0.8353564143180847,link6
1763432117.4542658,d4pg_train,FAR,train,17,18,-7.9272592020245884,0,315,1,-0.359,0.255,1.243,2.6658177,0.24622425,0.30522123,1.3806674,-0.97985035,-0.8789776,0.0,0.0,0.0,0.5802987217903137,0.5802987217903137,link6
1763432118.845018,d4pg_train,FAR,train,17,19,-7.646940907675996,0,316,1,-0.351,0.307,1.186,2.4687586,0.060146805,0.82371205,0.82204807,-0.7335474,0.26821616,0.0,0.0,0.0,0.8937105536460876,0.8937105536460876,link6
1763432122.4949543,d4pg_train,FAR,train,18,0,-8.286657422824192,0,317,1,-0.253,-0.087,1.351,0.5054226,-0.101035714,-0.22906144,0.2697771,-0.31557,-0.20788449,0.0,0.0,0.0,0.5371257066726685,0.5371257066726685,link6
1763432123.8805914,d4pg_train,FAR,train,18,1,-8.18216018779499,0,318,1,-0.07,0.011,1.36,2.301463,-0.19706292,0.50228906,1.1315504,0.08325538,-0.87496656,0.0,0.0,0.0,0.6110972762107849,0.6110972762107849,link6
1763432125.293282,d4pg_train,FAR,train,18,2,-7.903310344134364,0,319,1,-0.074,0.038,1.312,2.8627634,-0.09552117,0.5099786,0.4754576,-1.1846918,-0.595966,0.0,0.0,0.0,0.5776156783103943,0.5776156783103943,link6
1763432126.687958,d4pg_train,FAR,train,18,3,-7.490100403631786,0,320,1,-0.172,0.024,1.236,2.9857354,0.026103418,0.5285535,0.31715593,-1.7510133,-0.3529018,0.0,0.0,0.0,0.82906174659729,0.82906174659729,link6
1763432128.0741973,d4pg_train,FAR,train,18,4,-8.167937201553217,0,321,1,-0.158,0.247,1.328,2.2416341,0.1591941,0.2301611,1.1298379,-0.66368276,0.4393877,0.0,0.0,0.0,0.6433752775192261,0.6433752775192261,link6
1763432129.4678442,d4pg_train,FAR,train,18,5,-8.125726326112494,0,322,1,-0.194,0.303,1.305,2.189331,0.15312488,0.37559164,0.93668383,-0.6101034,0.31903517,0.0,0.0,0.0,0.7235984802246094,0.7235984802246094,link6
1763432130.858974,d4pg_train,FAR,train,18,6,-7.8932329510831725,0,323,1,-0.213,0.368,1.243,2.1410701,0.12008298,0.6193407,0.7572142,-0.7865776,0.066741414,0.0,0.0,0.0,0.6123433709144592,0.6123433709144592,link6
1763432132.242604,d4pg_train,FAR,train,18,7,-7.877865002433789,0,324,1,-0.001,0.206,1.29,1.827463,0.0540536,0.36209524,0.8913584,-1.2149347,0.019666106,0.0,0.0,0.0,0.4833436906337738,0.4833436906337738,link6
1763432133.6377268,d4pg_train,FAR,train,18,8,-7.854845543561678,0,325,1,-0.052,0.272,1.279,1.903976,0.009209754,0.6041921,0.82051265,-0.99314934,0.067556,0.0,0.0,0.0,0.7409401535987854,0.7409401535987854,link6
1763432135.0317895,d4pg_train,FAR,train,18,9,-7.705953398400781,0,326,1,-0.026,-0.066,1.278,1.7751147,0.115524836,-0.120207585,-0.0055362,-1.4869093,-0.25019816,0.0,0.0,0.0,0.5253333449363708,0.5253333449363708,link6
1763432136.458635,d4pg_train,FAR,train,18,10,-7.967274912192348,0,327,1,0.085,-0.089,1.301,2.2718918,0.04527911,-0.13747042,0.4927247,-1.2054405,-0.45909625,0.0,0.0,0.0,0.3677526116371155,0.3677526116371155,link6
1763432137.8383148,d4pg_train,FAR,train,18,11,-7.897719167794441,0,328,1,0.12,-0.038,1.306,2.604042,0.031645197,-0.11169778,0.6360584,-1.2027062,-0.5649342,0.0,0.0,0.0,0.5282121300697327,0.5282121300697327,link6
1763432139.2195055,d4pg_train,FAR,train,18,12,-7.888802388726862,0,329,1,-0.026,0.054,1.309,2.6959682,0.1747965,-0.11224149,0.72767514,-1.220259,0.27572912,0.0,0.0,0.0,0.5237242579460144,0.5237242579460144,link6
1763432140.6132789,d4pg_train,FAR,train,18,13,-8.031824700260309,0,330,1,-0.149,0.209,1.313,2.3341143,0.1314237,0.29375753,0.98830426,-0.9345158,0.8540982,0.0,0.0,0.0,0.696837306022644,0.696837306022644,link6
1763432142.0186722,d4pg_train,FAR,train,18,14,-7.89030173595197,0,331,1,-0.137,0.366,1.248,2.0474775,0.109968595,0.54663384,1.0857382,-0.909725,0.7880731,0.0,0.0,0.0,0.47385120391845703,0.47385120391845703,link6
1763432143.4143126,d4pg_train,FAR,train,18,15,-8.062014023984093,0,332,1,-0.019,0.005,1.339,1.8137436,0.05681018,0.08786292,0.20007561,-1.0694693,-0.72707254,0.0,0.0,0.0,0.5215843915939331,0.5215843915939331,link6
1763432144.8159497,d4pg_train,FAR,train,18,16,-8.193268176868374,0,333,1,-0.042,0.01,1.362,2.5306938,0.061727133,0.087949045,0.24754652,-0.78155524,-0.6753118,0.0,0.0,0.0,0.567440927028656,0.567440927028656,link6
1763432146.1964989,d4pg_train,FAR,train,18,17,-8.273431969554897,0,334,1,-0.09,-0.001,1.375,3.0708957,0.047309253,0.14488377,0.5121902,-0.55138683,-0.5793518,0.0,0.0,0.0,0.6763489842414856,0.6763489842414856,link6
1763432147.5953343,d4pg_train,FAR,train,18,18,-8.334169559425494,0,335,1,0.054,-0.009,1.37,2.580903,0.060533367,-0.17100571,1.1176043,-0.5611904,0.10484863,0.0,0.0,0.0,0.3838685154914856,0.3838685154914856,link6
1763432148.9757905,d4pg_train,FAR,train,18,19,-7.988544645425473,0,336,1,0.052,0.003,1.327,2.249083,0.063200645,-0.0031162316,0.77794445,-1.191416,0.41598937,0.0,0.0,0.0,0.5500990748405457,0.5500990748405457,link6
1763432152.6324031,d4pg_train,FAR,train,19,0,-8.401478868994873,0,337,1,0.156,-0.113,1.344,2.396976,-0.15146063,0.059961077,0.94966686,-0.82446057,-0.15179352,0.0,0.0,0.0,0.2975630760192871,0.2975630760192871,link6
1763432154.0257115,d4pg_train,FAR,train,19,1,-7.9796416270859885,0,338,1,-0.035,0.06,1.328,2.602386,-0.021849846,0.31574365,0.7095942,-1.1032557,0.7722519,0.0,0.0,0.0,0.8805912137031555,0.8805912137031555,link6
1763432155.4261632,d4pg_train,FAR,train,19,2,-7.637137382617114,0,339,1,-0.426,0.338,1.15,2.4682965,0.30068943,0.6396038,0.39587262,-1.232009,1.4956768,0.0,0.0,0.0,0.6995319724082947,0.6995319724082947,link6
1763432156.8104346,d4pg_train,FAR,train,19,3,-7.670077536154964,0,340,1,-0.09,0.398,1.21,1.9345773,0.07683641,0.6700315,1.1302277,-1.028315,-0.86070377,0.0,0.0,0.0,0.6392396092414856,0.6392396092414856,link6
1763432158.2180092,d4pg_train,FAR,train,19,4,-7.771850741411995,0,341,1,-0.371,0.411,1.171,2.362109,0.26668066,0.61014545,0.70948154,-0.913582,-0.4830214,0.0,0.0,0.0,1.1540629863739014,1.1540629863739014,link6
1763432159.6138527,d4pg_train,FAR,train,19,5,-7.406612176944013,0,342,1,0.085,0.025,1.217,2.9302716,0.23310263,-0.47864118,0.7246547,-1.5986345,0.41893855,0.0,0.0,0.0,0.40711724758148193,0.40711724758148193,link6
1763432160.9926548,d4pg_train,FAR,train,19,6,-7.851533885610839,0,343,1,-0.305,0.263,1.245,2.4638653,0.19645382,0.51628876,0.5314963,-1.0910827,0.41056564,0.0,0.0,0.0,0.9368861317634583,0.9368861317634583,link6
1763432162.373435,d4pg_train,FAR,train,19,7,-7.7947482686983856,0,344,1,-0.359,0.417,1.168,2.3155107,0.27685913,0.5818214,0.58440626,-1.0284194,0.35981533,0.0,0.0,0.0,0.464555561542511,0.464555561542511,link6
1763432163.7750456,d4pg_train,FAR,train,19,8,-7.978060796519199,0,345,1,0.038,-0.154,1.312,1.9246676,0.22312959,-0.6437679,0.7002617,-0.25971925,-0.5641905,0.0,0.0,0.0,0.463071346282959,0.463071346282959,link6
1763432165.1565778,d4pg_train,FAR,train,19,9,-8.114462447651077,0,346,1,-0.037,0.261,1.325,1.696127,0.10601981,0.42102107,0.435977,-0.8299211,-0.75052667,0.0,0.0,0.0,0.6359238624572754,0.6359238624572754,link6
1763432166.5589585,d4pg_train,FAR,train,19,10,-7.932050219093111,0,347,1,-0.061,0.432,1.231,1.7363843,0.16367212,0.59247136,0.49208826,-0.95667535,-0.72586954,0.0,0.0,0.0,0.3953997492790222,0.3953997492790222,link6
1763432167.987042,d4pg_train,FAR,train,19,11,-8.062185192562124,0,348,1,0.191,0.007,1.293,3.0923183,0.11244421,-0.41644382,0.64027834,-0.9117308,0.15150398,0.0,0.0,0.0,0.3124080300331116,0.3124080300331116,link6
1763432169.373416,d4pg_train,FAR,train,19,12,-8.051210546355358,0,349,1,0.037,0.021,1.338,2.6125705,0.13988768,-0.19886744,0.90943605,-0.8946567,0.072829545,0.0,0.0,0.0,0.5564719438552856,0.5564719438552856,link6
1763432170.7667615,d4pg_train,FAR,train,19,13,-8.127332974267043,0,350,1,-0.112,0.177,1.338,2.3443644,0.21094586,0.032189798,0.9628279,-0.81071305,0.039491616,0.0,0.0,0.0,0.8073516488075256,0.8073516488075256,link6
1763432172.1519277,d4pg_train,FAR,train,19,14,-7.992389964462716,0,351,1,-0.304,0.081,1.294,2.9937456,0.083235495,0.44512784,1.0224086,-0.8731167,0.34135905,0.0,0.0,0.0,0.7721151113510132,0.7721151113510132,link6
1763432173.55626,d4pg_train,FAR,train,19,15,-7.949350698629625,0,352,1,-0.368,0.148,1.264,2.7939246,0.11182497,0.5694068,0.71164477,-0.727202,0.6214138,0.0,0.0,0.0,0.885747492313385,0.885747492313385,link6
1763432174.9376633,d4pg_train,FAR,train,19,16,-7.95554975334913,0,353,1,-0.426,0.246,1.228,2.564527,0.17714854,0.6183185,0.29143447,-0.57383,0.9741899,0.0,0.0,0.0,0.5607550144195557,0.5607550144195557,link6
1763432176.322312,d4pg_train,FAR,train,19,17,-7.796350535400127,0,354,1,0.058,-0.036,1.29,1.4548833,0.045136593,-0.026244784,0.9625909,-1.4241365,1.2593677,0.0,0.0,0.0,0.4699021577835083,0.4699021577835083,link6
1763432177.7066567,d4pg_train,FAR,train,19,18,-7.839808831806536,0,355,1,0.037,-0.013,1.304,1.5033888,0.0015205314,0.17982611,0.6593746,-1.3593311,0.3571051,0.0,0.0,0.0,0.6009930968284607,0.6009930968284607,link6
1763432179.1035671,d4pg_train,FAR,train,19,19,-7.626237822673609,0,356,1,-0.031,-0.118,1.261,1.9017882,0.19267915,-0.3692355,-0.23729688,-1.3351141,0.8514654,0.0,0.0,0.0,0.5302006602287292,0.5302006602287292,link6
1763432182.7493107,d4pg_train,FAR,train,20,0,-8.70260456667381,0,357,1,-0.127,-0.177,1.375,1.2922097,-0.15153638,-0.09676706,0.50508004,0.04654744,-0.33030006,0.0,0.0,0.0,0.2660112977027893,0.2660112977027893,link6
1763432184.1355267,d4pg_train,FAR,train,20,1,-8.285750479040312,0,358,1,0.316,-0.34,1.298,2.4255323,-0.31153142,-0.1575605,0.82388407,0.02934773,-0.5518846,0.0,0.0,0.0,0.5825585722923279,0.5825585722923279,link6
1763432185.5312314,d4pg_train,FAR,train,20,2,-7.73736818854744,0,359,1,-0.34,0.221,1.224,2.3928027,0.041422646,0.80539465,-0.26156372,-0.8879783,0.106318325,0.0,0.0,0.0,0.8718337416648865,0.8718337416648865,link6
1763432186.915114,d4pg_train,FAR,train,20,3,-7.985805047853373,0,360,1,-0.313,0.336,1.247,2.2720382,0.18818791,0.5096797,0.2985534,-0.686035,-0.18398747,0.0,0.0,0.0,0.5980838537216187,0.5980838537216187,link6
1763432188.2999387,d4pg_train,FAR,train,20,4,-8.29306689507476,0,361,1,-0.137,0.175,1.364,2.245356,0.22039726,-0.017004669,1.0394113,-0.3962636,-0.5280108,0.0,0.0,0.0,0.8385549783706665,0.8385549783706665,link6
1763432189.6956968,d4pg_train,FAR,train,20,5,-7.824981308127983,0,362,1,0.051,0.526,1.188,1.5499264,0.25677276,0.5525315,0.91217333,-0.9322246,0.21560207,0.0,0.0,0.0,0.5358136892318726,0.5358136892318726,link6
1763432191.0832736,d4pg_train,FAR,train,20,6,-7.897934111762731,0,363,1,0.048,0.546,1.192,1.5932533,0.37294212,0.3220049,0.8670987,-1.0092208,0.14578733,0.0,0.0,0.0,0.5256357789039612,0.5256357789039612,link6
1763432192.5095143,d4pg_train,FAR,train,20,7,-8.106227362860652,0,364,1,-0.202,0.201,1.32,2.149599,0.2080513,0.22811835,-0.2515719,-0.91370845,-0.5320558,0.0,0.0,0.0,0.7189540266990662,0.7189540266990662,link6
1763432193.8944511,d4pg_train,FAR,train,20,8,-8.281938015853129,0,365,1,-0.098,0.112,1.363,2.4289298,0.0926739,0.10048508,0.9629375,-0.6151173,-0.29508138,0.0,0.0,0.0,0.4503803849220276,0.4503803849220276,link6
1763432195.2885802,d4pg_train,FAR,train,20,9,-8.231305159757605,0,366,1,0.022,0.022,1.371,2.5784225,-0.0076798634,0.04533167,1.2125946,-0.6366634,0.056492414,0.0,0.0,0.0,0.7358028292655945,0.7358028292655945,link6
1763432196.6736422,d4pg_train,FAR,train,20,10,-7.9121628170129075,0,367,1,-0.294,0.09,1.282,2.8142908,0.25273487,0.23722951,0.24494138,-1.2243612,0.48631844,0.0,0.0,0.0,0.7807875871658325,0.7807875871658325,link6
1763432198.0700657,d4pg_train,FAR,train,20,11,-8.288908299922488,0,368,1,-0.402,0.214,1.304,2.556399,0.32060593,0.11435154,0.9302445,0.044207387,0.30063477,0.0,0.0,0.0,0.812141478061676,0.812141478061676,link6
1763432199.456077,d4pg_train,FAR,train,20,12,-8.25376733381035,0,369,1,-0.334,0.242,1.305,2.2316496,0.3025339,0.061737373,1.2622534,0.47784787,0.3726775,0.0,0.0,0.0,0.47796645760536194,0.47796645760536194,link6
1763432200.8425758,d4pg_train,FAR,train,20,13,-7.600400614111298,0,370,1,-0.123,0.365,1.206,1.9234294,0.11987681,0.6934396,0.39654946,-1.3455191,0.5239289,0.0,0.0,0.0,0.7053927183151245,0.7053927183151245,link6
1763432202.2332723,d4pg_train,FAR,train,20,14,-7.859525579578565,0,371,1,-0.35,0.319,1.221,2.4936023,0.2913696,0.40980542,0.52253246,-1.0548003,-0.050557308,0.0,0.0,0.0,0.7923088669776917,0.7923088669776917,link6
1763432203.6133041,d4pg_train,FAR,train,20,15,-8.139020281171002,0,372,1,-0.361,0.084,1.298,2.9473188,0.42220768,-0.07952198,0.7152861,-0.7789564,-0.45856938,0.0,0.0,0.0,0.48351067304611206,0.48351067304611206,link6
1763432205.0016866,d4pg_train,FAR,train,20,16,-7.3735679359074116,0,373,1,-0.33,0.259,1.155,2.63109,0.29259625,0.37294555,1.026733,-1.7865863,0.99884933,0.0,0.0,0.0,0.8979464769363403,0.8979464769363403,link6
1763432206.3831136,d4pg_train,FAR,train,20,17,-7.422873394036867,0,374,1,-0.35,0.366,1.127,2.414827,0.37912282,0.40129873,0.77909976,-1.6830604,0.7912134,0.0,0.0,0.0,0.6258509159088135,0.6258509159088135,link6
1763432207.7783866,d4pg_train,FAR,train,20,18,-8.161590799008955,0,375,1,-0.04,0.197,1.342,1.7387171,0.079191394,0.31400594,0.38317463,-0.7858037,-0.08804401,0.0,0.0,0.0,0.55335932970047,0.55335932970047,link6
1763432209.174071,d4pg_train,FAR,train,20,19,-8.326064063079249,0,376,1,-0.059,0.101,1.379,1.9454954,0.111897424,0.049084093,0.42617214,-0.4399015,0.3136935,0.0,0.0,0.0,0.5410261154174805,0.5410261154174805,link6
1763432212.8504076,d4pg_train,FAR,train,21,0,-8.417066085627965,0,377,1,-0.007,0.038,1.395,0.22947249,0.0072662677,-0.0050569647,0.072482005,-0.052402258,0.08983645,0.0,0.0,0.0,0.47362828254699707,0.47362828254699707,link6
1763432214.2342556,d4pg_train,FAR,train,21,1,-8.913474745753751,0,378,1,0.3,-0.456,1.181,2.1786888,-0.1452741,-0.67295384,1.0125246,-0.25355765,-0.16389428,0.0,0.0,0.0,0.15075553953647614,0.15075553953647614,link6
1763432215.6188674,d4pg_train,FAR,train,21,2,-8.15390679378946,0,379,1,0.181,-0.366,1.296,2.0399466,-0.13659291,-0.19897415,0.5929726,-0.35721895,-0.20685916,0.0,0.0,0.0,0.8406907916069031,0.8406907916069031,link6
1763432217.0068412,d4pg_train,FAR,train,21,3,-8.030700831459365,0,380,1,-0.113,0.047,1.331,2.4165268,0.022432065,0.3392335,-0.0025671409,-1.071647,0.321243,0.0,0.0,0.0,0.6118179559707642,0.6118179559707642,link6
1763432218.3956304,d4pg_train,FAR,train,21,4,-7.860660400369877,0,381,1,-0.308,0.19,1.259,2.675289,0.15896884,0.4998657,0.66230035,-1.0983514,0.3582919,0.0,0.0,0.0,0.8757539391517639,0.8757539391517639,link6
1763432219.7766733,d4pg_train,FAR,train,21,5,-7.9623757933188815,0,382,1,-0.23,0.375,1.241,2.1957705,0.30626795,0.30405053,0.7952918,-1.0918919,0.43783477,0.0,0.0,0.0,0.43838292360305786,0.43838292360305786,link6
1763432221.1877642,d4pg_train,FAR,train,21,6,-7.915586550767292,0,383,1,-0.239,0.19,1.283,2.5885513,0.16921854,0.3618562,0.6524492,-1.1397991,-0.2792636,0.0,0.0,0.0,0.7556926012039185,0.7556926012039185,link6
1763432222.5756824,d4pg_train,FAR,train,21,7,-7.917217254678079,0,384,1,-0.528,0.355,1.156,2.5203924,0.2930213,0.5756327,0.9414577,-0.19729833,0.27504727,0.0,0.0,0.0,1.1175864934921265,1.1175864934921265,link6
1763432223.9640214,d4pg_train,FAR,train,21,8,-7.690940346355248,0,385,1,-0.619,0.452,1.026,2.4341297,0.37011322,0.66559684,1.062532,0.104389876,0.5209862,0.0,0.0,0.0,0.659134566783905,0.659134566783905,link6
1763432225.3656576,d4pg_train,FAR,train,21,9,-7.8564754110387165,0,386,1,0.046,-0.034,1.3,1.2673936,0.15696375,-0.23324418,0.92019045,-1.2419382,0.81526464,0.0,0.0,0.0,0.4626837372779846,0.4626837372779846,link6
1763432226.752685,d4pg_train,FAR,train,21,10,-7.814865470086166,0,387,1,0.018,0.101,1.297,1.8699272,0.16789979,-0.0063774907,0.77412564,-1.3525399,0.36028495,0.0,0.0,0.0,0.6370234489440918,0.6370234489440918,link6
1763432228.140233,d4pg_train,FAR,train,21,11,-7.8801474653948,0,388,1,-0.179,0.223,1.281,2.3410444,0.23661724,0.21485291,0.61055624,-1.2266301,0.13651495,0.0,0.0,0.0,0.6912444233894348,0.6912444233894348,link6
1763432229.526761,d4pg_train,FAR,train,21,12,-8.210838101146646,0,389,1,0.064,0.226,1.338,1.1578768,0.30110416,-0.06952845,0.16548644,-0.76167613,0.26808822,0.0,0.0,0.0,0.44216370582580566,0.44216370582580566,link6
1763432230.9187424,d4pg_train,FAR,train,21,13,-9.613415081558106,0,390,1,-0.003,0.007,1.35,2.1043727,0.17332487,-0.24602468,0.53172636,-0.7126121,0.3707879,0.0,0.0,0.0,0.11951543390750885,0.11951543390750885,link6
1763432232.3679311,d4pg_train,MID,train,21,14,-7.985506157921115,0,391,1,0.421,-0.021,1.261,3.0235748,-0.12257948,-0.39111862,0.83551,-0.58483106,0.5174908,0.0,0.0,0.0,0.6440132260322571,0.6440132260322571,link6
1763432233.7535796,d4pg_train,FAR,train,21,15,-8.162689156534332,0,392,1,-0.215,0.277,1.314,2.1718962,0.1741163,0.35827932,0.22656548,-0.6221918,1.0468717,0.0,0.0,0.0,0.7487769722938538,0.7487769722938538,link6
1763432235.1594236,d4pg_train,FAR,train,21,16,-8.177918693619832,0,393,1,-0.153,0.353,1.301,1.9339614,0.22652277,0.3034775,0.41597846,-0.67062324,0.7994862,0.0,0.0,0.0,0.4886106252670288,0.4886106252670288,link6
1763432236.5456607,d4pg_train,FAR,train,21,17,-8.389623319979561,0,394,1,-0.008,0.119,1.388,1.2987958,0.15443724,-0.109227784,-0.09760183,-0.012518936,-0.10141911,0.0,0.0,0.0,0.5085331201553345,0.5085331201553345,link6
1763432237.93119,d4pg_train,FAR,train,21,18,-8.216564250586874,0,395,1,-0.01,-0.232,1.337,1.5549439,0.0010384178,-0.37530085,0.9233175,-0.4421957,0.40799302,0.0,0.0,0.0,0.42068374156951904,0.42068374156951904,link6
1763432239.3317006,d4pg_train,FAR,train,21,19,-8.06657479593509,0,396,1,0.062,-0.384,1.285,1.6725714,-0.13517234,-0.3413369,1.0880606,-0.5997966,0.7366349,0.0,0.0,0.0,0.6111511588096619,0.6111511588096619,link6
1763432242.9845293,d4pg_train,FAR,train,22,0,-8.167832154003962,0,397,1,-0.064,-0.328,1.293,1.4572558,-0.028299345,-0.45950797,0.72656226,-0.5384968,0.2865416,0.0,0.0,0.0,0.34743982553482056,0.34743982553482056,link6
1763432244.3925362,d4pg_train,FAR,train,22,1,-7.820269761263527,0,398,1,0.125,-0.335,1.248,1.8295552,-0.043653462,-0.3895106,0.78325313,-0.97809905,0.30275127,0.0,0.0,0.0,0.5083248615264893,0.5083248615264893,link6
1763432245.7814782,d4pg_train,FAR,train,22,2,-8.194275973264439,0,399,1,-0.025,0.36,1.315,1.5832096,0.12568805,0.4043064,0.5128889,-0.3133924,0.7552568,0.0,0.0,0.0,0.5985332727432251,0.5985332727432251,link6
1763432247.1650844,d4pg_train,FAR,train,22,3,-8.317597971019309,0,400,1,0.024,0.219,1.363,1.4007273,0.15643743,0.096852794,0.52598757,-0.48333678,0.712915,0.0,0.0,0.0,0.5006976127624512,0.5006976127624512,link6
1763432248.549284,d4pg_train,FAR,train,22,4,-8.27922163703937,0,401,1,-0.017,-0.036,1.371,1.4627262,0.07867119,-0.11573662,0.40132657,-0.56947553,0.4049552,0.0,0.0,0.0,0.46101003885269165,0.46101003885269165,link6
1763432249.9478867,d4pg_train,FAR,train,22,5,-8.354465799439296,0,402,1,-0.062,0.036,1.388,2.2339375,0.14532745,-0.13495229,0.6493651,-0.15524065,0.3246708,0.0,0.0,0.0,0.5785186290740967,0.5785186290740967,link6
1763432251.3305533,d4pg_train,FAR,train,22,6,-8.290737165716905,0,403,1,-0.049,0.101,1.373,1.8193977,0.18929051,-0.090723634,0.3398814,-0.52633995,0.68267304,0.0,0.0,0.0,0.5288457870483398,0.5288457870483398,link6
1763432252.7157485,d4pg_train,FAR,train,22,7,-8.146950134063482,0,404,1,-0.024,0.106,1.348,1.5481468,0.22328924,-0.10972195,0.15174699,-0.82223886,0.8918721,0.0,0.0,0.0,0.5029668807983398,0.5029668807983398,link6
1763432254.1086614,d4pg_train,FAR,train,22,8,-8.266182101114948,0,405,1,-0.029,0.015,1.373,1.3435389,0.015462594,0.105921686,0.102173306,-0.6621409,0.50817466,0.0,0.0,0.0,0.5264757871627808,0.5264757871627808,link6
1763432255.4981997,d4pg_train,FAR,train,22,9,-8.353166540112799,0,406,1,-0.029,0.054,1.388,1.6732044,-0.015575677,0.15720907,0.51916885,-0.23840415,0.55465513,0.0,0.0,0.0,0.5681032538414001,0.5681032538414001,link6
1763432256.888499,d4pg_train,FAR,train,22,10,-8.367352660510122,0,407,1,-0.057,0.007,1.392,1.8892828,-0.03666377,0.0868493,0.97145164,0.090273045,0.66233826,0.0,0.0,0.0,0.6407231688499451,0.6407231688499451,link6
1763432258.2814918,d4pg_train,FAR,train,22,11,-8.12257617774509,0,408,1,0.228,0.21,1.274,0.64047325,0.025215605,0.6775971,0.052288875,-0.9521929,0.5198419,0.0,0.0,0.0,0.2973690330982208,0.2973690330982208,link6
1763432259.676285,d4pg_train,FAR,train,22,12,-8.13779978309799,0,409,1,0.075,0.166,1.34,0.9802911,0.035067666,0.35621348,0.092227615,-0.8235347,0.24424994,0.0,0.0,0.0,0.5345240831375122,0.5345240831375122,link6
1763432261.0659807,d4pg_train,FAR,train,22,13,-8.061953449938848,0,410,1,0.028,0.062,1.335,1.9442149,0.043086335,0.12046876,0.9560313,-1.0557514,0.20539273,0.0,0.0,0.0,0.47900503873825073,0.47900503873825073,link6
1763432262.459855,d4pg_train,FAR,train,22,14,-7.756571684270768,0,411,1,-0.012,-0.027,1.29,1.0781435,0.18142118,-0.22175059,0.305153,-1.3397174,0.07547538,0.0,0.0,0.0,0.5840171575546265,0.5840171575546265,link6
1763432263.8490274,d4pg_train,FAR,train,22,15,-7.711035580407129,0,412,1,-0.046,-0.006,1.278,0.82440746,0.23257805,-0.31055307,0.09494479,-1.2484004,-0.04647735,0.0,0.0,0.0,0.4879986047744751,0.4879986047744751,link6
1763432265.236363,d4pg_train,FAR,train,22,16,-8.046387247446253,0,413,1,0.059,-0.148,1.32,2.203408,0.10156313,-0.30813715,0.003423066,-0.8418976,-0.4157744,0.0,0.0,0.0,0.428449809551239,0.428449809551239,link6
1763432266.6362906,d4pg_train,FAR,train,22,17,-8.174768325837451,0,414,1,0.039,-0.045,1.357,2.3549006,0.116244055,-0.20290826,0.52145946,-0.63523394,0.13709758,0.0,0.0,0.0,0.5301011204719543,0.5301011204719543,link6
1763432268.0347757,d4pg_train,FAR,train,22,18,-8.25844709974069,0,415,1,-0.058,0.08,1.369,2.2926192,0.14640485,-0.035235353,0.7798997,-0.608125,0.519773,0.0,0.0,0.0,0.5378302335739136,0.5378302335739136,link6
1763432269.4178467,d4pg_train,FAR,train,22,19,-7.74392074980466,0,416,1,-0.107,-0.001,1.285,0.93761635,0.19880226,-0.33403668,-0.42338789,-1.2238175,0.6355835,0.0,0.0,0.0,0.6538205742835999,0.6538205742835999,link6
1763432273.0917168,d4pg_train,FAR,train,23,0,-8.368696982292358,0,417,1,-0.112,0.01,1.389,0.30454648,-0.037149742,-0.118730344,0.16380262,0.03150455,-0.080021895,0.0,0.0,0.0,0.6511300802230835,0.6511300802230835,link6
1763432274.5618308,d4pg_train,FAR,train,23,1,-8.268051804836267,0,418,1,-0.009,-0.09,1.37,1.6391231,-0.23660478,0.40034744,0.54811394,-0.3988303,0.09869766,0.0,0.0,0.0,0.5110786557197571,0.5110786557197571,link6
1763432275.9474816,d4pg_train,FAR,train,23,2,-8.184756130618672,0,419,1,0.02,0.061,1.347,1.4509972,-0.11997233,0.44668442,0.6729199,-0.7488504,0.3002028,0.0,0.0,0.0,0.39783427119255066,0.39783427119255066,link6
1763432277.3413758,d4pg_train,FAR,train,23,3,-7.567953697842137,0,420,1,-0.01,0.441,1.18,1.4704559,0.24344422,0.589676,-0.11759892,-1.5309354,0.06443919,0.0,0.0,0.0,0.627354621887207,0.627354621887207,link6
1763432278.7338414,d4pg_train,FAR,train,23,4,-8.086414053116059,0,421,1,-0.007,-0.044,1.303,2.379993,0.30109674,-0.5534543,0.045035362,-0.78556615,-0.07906768,0.0,0.0,0.0,0.29418307542800903,0.29418307542800903,link6
1763432280.128331,d4pg_train,FAR,train,23,5,-7.815227083773025,0,422,1,0.03,-0.155,1.29,2.081852,0.19704257,-0.46180686,-0.19709022,-0.86506844,0.2823847,0.0,0.0,0.0,0.5656284093856812,0.5656284093856812,link6
1763432281.513652,d4pg_train,FAR,train,23,6,-7.630823154258343,0,423,1,-0.306,0.438,1.154,2.103947,0.061094277,0.7977016,0.34669074,0.22011678,1.4671303,0.0,0.0,0.0,0.8900107741355896,0.8900107741355896,link6
1763432282.9254622,d4pg_train,FAR,train,23,7,-8.194377082223596,0,424,1,-0.02,-0.081,1.362,1.4236542,-0.034654986,0.014775291,0.35162038,-0.8033848,0.82602584,0.0,0.0,0.0,0.6562912464141846,0.6562912464141846,link6
1763432284.329122,d4pg_train,FAR,train,23,8,-7.808404119788773,0,425,1,-0.128,-0.377,1.235,1.2768359,-0.12529567,-0.26326862,0.2705258,-1.0761373,0.4912756,0.0,0.0,0.0,0.5387441515922546,0.5387441515922546,link6
1763432285.7191546,d4pg_train,FAR,train,23,9,-8.247398182590436,0,426,1,0.054,0.275,1.339,1.2991127,0.070594154,0.38428017,0.4183223,-0.37922943,-0.26484692,0.0,0.0,0.0,0.4845590889453888,0.4845590889453888,link6
1763432287.1059434,d4pg_train,FAR,train,23,10,-8.32109811333703,0,427,1,-0.056,0.253,1.359,1.6547049,0.13907027,0.06921224,-0.041912008,0.3470578,0.37553132,0.0,0.0,0.0,0.5511589646339417,0.5511589646339417,link6
1763432288.5218234,d4pg_train,FAR,train,23,11,-8.260819511552999,0,428,1,-0.065,0.197,1.352,1.7517262,0.13295892,-0.04158183,-0.1478448,0.6912322,0.7787217,0.0,0.0,0.0,0.4530334174633026,0.4530334174633026,link6
1763432289.9189165,d4pg_train,FAR,train,23,12,-8.203800966697063,0,429,1,-0.351,-0.237,1.3,0.7209111,-0.191287,-0.37696224,0.88327587,0.1820115,0.5368086,0.0,0.0,0.0,0.9699439406394958,0.9699439406394958,link6
1763432291.3506598,d4pg_train,FAR,train,23,13,-8.186305464460528,0,430,1,-0.345,-0.424,1.248,0.9465571,-0.31577393,-0.2896038,0.6039509,-0.09618737,0.22637995,0.0,0.0,0.0,0.6072379350662231,0.6072379350662231,link6
1763432292.7366226,d4pg_train,FAR,train,23,14,-7.847116031101243,0,431,1,0.008,0.067,1.3,2.045463,-0.12710124,0.5092851,0.7214033,-1.229152,0.37982202,0.0,0.0,0.0,0.49167031049728394,0.49167031049728394,link6
1763432294.1135197,d4pg_train,FAR,train,23,15,-7.598092029826861,0,432,1,-0.001,0.075,1.257,0.720637,0.2010089,-0.0842602,-0.1475252,-1.6924433,0.77792007,0.0,0.0,0.0,0.47635388374328613,0.47635388374328613,link6
1763432295.504934,d4pg_train,FAR,train,23,16,-7.797761992803408,0,433,1,0.012,0.122,1.291,1.1210738,0.265097,-0.1314802,-0.095624216,-1.2165409,0.3086946,0.0,0.0,0.0,0.5688779950141907,0.5688779950141907,link6
1763432296.8931067,d4pg_train,FAR,train,23,17,-8.402062040538148,0,434,1,-0.016,0.083,1.393,1.277375,0.052478515,0.02312905,-0.04621844,-0.026230574,-1.1249937,0.0,0.0,0.0,0.5160695910453796,0.5160695910453796,link6
1763432298.2745492,d4pg_train,FAR,train,23,18,-8.3843805004362,0,435,1,-0.024,-0.043,1.389,2.3410637,0.082835615,-0.22409298,0.41799393,0.15310928,-0.7525787,0.0,0.0,0.0,0.47073233127593994,0.47073233127593994,link6
1763432299.6615546,d4pg_train,FAR,train,23,19,-8.377584109460702,0,436,1,-0.034,-0.025,1.391,2.2466934,0.081231944,-0.14439565,0.30477637,0.05346389,0.062574595,0.0,0.0,0.0,0.5194178223609924,0.5194178223609924,link6
1763432303.3211987,d4pg_train,FAR,train,24,0,-8.37700646205852,0,437,1,-0.042,0.022,1.392,0.57422006,-0.09879762,0.13341099,0.1718617,0.0499228,-0.61673695,0.0,0.0,0.0,0.5513342022895813,0.5513342022895813,link6
1763432304.716727,d4pg_train,FAR,train,24,1,-8.372684563136406,0,438,1,-0.07,-0.018,1.391,1.0573747,-0.07572413,0.030266512,0.56346124,0.18590665,-0.33839566,0.0,0.0,0.0,0.5781174898147583,0.5781174898147583,link6
1763432306.0972693,d4pg_train,FAR,train,24,2,-8.342403936901515,0,439,1,-0.051,0.014,1.386,1.0198816,0.052930225,-0.1882094,0.26915628,0.35711157,0.87314373,0.0,0.0,0.0,0.5504012703895569,0.5504012703895569,link6
1763432307.4806552,d4pg_train,FAR,train,24,3,-8.243777895844591,0,440,1,-0.219,-0.105,1.352,0.6605497,-0.019317957,-0.36758867,0.67584664,0.15511933,0.4538345,0.0,0.0,0.0,0.7859147191047668,0.7859147191047668,link6
1763432308.878501,d4pg_train,FAR,train,24,4,-8.263201140533672,0,441,1,-0.29,-0.175,1.332,0.7161419,-0.13370644,-0.30174172,0.5612387,0.18073599,0.26027647,0.0,0.0,0.0,0.5692327618598938,0.5692327618598938,link6
1763432310.2689288,d4pg_train,FAR,train,24,5,-8.17563448151497,0,442,1,0.001,0.234,1.338,1.461514,-0.031144582,0.49749252,0.39706135,-0.3053938,-0.556608,0.0,0.0,0.0,0.5267375111579895,0.5267375111579895,link6
1763432311.65878,d4pg_train,FAR,train,24,6,-9.243272607299188,0,443,1,0.245,0.3,1.303,0.72580767,0.11803736,0.41465506,0.03342891,0.0011206846,-0.22476146,0.0,0.0,0.0,0.15258607268333435,0.15258607268333435,link6
1763432313.0596647,d4pg_train,FAR,train,24,7,-8.245433514105347,0,444,1,0.333,0.279,1.299,0.64151996,0.21061915,0.2665607,-0.10757527,0.1026753,0.1294917,0.0,0.0,0.0,0.521700918674469,0.521700918674469,link6
1763432314.44527,d4pg_train,FAR,train,24,8,-8.116070645490339,0,445,1,-0.136,-0.343,1.3,1.178288,-0.1301067,-0.29686326,0.8221575,-0.5233193,-0.30970585,0.0,0.0,0.0,0.6440920233726501,0.6440920233726501,link6
1763432315.8375933,d4pg_train,FAR,train,24,9,-8.371495514131437,0,446,1,-0.012,0.003,1.387,1.1012884,0.0098559065,0.05507308,0.60356396,-0.39157176,-0.18069741,0.0,0.0,0.0,0.46220195293426514,0.46220195293426514,link6
1763432317.226684,d4pg_train,FAR,train,24,10,-8.15639479373088,0,447,1,0.255,0.465,1.246,1.0201743,0.2849827,0.3932107,0.41827205,-0.3230067,-0.07566247,0.0,0.0,0.0,0.5070455074310303,0.5070455074310303,link6
1763432318.6114345,d4pg_train,FAR,train,24,11,-8.023786827733671,0,448,1,-0.222,-0.23,1.298,1.0503415,-0.018127415,-0.41860932,-0.5803764,-0.5773237,-0.35078594,0.0,0.0,0.0,0.738882839679718,0.738882839679718,link6
1763432320.0116284,d4pg_train,FAR,train,24,12,-8.415271276349353,0,449,1,-0.034,-0.455,1.247,1.5948018,-0.12978122,-0.43259117,0.07550625,-0.49466628,-0.36354816,0.0,0.0,0.0,0.24120397865772247,0.24120397865772247,link6
1763432321.3958664,d4pg_train,FAR,train,24,13,-8.14839204503741,0,450,1,0.069,0.118,1.34,1.0398191,0.1106621,0.18067512,0.39365858,-0.98150873,-0.004820315,0.0,0.0,0.0,0.4317464828491211,0.4317464828491211,link6
1763432322.7876225,d4pg_train,FAR,train,24,14,-8.07948879357551,0,451,1,-0.034,0.052,1.341,1.8211352,0.06271366,0.14940546,0.15979974,-1.0471945,-0.42046344,0.0,0.0,0.0,0.5304010510444641,0.5304010510444641,link6
1763432324.2040844,d4pg_train,FAR,train,24,15,-8.27969577790793,0,452,1,-0.043,0.118,1.357,1.5100256,0.111537375,0.12374109,-0.118620604,-0.8181244,-0.36725658,0.0,0.0,0.0,0.3883437216281891,0.3883437216281891,link6
1763432325.5857701,d4pg_train,FAR,train,24,16,-8.01340933908414,0,453,1,-0.153,-0.269,1.298,1.199626,0.048981894,-0.59244496,-0.29172525,-0.114199236,-0.22647473,0.0,0.0,0.0,0.655424177646637,0.655424177646637,link6
1763432326.9823601,d4pg_train,FAR,train,24,17,-8.081767215987748,0,454,1,-0.137,-0.159,1.329,1.1567954,0.040248994,-0.52720994,0.312959,0.72893906,0.10168845,0.0,0.0,0.0,0.6326219439506531,0.6326219439506531,link6
1763432328.368279,d4pg_train,FAR,train,24,18,-8.197335961030205,0,455,1,-0.167,-0.094,1.352,0.8626837,-0.015869515,-0.37048835,0.37994385,0.61250615,0.31342897,0.0,0.0,0.0,0.7070079445838928,0.7070079445838928,link6
1763432329.7507057,d4pg_train,FAR,train,24,19,-7.979010322909658,0,456,1,-0.362,-0.338,1.234,0.8423293,-0.1319273,-0.5916294,0.71214455,0.010600577,0.99640054,0.0,0.0,0.0,0.8577597737312317,0.8577597737312317,link6
1763432333.4191573,d4pg_train,FAR,train,25,0,-8.481100321488526,0,457,1,-0.075,-0.03,1.387,0.8511615,-0.03378924,0.0077654105,0.106653996,-0.32192197,-0.3264494,0.0,0.0,0.0,0.3540465831756592,0.3540465831756592,link6
1763432334.8007905,d4pg_train,FAR,train,25,1,-8.27013122347075,0,458,1,-0.035,-0.074,1.372,1.3262622,0.0822977,-0.21134643,0.4755279,-0.3974927,0.26851496,0.0,0.0,0.0,0.5360537171363831,0.5360537171363831,link6
1763432336.1882725,d4pg_train,FAR,train,25,2,-8.475013838615748,0,459,1,0.168,0.262,1.337,0.88266677,0.111492135,0.36299437,0.17176116,-0.2879475,0.21954934,0.0,0.0,0.0,0.30427148938179016,0.30427148938179016,link6
1763432337.5901666,d4pg_train,FAR,train,25,3,-8.178187156142345,0,460,1,0.275,0.347,1.288,0.832426,0.1867387,0.36270404,0.22678594,-0.1319045,0.31849262,0.0,0.0,0.0,0.6671493053436279,0.6671493053436279,link6
1763432338.9749343,d4pg_train,FAR,train,25,4,-7.844878331485617,0,461,1,-0.225,-0.264,1.26,0.87608135,0.038623,-0.5863308,0.5998662,-0.528358,-0.9876395,0.0,0.0,0.0,0.7227619886398315,0.7227619886398315,link6
1763432340.3679445,d4pg_train,FAR,train,25,5,-8.232064151032196,0,462,1,-0.082,-0.186,1.353,1.3701946,0.038317304,-0.34009534,-0.06756159,-0.20508596,-0.7095016,0.0,0.0,0.0,0.5383580327033997,0.5383580327033997,link6
1763432341.763563,d4pg_train,FAR,train,25,6,-8.438325000838462,0,463,1,-0.031,0.036,1.394,1.3683082,0.05320719,-0.0654161,-0.1731398,0.0669211,-0.24396159,0.0,0.0,0.0,0.4276310205459595,0.4276310205459595,link6
1763432343.1531956,d4pg_train,FAR,train,25,7,-8.349565480630146,0,464,1,-0.202,-0.15,1.368,0.8548161,-0.22504412,0.030725384,-0.6353675,-0.12694506,0.96736985,0.0,0.0,0.0,0.7157379984855652,0.7157379984855652,link6
1763432344.5408607,d4pg_train,FAR,train,25,8,-8.342330411592425,0,465,1,-0.142,-0.313,1.344,1.2721237,-0.28831276,-0.025219696,-0.1886707,0.18719457,0.45688418,0.0,0.0,0.0,0.5582459568977356,0.5582459568977356,link6
1763432345.9302626,d4pg_train,FAR,train,25,9,-8.402842481377377,0,466,1,-0.075,-0.258,1.361,1.4614676,-0.2516689,0.00787274,0.24488913,0.27894768,0.13014977,0.0,0.0,0.0,0.4144713282585144,0.4144713282585144,link6
1763432347.3232968,d4pg_train,FAR,train,25,10,-8.37863038035135,0,467,1,-0.077,0.021,1.393,0.23491974,-0.09341655,0.041209187,-0.2394448,-0.0071449946,1.5228771,0.0,0.0,0.0,0.6582340002059937,0.6582340002059937,link6
