QuanPM-doosan/DoosanRobot_Reinforcement_Learning/ros2_ws/rl_logs/20251112_051813_ddpg_train.csv
ts,run_tag,mode,phase,ep,step,reward,done,mem_len,learn_flag,ee_x,ee_y,ee_z,j1,j2,j3,j4,j5,j6,sphere_x,sphere_y,sphere_z,dist_out,signed,closest_link
1762899498.5657883,ddpg_train,FAR,train,1,0,-8.38124987180081,0,1,0,-0.02,0.042,1.392,0.08623093,0.032178443,-0.04836988,-0.170592,-0.2055482,-0.23783407,0.0,0.0,0.0,0.531495988368988,0.531495988368988,link6
1762899499.9391198,ddpg_train,FAR,train,1,1,-8.415603879472247,0,2,0,-0.001,0.052,1.389,0.1236181,0.03474409,-0.00027455942,-0.3270277,-0.31567556,-0.35241732,0.0,0.0,0.0,0.41895753145217896,0.41895753145217896,link6
1762899501.3161395,ddpg_train,FAR,train,1,2,-8.479305595337216,0,3,0,0.161,0.062,1.374,0.1282974,0.010645126,0.24885035,-0.46468276,-0.018010896,-0.22267513,0.0,0.0,0.0,0.3378043472766876,0.3378043472766876,link6
1762899502.694041,ddpg_train,FAR,train,1,3,-8.58187868259996,0,4,0,0.228,0.021,1.364,-0.08225626,0.057292465,0.25112483,-0.3585927,-0.0075960592,-0.35120526,0.0,0.0,0.0,0.2870420515537262,0.2870420515537262,link6
1762899504.07107,ddpg_train,FAR,train,1,4,-8.35969006891348,0,5,0,0.246,-0.015,1.363,-0.21438424,0.09528581,0.19933417,-0.29842937,0.014028742,-0.43316507,0.0,0.0,0.0,0.46238890290260315,0.46238890290260315,link6
1762899505.4462745,ddpg_train,FAR,train,1,5,-8.43239183512432,0,6,0,0.068,0.046,1.392,0.1576667,0.06157635,-0.02386616,-0.22654878,0.13521668,-0.029753488,0.0,0.0,0.0,0.43293797969818115,0.43293797969818115,link6
1762899506.8218272,ddpg_train,FAR,train,1,6,-8.404985137073949,0,7,0,0.061,0.047,1.392,0.15193067,0.05076126,-0.023707518,-0.11255337,0.15444973,-0.019913716,0.0,0.0,0.0,0.4822959899902344,0.4822959899902344,link6
1762899508.1990383,ddpg_train,FAR,train,1,7,-8.4695602550668,0,8,0,0.026,0.042,1.393,0.09718403,0.020163935,-0.022123877,-0.0073973443,0.18093738,-0.065279506,0.0,0.0,0.0,0.38508614897727966,0.38508614897727966,link6
1762899509.575198,ddpg_train,FAR,train,1,8,-8.458921747450047,0,9,0,0.138,0.043,1.381,0.053152643,0.048944104,0.07531807,-0.10043976,0.27495125,-0.34259507,0.0,0.0,0.0,0.3667832911014557,0.3667832911014557,link6
1762899510.9544353,ddpg_train,FAR,train,1,9,-9.196398056390741,0,10,0,0.221,0.038,1.361,0.0025986321,0.051484704,0.22770269,-0.13134107,0.24657291,-0.42731217,0.0,0.0,0.0,0.16924946010112762,0.16924946010112762,link6
1762899512.3310301,ddpg_train,FAR,train,1,10,-8.363535951682904,0,11,0,0.081,0.027,1.38,-0.074226476,-0.06783357,0.19307393,-0.21002078,0.25501183,-0.3308227,0.0,0.0,0.0,0.4302058815956116,0.4302058815956116,link6
1762899513.7091808,ddpg_train,FAR,train,1,11,-8.370849987343226,0,12,0,-0.124,0.052,1.388,-0.08551174,-0.079745285,-0.04932257,-0.2948129,-0.060444977,-0.18750705,0.0,0.0,0.0,0.7165637016296387,0.7165637016296387,link6
1762899515.0828643,ddpg_train,FAR,train,1,12,-8.323138860265505,0,13,0,-0.235,0.06,1.364,-0.054972455,-0.10865637,-0.125084,-0.24623267,-0.23868324,-0.0961282,0.0,0.0,0.0,0.6140875220298767,0.6140875220298767,link6
1762899516.4632263,ddpg_train,FAR,train,1,13,-8.366456187201022,0,14,0,-0.148,0.027,1.385,0.08894426,-0.08782816,-0.04917585,-0.1289012,-0.0724204,0.17135602,0.0,0.0,0.0,0.6492286920547485,0.6492286920547485,link6
1762899517.8399024,ddpg_train,FAR,train,1,14,-8.360525131188906,0,15,0,-0.137,0.027,1.384,0.12286043,-0.09225568,0.02906475,-0.104592316,-0.29437754,0.12817743,0.0,0.0,0.0,0.5852211117744446,0.5852211117744446,link6
1762899519.2162395,ddpg_train,FAR,train,1,15,-8.317958966606355,0,16,0,-0.106,0.026,1.381,0.16170523,-0.08442462,0.08171555,-0.06254354,-0.43432733,0.13223056,0.0,0.0,0.0,0.6705247759819031,0.6705247759819031,link6
1762899520.6048148,ddpg_train,FAR,train,1,16,-8.3606313291703,0,17,0,-0.07,0.019,1.388,0.25732836,-0.09309779,0.14227425,0.079331644,-0.30795732,0.3711914,0.0,0.0,0.0,0.545998752117157,0.545998752117157,link6
1762899521.9790044,ddpg_train,FAR,train,1,17,-8.356016363813653,0,18,0,-0.051,0.027,1.388,0.16640027,-0.083074555,0.14518665,0.11034278,-0.32229844,0.5489771,0.0,0.0,0.0,0.548117995262146,0.548117995262146,link6
1762899523.3693554,ddpg_train,FAR,train,1,18,-8.380209476509515,0,19,0,-0.042,0.035,1.392,-0.028292922,-0.05032836,0.06704556,0.19389874,-0.21161474,0.54677606,0.0,0.0,0.0,0.54366534948349,0.54366534948349,link6
1762899524.7598712,ddpg_train,FAR,train,1,19,-8.447600271213368,0,20,0,0.132,0.029,1.366,0.012962672,-0.013026,0.34204882,0.1885246,-0.5255019,0.33326307,0.0,0.0,0.0,0.31625688076019287,0.31625688076019287,link6
1762899528.4001677,ddpg_train,FAR,train,2,0,-8.55627456835521,0,21,0,0.016,0.04,1.395,0.033276413,0.006855231,0.02938007,-0.008962793,-0.064023614,0.03506915,0.0,0.0,0.0,0.3311626613140106,0.3311626613140106,link6
1762899529.7832208,ddpg_train,FAR,train,2,1,-8.336946708635702,0,22,0,0.163,0.15,1.351,0.55494773,0.06634353,0.33091637,-0.057528283,-0.57871854,0.112964705,0.0,0.0,0.0,0.370738685131073,0.370738685131073,link6
1762899531.1710536,ddpg_train,FAR,train,2,2,-8.96790750077534,0,23,0,0.263,0.194,1.316,0.5068433,0.096763,0.45950267,-0.0016432522,-0.5429112,-0.104752146,0.0,0.0,0.0,0.17932724952697754,0.17932724952697754,link6
1762899532.544606,ddpg_train,FAR,train,2,3,-8.667017515155047,0,24,0,0.306,0.094,1.29,0.24517497,0.067868955,0.5592972,0.2539316,-0.84137297,-0.15671113,0.0,0.0,0.0,0.1977216601371765,0.1977216601371765,link6
1762899533.9205544,ddpg_train,FAR,train,2,4,-8.721196710527018,0,25,0,0.364,0.111,1.273,0.20929812,0.08799085,0.5961707,0.08044789,-0.7123295,-0.12941414,0.0,0.0,0.0,0.189816415309906,0.189816415309906,link6
1762899535.2949204,ddpg_train,FAR,train,2,5,-8.227428410997295,0,26,0,0.373,0.121,1.276,0.22629918,0.098589234,0.5762226,0.05291467,-0.6040845,-0.11568328,0.0,0.0,0.0,0.31324440240859985,0.31324440240859985,link6
1762899536.6753995,ddpg_train,FAR,train,2,6,-8.612935450195241,0,27,0,0.275,0.126,1.319,0.29912364,-0.0036252267,0.50189567,-0.10914697,-0.039359003,-0.2523254,0.0,0.0,0.0,0.23156952857971191,0.23156952857971191,link6
1762899538.0696294,ddpg_train,FAR,train,2,7,-8.521716250514878,0,28,0,0.306,0.093,1.318,0.16089192,0.022883011,0.45334285,-0.1905565,0.026445929,-0.26178044,0.0,0.0,0.0,0.2565958499908447,0.2565958499908447,link6
1762899539.4617116,ddpg_train,FAR,train,2,8,-8.389607665348194,0,29,0,0.299,0.091,1.324,0.19447428,0.034138452,0.4358143,-0.26873007,0.03575738,-0.3121406,0.0,0.0,0.0,0.3091036081314087,0.3091036081314087,link6
1762899540.8387313,ddpg_train,FAR,train,2,9,-8.404643554788157,0,30,0,0.153,0.095,1.368,0.37395886,-0.00808166,0.26015308,-0.41460165,0.15491387,-0.3497009,0.0,0.0,0.0,0.3682325780391693,0.3682325780391693,link6
1762899542.212155,ddpg_train,FAR,train,2,10,-8.848616696720697,0,31,0,0.25,0.111,1.335,0.30507153,0.018306572,0.36792502,-0.29452184,0.26905274,-0.32979724,0.0,0.0,0.0,0.2006625086069107,0.2006625086069107,link6
1762899543.5957644,ddpg_train,FAR,train,2,11,-8.281003731745242,0,32,0,0.351,0.13,1.289,0.2710814,0.05551426,0.4556803,-0.18038921,0.30351257,-0.33223438,0.0,0.0,0.0,0.30898982286453247,0.30898982286453247,link6
1762899545.0298214,ddpg_train,FAR,train,2,12,-8.422091109793136,0,33,1,0.108,0.085,1.385,0.37499148,0.042175945,0.116554074,0.057300214,0.03573795,-0.5814476,0.0,0.0,0.0,0.4250625967979431,0.4250625967979431,link6
1762899546.4091876,ddpg_train,FAR,train,2,13,-8.414021023147187,0,34,1,0.081,0.071,1.39,0.34400663,0.041042987,0.09030026,0.09615509,-0.08133129,-0.5161705,0.0,0.0,0.0,0.46250012516975403,0.46250012516975403,link6
1762899547.7902663,ddpg_train,FAR,train,2,14,-8.315750426142014,0,35,1,-0.001,0.036,1.38,0.12282842,0.04334214,0.025316603,0.048273962,-0.5412398,-0.1297689,0.0,0.0,0.0,0.5022768378257751,0.5022768378257751,link6
1762899549.1747239,ddpg_train,FAR,train,2,15,-8.331045687249013,0,36,1,-0.029,0.042,1.384,0.17272587,0.054131843,-0.062329546,-0.14538665,-0.39367333,-0.07642741,0.0,0.0,0.0,0.5453758835792542,0.5453758835792542,link6
1762899550.567624,ddpg_train,FAR,train,2,16,-8.331067687081918,0,37,1,-0.064,0.037,1.385,0.21069925,0.034992352,-0.096499965,-0.25315917,-0.31974527,-0.056002498,0.0,0.0,0.0,0.6293807029724121,0.6293807029724121,link6
1762899551.9440835,ddpg_train,FAR,train,2,17,-8.220403500435484,0,38,1,-0.311,0.014,1.334,0.08203017,-0.06931027,-0.36173907,-0.1994107,-0.060427845,-0.102078274,0.0,0.0,0.0,0.8225576281547546,0.8225576281547546,link6
1762899553.3218954,ddpg_train,FAR,train,2,18,-8.083089547749355,0,39,1,-0.417,0.048,1.28,-0.0092989,-0.10011397,-0.47940305,-0.3964867,-0.11962389,-0.12584077,0.0,0.0,0.0,0.8903210759162903,0.8903210759162903,link6
1762899554.702032,ddpg_train,FAR,train,2,19,-8.024708375485607,0,40,1,-0.445,0.093,1.257,-0.09206843,-0.11247979,-0.50489354,-0.545518,-0.22117454,-0.11389097,0.0,0.0,0.0,0.6989642381668091,0.6989642381668091,link6
1762899558.3452573,ddpg_train,FAR,train,3,0,-8.280682261712645,0,41,1,-0.04,0.068,1.374,-0.11837822,0.056306243,-0.08774218,-0.38893646,-0.5541294,-0.0533901,0.0,0.0,0.0,0.5377190709114075,0.5377190709114075,link6
1762899559.7332888,ddpg_train,FAR,train,3,1,-8.070819779989803,0,42,1,-0.037,0.106,1.339,-0.190507,0.10866829,-0.18293619,-0.6351805,-0.8815733,-0.12645763,0.0,0.0,0.0,0.6362178325653076,0.6362178325653076,link6
1762899561.1165912,ddpg_train,FAR,train,3,2,-8.120567497043094,0,43,1,-0.197,0.107,1.334,-0.2275198,0.059519462,-0.4037607,-0.44715166,-0.3766737,-0.23376918,0.0,0.0,0.0,0.7051524519920349,0.7051524519920349,link6
1762899562.5243475,ddpg_train,FAR,train,3,3,-8.133769609388263,0,44,1,-0.21,0.092,1.335,-0.12037935,0.039626118,-0.34996644,-0.46773142,-0.47096846,-0.18718842,0.0,0.0,0.0,0.6644375920295715,0.6644375920295715,link6
1762899563.9018962,ddpg_train,FAR,train,3,4,-8.126941378193859,0,45,1,-0.165,0.029,1.343,0.25607783,-0.07287132,0.041021306,-0.31835935,-0.9034172,-0.15479486,0.0,0.0,0.0,0.6647019982337952,0.6647019982337952,link6
1762899565.297853,ddpg_train,FAR,train,3,5,-8.103534076564122,0,46,1,-0.238,-0.005,1.329,0.32574323,-0.14264944,0.0447711,-0.31967938,-0.92376065,-0.13673206,0.0,0.0,0.0,0.7552868127822876,0.7552868127822876,link6
1762899566.674565,ddpg_train,FAR,train,3,6,-8.084649367204578,0,47,1,-0.292,-0.05,1.314,0.3989794,-0.18040396,0.019982217,-0.29207045,-0.92107135,-0.22854252,0.0,0.0,0.0,0.7502506375312805,0.7502506375312805,link6
1762899568.06352,ddpg_train,FAR,train,3,7,-8.059654141731047,0,48,1,-0.179,-0.029,1.33,0.49896023,-0.12184158,0.12749891,-0.19943932,-1.043743,-0.13387497,0.0,0.0,0.0,0.6754907965660095,0.6754907965660095,link6
1762899569.4461875,ddpg_train,FAR,train,3,8,-8.175896326026844,0,49,1,-0.166,-0.015,1.351,0.5913039,-0.103978164,0.09740847,-0.46700817,-0.81379795,-0.45291835,0.0,0.0,0.0,0.638427734375,0.638427734375,link6
1762899570.8437216,ddpg_train,FAR,train,3,9,-8.25023515157135,0,50,1,-0.137,0.009,1.366,0.54437006,-0.09430801,0.10587457,-0.55707616,-0.6645437,-0.6475966,0.0,0.0,0.0,0.595679759979248,0.595679759979248,link6
1762899572.2246735,ddpg_train,FAR,train,3,10,-8.31541874487148,0,51,1,-0.066,0.03,1.381,0.25619814,-0.0697681,0.13499206,-0.107860714,-0.49255225,-0.7834464,0.0,0.0,0.0,0.5626333355903625,0.5626333355903625,link6
1762899573.6142147,ddpg_train,FAR,train,3,11,-8.297104823272688,0,52,1,-0.011,0.042,1.374,-0.02850609,-0.055153873,0.20724733,-0.035423327,-0.6354041,-0.6693561,0.0,0.0,0.0,0.46255743503570557,0.46255743503570557,link6
1762899575.0151103,ddpg_train,FAR,train,3,12,-8.225041326408473,0,53,1,0.044,0.027,1.363,-0.30868992,-0.043392446,0.27968603,-0.0034708916,-0.7689426,-0.5578184,0.0,0.0,0.0,0.479929655790329,0.479929655790329,link6
1762899576.4279757,ddpg_train,FAR,train,3,13,-8.193576007968984,0,54,1,-0.104,0.094,1.357,-0.4447359,-0.06670673,0.037008345,-0.0013083562,-0.7685708,-0.5712968,0.0,0.0,0.0,0.640752911567688,0.640752911567688,link6
1762899577.8775954,ddpg_train,FAR,train,3,14,-8.213702921404193,0,55,1,-0.159,0.108,1.354,-0.33443993,-0.09734209,0.011478178,-0.115282446,-0.6892294,-0.49791417,0.0,0.0,0.0,0.6406524777412415,0.6406524777412415,link6
1762899579.2643461,ddpg_train,FAR,train,3,15,-8.340501850842628,0,56,1,-0.083,0.055,1.384,0.067429945,-0.0779763,0.090347104,-0.4516204,-0.39537525,0.028613463,0.0,0.0,0.0,0.5806499719619751,0.5806499719619751,link6
1762899580.643913,ddpg_train,FAR,train,3,16,-8.562682639259917,0,57,1,0.075,0.048,1.387,-9.942965e-05,-0.027523488,0.20765695,-0.59065837,-0.09533495,-0.037424553,0.0,0.0,0.0,0.3107556700706482,0.3107556700706482,link6
1762899582.040979,ddpg_train,FAR,train,3,17,-8.327044558346056,0,58,1,0.202,0.043,1.367,0.021214174,0.026658837,0.26855934,-0.7019953,-0.026968248,-0.06560517,0.0,0.0,0.0,0.5052489638328552,0.5052489638328552,link6
1762899583.4208095,ddpg_train,FAR,train,3,18,-8.341095339802884,0,59,1,0.056,0.103,1.375,0.07700588,0.014795161,0.12143727,-1.1279117,-0.5556608,0.1746489,0.0,0.0,0.0,0.4403690695762634,0.4403690695762634,link6
1762899584.8082402,ddpg_train,FAR,train,3,19,-8.514952630932298,0,60,1,0.167,0.107,1.35,0.020740582,0.006714517,0.33393914,-1.0527632,-0.6340284,0.27925843,0.0,0.0,0.0,0.27241748571395874,0.27241748571395874,link6
1762899588.4507997,ddpg_train,FAR,train,4,0,-8.094908462515917,0,61,1,0.023,0.118,1.336,0.042997725,-0.07576127,0.32327348,-0.8656337,-1.0503855,0.5248013,0.0,0.0,0.0,0.4677320420742035,0.4677320420742035,link6
1762899589.827551,ddpg_train,FAR,train,4,1,-7.8817901193639575,0,62,1,-0.04,0.133,1.305,0.19311775,-0.10052566,0.27714708,-0.9775712,-1.30677,0.6093606,0.0,0.0,0.0,0.6492677330970764,0.6492677330970764,link6
1762899591.2050414,ddpg_train,FAR,train,4,2,-7.801664011821197,0,63,1,-0.151,0.104,1.286,0.2864844,-0.13373624,0.17706026,-1.0248985,-1.42492,0.6130029,0.0,0.0,0.0,0.6484280228614807,0.6484280228614807,link6
1762899592.597255,ddpg_train,FAR,train,4,3,-7.889088591377543,0,64,1,-0.149,0.125,1.299,0.12960835,-0.18636492,0.2392276,-1.0681477,-1.2794178,0.43875235,0.0,0.0,0.0,0.6411257982254028,0.6411257982254028,link6
1762899593.9903314,ddpg_train,FAR,train,4,4,-7.893758760014738,0,65,1,-0.112,0.144,1.298,-0.008979475,-0.18160443,0.2718445,-1.0904981,-1.2957011,0.3986379,0.0,0.0,0.0,0.5142457485198975,0.5142457485198975,link6
1762899595.3718512,ddpg_train,FAR,train,4,5,-7.72078827489376,0,66,1,-0.12,0.2,1.264,-0.26542884,-0.25841296,0.23168972,-1.4647548,-1.4763925,0.67234933,0.0,0.0,0.0,0.6347559094429016,0.6347559094429016,link6
1762899596.7560358,ddpg_train,FAR,train,4,6,-7.656915408084936,0,67,1,-0.234,0.15,1.245,0.08005791,-0.29321048,0.18476333,-1.5238557,-1.5627775,0.5680897,0.0,0.0,0.0,0.7411959767341614,0.7411959767341614,link6
1762899598.1654441,ddpg_train,FAR,train,4,7,-7.613538241865918,0,68,1,-0.335,0.082,1.221,0.2526131,-0.33362246,0.09817093,-1.5630841,-1.6056689,0.537525,0.0,0.0,0.0,0.8635702729225159,0.8635702729225159,link6
1762899599.5612178,ddpg_train,FAR,train,4,8,-7.547570364579812,0,69,1,-0.345,-0.034,1.209,0.5833337,-0.32356653,0.029809942,-1.7485836,-1.701893,0.2688173,0.0,0.0,0.0,0.8298349976539612,0.8298349976539612,link6
1762899600.9374669,ddpg_train,FAR,train,4,9,-7.606449517519228,0,70,1,-0.411,-0.015,1.199,0.42925894,-0.37745458,-0.00969658,-1.7772144,-1.5905536,0.22462998,0.0,0.0,0.0,0.8519143462181091,0.8519143462181091,link6
1762899602.3333213,ddpg_train,FAR,train,4,10,-7.639897354974112,0,71,1,-0.447,0.052,1.191,0.24138863,-0.39615983,-0.07093098,-1.8153434,-1.5370709,0.19640501,0.0,0.0,0.0,0.8738342523574829,0.8738342523574829,link6
1762899603.712022,ddpg_train,FAR,train,4,11,-7.415945266897199,0,72,1,-0.3,0.221,1.178,-0.23514216,-0.3595408,-0.02801847,-1.9984597,-1.8808929,0.27605075,0.0,0.0,0.0,0.7491852641105652,0.7491852641105652,link6
1762899605.0943947,ddpg_train,FAR,train,4,12,-7.384641245413666,0,73,1,-0.284,0.24,1.172,-0.32219404,-0.384606,-0.016053472,-2.1178443,-1.9172392,0.4004053,0.0,0.0,0.0,0.6539360284805298,0.6539360284805298,link6
1762899606.4765737,ddpg_train,FAR,train,4,13,-7.380928088772555,0,74,1,-0.139,0.226,1.2,-0.41123298,-0.29420686,0.11589014,-1.8207252,-1.9378928,0.35801518,0.0,0.0,0.0,0.6566225290298462,0.6566225290298462,link6
1762899607.8624666,ddpg_train,FAR,train,4,14,-7.425299036816097,0,75,1,-0.2,0.173,1.208,-0.12203125,-0.33893412,0.16538708,-2.0047214,-1.8392516,0.41206932,0.0,0.0,0.0,0.6782633662223816,0.6782633662223816,link6
1762899609.2542374,ddpg_train,FAR,train,4,15,-7.429405314451716,0,76,1,-0.266,0.169,1.197,-0.09316443,-0.38025004,0.108442225,-2.0730345,-1.8368043,0.37262586,0.0,0.0,0.0,0.7538614869117737,0.7538614869117737,link6
1762899610.6457796,ddpg_train,FAR,train,4,16,-7.633983775769362,0,77,1,-0.162,0.186,1.247,-0.19806738,-0.25463197,0.051230527,-2.027281,-1.6151394,0.46363226,0.0,0.0,0.0,0.6568313837051392,0.6568313837051392,link6
1762899612.0339544,ddpg_train,FAR,train,4,17,-7.702256433551826,0,78,1,-0.224,0.196,1.248,-0.18662742,-0.28024566,-0.015455585,-2.0230799,-1.5170516,0.39176905,0.0,0.0,0.0,0.7072614431381226,0.7072614431381226,link6
1762899613.412611,ddpg_train,FAR,train,4,18,-7.753923227739356,0,79,1,-0.256,0.193,1.25,-0.15162687,-0.2966288,-0.02275757,-1.9944699,-1.4524907,0.35947442,0.0,0.0,0.0,0.6104149222373962,0.6104149222373962,link6
1762899614.7898128,ddpg_train,FAR,train,4,19,-7.4863841441055055,0,80,1,-0.131,0.134,1.232,0.07833285,-0.25713527,0.17716044,-2.1071517,-1.7663463,0.44867715,0.0,0.0,0.0,0.628064751625061,0.628064751625061,link6
1762899618.438927,ddpg_train,FAR,train,5,0,-8.389239165935107,0,81,1,-0.039,0.052,1.392,-0.11300044,-0.044594068,0.043594576,-0.4404755,-0.25964633,0.114490345,0.0,0.0,0.0,0.51800537109375,0.51800537109375,link6
1762899619.8243082,ddpg_train,FAR,train,5,1,-7.88907472226992,0,82,1,-0.116,0.199,1.293,-0.34211227,-0.21272057,0.020081928,-1.9865178,-1.2832631,0.32441345,0.0,0.0,0.0,0.6327316164970398,0.6327316164970398,link6
1762899621.224893,ddpg_train,FAR,train,5,2,-7.592933186218205,0,83,1,-0.209,0.144,1.239,-0.046787433,-0.31022498,0.053082064,-2.3414922,-1.6741676,0.27585268,0.0,0.0,0.0,0.6999298334121704,0.6999298334121704,link6
1762899622.6037023,ddpg_train,FAR,train,5,3,-7.323071280841959,0,84,1,-0.274,0.043,1.188,0.20516773,-0.40047842,0.08768822,-2.6284819,-1.9797356,0.22937818,0.0,0.0,0.0,0.7295355200767517,0.7295355200767517,link6
1762899623.9826095,ddpg_train,FAR,train,5,4,-7.136839736853773,0,85,1,-0.28,-0.06,1.154,0.40813246,-0.41194522,0.08114247,-2.9764054,-2.231359,0.3609599,0.0,0.0,0.0,0.7469049096107483,0.7469049096107483,link6
1762899625.3743887,ddpg_train,FAR,train,5,5,-6.991080547373991,0,86,1,-0.329,-0.116,1.111,0.4824545,-0.5091938,0.15995614,-3.06078,-2.4166737,0.24306262,0.0,0.0,0.0,0.708463728427887,0.708463728427887,link6
1762899626.7546766,ddpg_train,FAR,train,5,6,-6.5965920407556835,0,87,1,-0.154,-0.028,1.087,0.44783792,-0.48626113,0.6138747,-3.1101618,-2.6322978,0.2701244,0.0,0.0,0.0,0.6526354551315308,0.6526354551315308,link6
1762899628.1407459,ddpg_train,FAR,train,5,7,-6.431307245690748,0,88,1,-0.199,-0.012,1.052,0.26420033,-0.5858954,0.7497127,-3.0914664,-2.6966758,0.47638872,0.0,0.0,0.0,0.6576191782951355,0.6576191782951355,link6
1762899629.520045,ddpg_train,FAR,train,5,8,-6.295240679771499,0,89,1,-0.212,-0.022,1.025,0.30884156,-0.6399807,0.85705215,-3.0806234,-2.7971737,0.53164786,0.0,0.0,0.0,0.5900696516036987,0.5900696516036987,link6
1762899630.8976543,ddpg_train,FAR,train,5,9,-6.075373517681964,0,90,1,-0.073,-0.008,1.007,0.675354,-0.5165977,1.0979389,-3.1388834,-3.1096642,0.1321909,0.0,0.0,0.0,0.5664852857589722,0.5664852857589722,link6
1762899632.287376,ddpg_train,FAR,train,5,10,-5.741293952729637,0,91,1,-0.049,0.005,0.951,0.8256015,-0.5649617,1.3210808,-3.102637,-3.0885184,0.064362854,0.0,0.0,0.0,0.5197709202766418,0.5197709202766418,link6
1762899633.6672788,ddpg_train,FAR,train,5,11,-5.406943500241722,0,92,1,-0.022,0.038,0.894,0.9399382,-0.5716903,1.4969769,-3.0853806,-3.0293477,0.09490053,0.0,0.0,0.0,0.4920494854450226,0.4920494854450226,link6
1762899635.043175,ddpg_train,FAR,train,5,12,-5.308212985524589,0,93,1,-0.003,0.076,0.876,1.0617417,-0.5282383,1.4887878,-3.130927,-2.835557,0.16754703,0.0,0.0,0.0,0.5037845969200134,0.5037845969200134,link6
1762899636.4415247,ddpg_train,FAR,train,5,13,-5.178181180240636,0,94,1,-0.008,0.066,0.855,1.0407579,-0.56033444,1.568776,-3.107087,-2.9012778,0.24418521,0.0,0.0,0.0,0.50299471616745,0.50299471616745,link6
1762899637.838617,ddpg_train,FAR,train,5,14,-5.046376687982835,0,95,1,-0.006,0.068,0.833,1.0555569,-0.57560116,1.6247774,-3.1415107,-2.8617766,0.5689868,0.0,0.0,0.0,0.5063338279724121,0.5063338279724121,link6
1762899639.225444,ddpg_train,FAR,train,5,15,-4.869834732743669,0,96,1,-0.02,0.08,0.803,1.3190613,-0.58856755,1.667572,-3.1349716,-2.6777484,0.36493286,0.0,0.0,0.0,0.5240175724029541,0.5240175724029541,link6
1762899640.6134717,ddpg_train,FAR,train,5,16,-4.858080691259433,0,97,1,-0.029,0.08,0.801,1.3536191,-0.5928898,1.6541097,-3.0367062,-2.6310103,0.37086266,0.0,0.0,0.0,0.5296841263771057,0.5296841263771057,link6
1762899641.9943068,ddpg_train,FAR,train,5,17,-5.359398818064088,0,98,1,-0.041,0.09,0.884,1.5885904,-0.49542463,1.4322501,-3.1390417,-2.7026854,0.3898828,0.0,0.0,0.0,0.541222095489502,0.541222095489502,link6
1762899643.3742635,ddpg_train,FAR,train,5,18,-5.30540275601244,0,99,1,-0.059,0.077,0.876,1.8088273,-0.5104905,1.4455365,-3.1342034,-2.652489,0.59771985,0.0,0.0,0.0,0.5667937397956848,0.5667937397956848,link6
1762899644.7825913,ddpg_train,FAR,train,5,19,-5.310969793588255,0,100,1,-0.062,0.055,0.878,1.9102815,-0.5361965,1.4474027,-3.1216855,-2.6390998,0.7206893,0.0,0.0,0.0,0.5544143319129944,0.5544143319129944,link6
1762899648.4335191,ddpg_train,FAR,train,6,0,-8.034323711403491,0,101,1,-0.156,0.096,1.325,0.37195107,-0.23683901,0.24602985,-1.7183024,-1.0699557,0.39311415,0.0,0.0,0.0,0.635198175907135,0.635198175907135,link6
1762899649.8359478,ddpg_train,FAR,train,6,1,-7.34895715310672,0,102,1,-0.14,0.05,1.212,0.6585182,-0.40346134,0.5170267,-2.4135413,-1.651137,0.5352877,0.0,0.0,0.0,0.5405528545379639,0.5405528545379639,link6
1762899651.219847,ddpg_train,FAR,train,6,2,-5.748912540807591,0,103,1,-0.047,0.12,0.946,1.4141927,-0.4533289,1.2327213,-2.8266551,-2.387867,0.73460317,0.0,0.0,0.0,0.5497576594352722,0.5497576594352722,link6
1762899652.6258583,ddpg_train,FAR,train,6,3,-5.2453200672509634,0,104,1,-0.06,0.113,0.862,1.593987,-0.5031089,1.472081,-2.8914225,-2.4947667,0.9149021,0.0,0.0,0.0,0.5704078674316406,0.5704078674316406,link6
1762899654.008748,ddpg_train,FAR,train,6,4,-4.803173161168731,0,105,1,-0.066,0.106,0.787,1.6856718,-0.5361635,1.6914074,-2.9225793,-2.6089208,1.0199095,0.0,0.0,0.0,0.5421310067176819,0.5421310067176819,link6
1762899655.3976705,ddpg_train,FAR,train,6,5,-4.530366811591223,0,106,1,-0.058,0.093,0.744,1.7579284,-0.5355322,1.871226,-3.108063,-2.969478,1.3038304,0.0,0.0,0.0,0.5616469979286194,0.5616469979286194,link6
1762899656.781839,ddpg_train,FAR,train,6,6,-4.256893602571337,0,107,1,-0.064,0.082,0.699,1.8442028,-0.55844367,2.0102525,-3.1257856,-2.9829347,1.4358253,0.0,0.0,0.0,0.5701178908348083,0.5701178908348083,link6
1762899658.1600792,ddpg_train,FAR,train,6,7,-4.433119628989517,0,108,1,-0.082,0.092,0.726,1.9735032,-0.50962996,1.9405024,-3.1414874,-3.0440192,1.4581319,0.0,0.0,0.0,0.5822227001190186,0.5822227001190186,link6
1762899659.5375764,ddpg_train,FAR,train,6,8,-3.990662498176097,0,109,1,-0.078,0.102,0.65,1.9106125,-0.49879166,2.156274,-3.1337976,-3.1203563,1.5458504,0.0,0.0,0.0,0.5789842009544373,0.5789842009544373,link6
1762899660.9157846,ddpg_train,FAR,train,6,9,-3.9647145999660904,0,110,1,-0.072,0.101,0.646,1.8647207,-0.5096014,2.167652,-3.1237168,-3.1415932,1.4979013,0.0,0.0,0.0,0.5631617903709412,0.5631617903709412,link6
1762899662.3060887,ddpg_train,FAR,train,6,10,-4.717378379413476,0,111,1,-0.062,0.086,0.776,1.79448,-0.52799225,1.833485,-2.770233,-3.0956886,1.0532192,0.0,0.0,0.0,0.5619863867759705,0.5619863867759705,link6
1762899663.688116,ddpg_train,FAR,train,6,11,-4.948355626055522,0,112,1,-0.065,0.059,0.817,1.9382439,-0.53642285,1.7132585,-2.8449461,-3.1276388,0.93136775,0.0,0.0,0.0,0.5619039535522461,0.5619039535522461,link6
1762899665.077963,ddpg_train,FAR,train,6,12,-5.027571539841285,0,113,1,-0.061,0.037,0.832,2.0233483,-0.5616463,1.714427,-2.8143637,-3.1416416,0.83104867,0.0,0.0,0.0,0.5669277310371399,0.5669277310371399,link6
1762899666.4751053,ddpg_train,FAR,train,6,13,-5.026563847740403,0,114,1,-0.049,0.038,0.832,1.8009654,-0.5782387,1.7057731,-2.736012,-3.1415975,0.7212861,0.0,0.0,0.0,0.5486148595809937,0.5486148595809937,link6
1762899667.885768,ddpg_train,FAR,train,6,14,-4.739598302333807,0,115,1,-0.048,0.041,0.784,1.7667544,-0.60693204,1.8412207,-2.7620044,-3.141624,0.52518296,0.0,0.0,0.0,0.5502923130989075,0.5502923130989075,link6
1762899669.2666967,ddpg_train,FAR,train,6,15,-4.621656945954138,0,116,1,-0.05,0.047,0.764,1.7683723,-0.6083475,1.8931112,-2.7840853,-3.133202,0.33768293,0.0,0.0,0.0,0.5562113523483276,0.5562113523483276,link6
1762899670.6477122,ddpg_train,FAR,train,6,16,-5.171696367326298,0,117,1,-0.052,-0.002,0.857,2.1629362,-0.590473,1.6099497,-2.6845894,-3.0592058,-0.068568386,0.0,0.0,0.0,0.551024854183197,0.551024854183197,link6
1762899672.0355153,ddpg_train,FAR,train,6,17,-4.952054720672303,0,118,1,-0.05,-0.006,0.821,2.285417,-0.61971146,1.7267743,-2.7989528,-3.0913603,-0.15886402,0.0,0.0,0.0,0.5696012377738953,0.5696012377738953,link6
1762899673.4224083,ddpg_train,FAR,train,6,18,-4.576268308625542,0,119,1,-0.089,0.017,0.755,2.504884,-0.5652812,1.9106165,-2.939517,-3.1415932,-0.8163078,0.0,0.0,0.0,0.5895251631736755,0.5895251631736755,link6
1762899674.8061922,ddpg_train,FAR,train,6,19,-4.24537509101323,0,120,1,-0.086,0.01,0.7,2.5565042,-0.5901733,2.0588999,-2.7893622,-3.1416028,-0.9042258,0.0,0.0,0.0,0.5924081802368164,0.5924081802368164,link6
1762899678.4510772,ddpg_train,FAR,train,7,0,-6.227285214099063,0,121,1,-0.092,-0.056,1.03,1.06737,-0.52734804,0.9645143,-2.6270823,-2.9711065,-0.6931819,0.0,0.0,0.0,0.590781033039093,0.590781033039093,link6
1762899679.7869914,ddpg_train,FAR,train,7,1,-4.624160690250258,0,122,1,-0.069,0.025,0.765,2.2440808,-0.5985234,1.9057734,-2.9149475,-3.0992184,-1.0894582,0.0,0.0,0.0,0.5945535898208618,0.5945535898208618,link6
1762899681.1716793,ddpg_train,FAR,train,7,2,-3.46656100500364,0,123,1,-0.074,-0.018,0.57,2.8224251,-0.60858744,2.3701928,-2.9198291,-3.0194418,-1.2031702,0.0,0.0,0.0,0.5734052658081055,0.5734052658081055,link6
1762899682.5555034,ddpg_train,FAR,train,7,3,-2.7862028588548,0,124,1,-0.055,-0.051,0.455,3.141585,-0.57727444,2.5152032,-2.968898,-2.5749602,-0.964868,0.0,0.0,0.0,0.5554139018058777,0.5554139018058777,link6
1762899683.94882,ddpg_train,FAR,train,7,4,-2.8203858544777196,0,125,1,-0.045,-0.043,0.463,3.1414914,-0.5994149,2.5206604,-3.0802932,-2.6636288,-0.96482474,0.0,0.0,0.0,0.5660910606384277,0.5660910606384277,link6
1762899685.3355522,ddpg_train,FAR,train,7,5,-2.8321277344868663,0,126,1,-0.04,-0.04,0.466,3.1414042,-0.6131724,2.5291424,-3.1245124,-2.696178,-0.9567592,0.0,0.0,0.0,0.5769780278205872,0.5769780278205872,link6
1762899686.7167737,ddpg_train,FAR,train,7,6,-3.2152984665777438,0,127,1,-0.07,-0.041,0.527,3.1415634,-0.58080417,2.3895812,-3.1066608,-2.7992318,-0.4964619,0.0,0.0,0.0,0.5741184949874878,0.5741184949874878,link6
1762899688.0957005,ddpg_train,FAR,train,7,7,-3.17685215361299,0,128,1,-0.063,-0.051,0.521,3.1414275,-0.60328126,2.3821568,-2.8787408,-2.7282345,-0.52086043,0.0,0.0,0.0,0.5933403372764587,0.5933403372764587,link6
1762899689.4864457,ddpg_train,FAR,train,7,8,-3.2787619863837,0,129,1,-0.069,-0.06,0.536,3.1413443,-0.60762614,2.368009,-2.7117753,-2.7244477,-0.5932524,0.0,0.0,0.0,0.5725969672203064,0.5725969672203064,link6
1762899690.8701704,ddpg_train,FAR,train,7,9,-3.050790258154316,0,130,1,-0.049,-0.043,0.501,3.1415305,-0.58673126,2.5274715,-2.9265244,-2.9823089,-0.82846254,0.0,0.0,0.0,0.5549449920654297,0.5549449920654297,link6
1762899692.2528114,ddpg_train,FAR,train,7,10,-2.9207829433846357,0,131,1,-0.031,-0.041,0.481,3.1414363,-0.6132083,2.6055977,-2.9536061,-3.040984,-0.7969898,0.0,0.0,0.0,0.5607479214668274,0.5607479214668274,link6
1762899693.6323802,ddpg_train,FAR,train,7,11,-3.1866202918546627,0,132,1,-0.062,-0.039,0.523,3.1415915,-0.5704128,2.5139692,-2.7298875,-3.141593,-0.92763364,0.0,0.0,0.0,0.5627079606056213,0.5627079606056213,link6
1762899695.0154488,ddpg_train,FAR,train,7,12,-3.06614057578016,0,133,1,-0.067,-0.013,0.504,2.7037687,-0.56150126,2.5608053,-2.7378476,-3.1416035,-0.6939402,0.0,0.0,0.0,0.5840266346931458,0.5840266346931458,link6
1762899696.4006863,ddpg_train,FAR,train,7,13,-2.9663365337015084,0,134,1,-0.064,-0.006,0.488,2.5890152,-0.55538356,2.6098197,-2.792022,-3.1415746,-0.63314027,0.0,0.0,0.0,0.5948854684829712,0.5948854684829712,link6
1762899697.7521605,ddpg_train,FAR,train,7,14,-3.1675456633855035,0,135,1,-0.088,-0.014,0.518,2.8440769,-0.51517403,2.5190353,-3.1355205,-3.141593,-0.9597232,0.0,0.0,0.0,0.588556706905365,0.588556706905365,link6
1762899699.1355844,ddpg_train,FAR,train,7,15,-3.070498631524637,0,136,1,-0.073,-0.014,0.504,2.7696257,-0.5427919,2.553017,-3.0830257,-3.1416006,-1.0409958,0.0,0.0,0.0,0.5893348455429077,0.5893348455429077,link6
1762899700.5184937,ddpg_train,FAR,train,7,16,-3.0312842400379805,0,137,1,-0.063,-0.018,0.498,2.7930446,-0.5712906,2.5883956,-3.0347943,-3.1415985,-1.1439766,0.0,0.0,0.0,0.565306544303894,0.565306544303894,link6
1762899701.9162047,ddpg_train,FAR,train,7,17,-3.372182250554665,0,138,1,-0.07,-0.034,0.554,3.0734122,-0.58381504,2.4235225,-2.6564455,-3.1415956,-1.7850274,0.0,0.0,0.0,0.5773246884346008,0.5773246884346008,link6
1762899703.2981699,ddpg_train,FAR,train,7,18,-3.3414017237490725,0,139,1,-0.059,-0.037,0.55,3.1119955,-0.6065317,2.44249,-2.7012117,-3.1416035,-1.9937185,0.0,0.0,0.0,0.5805657505989075,0.5805657505989075,link6
1762899704.6799688,ddpg_train,FAR,train,7,19,-3.4009442876539717,0,140,1,-0.062,-0.04,0.559,3.1413875,-0.6069768,2.4339652,-2.779001,-3.12897,-2.125524,0.0,0.0,0.0,0.5634966492652893,0.5634966492652893,link6
1762899708.3292897,ddpg_train,FAR,train,8,0,-7.735153507197049,0,141,1,-0.076,0.117,1.279,0.31741583,-0.29678744,0.657069,-1.0035799,-1.3985934,-0.64774525,0.0,0.0,0.0,0.5767888426780701,0.5767888426780701,link6
1762899709.7167003,ddpg_train,FAR,train,8,1,-5.710096242027145,0,142,1,-0.08,0.066,0.944,0.8003973,-0.5879147,1.3586094,-1.9056711,-2.5707672,-1.2461568,0.0,0.0,0.0,0.6030907034873962,0.6030907034873962,link6
1762899711.111305,ddpg_train,FAR,train,8,2,-3.297277043280176,0,143,1,-0.073,-0.029,0.541,2.9160457,-0.58701664,2.4385183,-2.7194948,-3.024396,-2.1048138,0.0,0.0,0.0,0.5669898986816406,0.5669898986816406,link6
1762899712.5209782,ddpg_train,FAR,train,8,3,-2.893007679603832,0,144,1,-0.038,-0.04,0.476,2.9571354,-0.61392283,2.588029,-2.8484163,-2.935409,-2.3517802,0.0,0.0,0.0,0.5633129477500916,0.5633129477500916,link6
1762899713.9052403,ddpg_train,FAR,train,8,4,-2.936209777019871,0,145,1,-0.06,-0.024,0.482,2.8798513,-0.5769237,2.5157034,-3.1402566,-2.8016505,-2.652962,0.0,0.0,0.0,0.5608444809913635,0.5608444809913635,link6
1762899715.2886238,ddpg_train,FAR,train,8,5,-2.880055429815554,0,146,1,-0.051,-0.023,0.474,2.7610373,-0.592621,2.5513754,-3.131766,-2.862132,-2.6931672,0.0,0.0,0.0,0.5725180506706238,0.5725180506706238,link6
1762899716.670207,ddpg_train,FAR,train,8,6,-2.991510079900329,0,147,1,-0.058,-0.017,0.493,2.7076445,-0.59649533,2.5128002,-3.1248407,-2.9147692,-2.7699692,0.0,0.0,0.0,0.6086762547492981,0.6086762547492981,link6
1762899718.0575018,ddpg_train,FAR,train,8,7,-3.528345164945276,0,148,1,-0.084,-0.026,0.579,2.9865162,-0.5772843,2.3227375,-3.1393752,-3.0051365,-2.9114053,0.0,0.0,0.0,0.584226131439209,0.584226131439209,link6
1762899719.4353282,ddpg_train,FAR,train,8,8,-3.242809482119644,0,149,1,-0.071,-0.024,0.533,2.8535635,-0.60194576,2.4044874,-3.0260162,-2.8663645,-3.0436704,0.0,0.0,0.0,0.5925763249397278,0.5925763249397278,link6
1762899720.8130949,ddpg_train,FAR,train,8,9,-3.082255406926428,0,150,1,-0.07,-0.022,0.506,2.725108,-0.60907245,2.4441288,-2.947506,-2.7543364,-3.141574,0.0,0.0,0.0,0.5843008160591125,0.5843008160591125,link6
1762899722.2180014,ddpg_train,FAR,train,8,10,-2.8989285743209425,0,151,1,-0.062,-0.015,0.476,2.6805131,-0.58432287,2.5241296,-3.0951324,-2.769065,-3.117371,0.0,0.0,0.0,0.5660853385925293,0.5660853385925293,link6
1762899723.5991144,ddpg_train,FAR,train,8,11,-2.835318816865785,0,152,1,-0.047,-0.026,0.467,2.735762,-0.6114179,2.5549698,-3.0311134,-2.8186495,-3.0397255,0.0,0.0,0.0,0.5819427967071533,0.5819427967071533,link6
1762899724.982569,ddpg_train,FAR,train,8,12,-4.067499487456738,0,153,1,-0.094,-0.015,0.669,2.8739457,-0.57592636,2.1053722,-3.1412446,-3.0659945,-2.8642507,0.0,0.0,0.0,0.5946812629699707,0.5946812629699707,link6
1762899726.3581924,ddpg_train,FAR,train,8,13,-3.99052355196814,0,154,1,-0.088,-0.008,0.657,2.758799,-0.5920144,2.1561127,-2.9135218,-3.1229045,-2.9942584,0.0,0.0,0.0,0.5949910283088684,0.5949910283088684,link6
1762899727.7531068,ddpg_train,FAR,train,8,14,-3.818907928052023,0,155,1,-0.081,-0.001,0.629,2.634061,-0.6091577,2.2533114,-2.8414886,-3.1415915,-2.9256995,0.0,0.0,0.0,0.589693009853363,0.589693009853363,link6
1762899729.134352,ddpg_train,FAR,train,8,15,-3.6657136711570875,0,156,1,-0.09,0.005,0.602,2.6352057,-0.5775437,2.2859702,-3.1308174,-3.0850651,-2.5683942,0.0,0.0,0.0,0.5918357372283936,0.5918357372283936,link6
1762899730.5276287,ddpg_train,FAR,train,8,16,-3.533948150165894,0,157,1,-0.082,0.009,0.581,2.5098417,-0.5992742,2.3018012,-3.0762453,-2.9460661,-2.7341404,0.0,0.0,0.0,0.5953338146209717,0.5953338146209717,link6
1762899731.906285,ddpg_train,FAR,train,8,17,-3.5218798621971055,0,158,1,-0.083,0.012,0.579,2.4597845,-0.6060556,2.2835057,-3.0291657,-2.863648,-2.8873923,0.0,0.0,0.0,0.6063726544380188,0.6063726544380188,link6
1762899733.2944226,ddpg_train,FAR,train,8,18,-3.8238461356099607,0,159,1,-0.095,0.008,0.628,2.6255882,-0.57246196,2.226908,-3.030668,-3.116724,-2.8245544,0.0,0.0,0.0,0.5977588295936584,0.5977588295936584,link6
1762899734.679617,ddpg_train,FAR,train,8,19,-3.610999743937034,0,160,1,-0.082,-0.007,0.594,2.713185,-0.59719473,2.3160005,-2.8852026,-3.0884533,-2.6227987,0.0,0.0,0.0,0.5955690145492554,0.5955690145492554,link6
1762899738.3386075,ddpg_train,FAR,train,9,0,-5.566682004279696,0,161,1,-0.099,0.086,0.916,1.6130316,-0.46339726,1.4651548,-1.5305444,-2.670478,-1.0312804,0.0,0.0,0.0,0.5833051800727844,0.5833051800727844,link6
1762899739.7232668,ddpg_train,FAR,train,9,1,-4.238899868341294,0,162,1,-0.124,0.026,0.693,2.4460967,-0.5335283,2.0610461,-1.9002322,-2.931267,-1.5932148,0.0,0.0,0.0,0.6033800840377808,0.6033800840377808,link6
1762899741.1083825,ddpg_train,FAR,train,9,2,-3.315734845716725,0,163,1,-0.08,-0.049,0.542,3.0677822,-0.5569055,2.4360538,-2.1509178,-2.992502,-2.0058587,0.0,0.0,0.0,0.5784104466438293,0.5784104466438293,link6
1762899742.4990616,ddpg_train,FAR,train,9,3,-3.1929718942185867,0,164,1,-0.06,-0.044,0.524,3.1392255,-0.5789324,2.4991076,-2.4738824,-3.0787408,-2.211134,0.0,0.0,0.0,0.5658690333366394,0.5658690333366394,link6
1762899743.882167,ddpg_train,FAR,train,9,4,-3.013612603995705,0,165,1,-0.047,-0.039,0.496,3.0438175,-0.59512395,2.5822506,-2.3986747,-3.0978763,-2.2916446,0.0,0.0,0.0,0.5800051689147949,0.5800051689147949,link6
1762899745.2668698,ddpg_train,FAR,train,9,5,-3.180692662999993,0,166,1,-0.062,-0.039,0.522,3.1407034,-0.57079,2.5145864,-2.0424814,-3.1415927,-2.513525,0.0,0.0,0.0,0.5626286864280701,0.5626286864280701,link6
1762899746.6505163,ddpg_train,FAR,train,9,6,-3.058766007435243,0,167,1,-0.05,-0.039,0.503,3.141458,-0.57892036,2.5653038,-1.736854,-3.141602,-2.7620153,0.0,0.0,0.0,0.5691156387329102,0.5691156387329102,link6
1762899748.0708046,ddpg_train,FAR,train,9,7,-2.982159259611226,0,168,1,-0.044,-0.038,0.491,3.1256008,-0.58538485,2.6081522,-1.6262823,-3.1415956,-2.8811862,0.0,0.0,0.0,0.577124297618866,0.577124297618866,link6
1762899749.4503567,ddpg_train,FAR,train,9,8,-3.1378826331129055,0,169,1,-0.09,-0.032,0.512,3.0594969,-0.48586777,2.5276432,-1.6832674,-3.141592,-2.8178806,0.0,0.0,0.0,0.5961598753929138,0.5961598753929138,link6
1762899750.8538997,ddpg_train,FAR,train,9,9,-3.0176961873296833,0,170,1,-0.074,-0.034,0.494,3.0669906,-0.5064373,2.5826685,-1.713615,-3.1415894,-2.756963,0.0,0.0,0.0,0.5900464653968811,0.5900464653968811,link6
1762899752.248406,ddpg_train,FAR,train,9,10,-3.0092986802051342,0,171,1,-0.065,-0.035,0.493,3.0830927,-0.53185725,2.5976787,-1.7097464,-3.1415925,-2.7647982,0.0,0.0,0.0,0.5609295964241028,0.5609295964241028,link6
1762899753.632173,ddpg_train,FAR,train,9,11,-3.122002987751231,0,172,1,-0.056,-0.038,0.513,3.0379248,-0.5904149,2.545428,-1.3914871,-3.1015399,-3.129962,0.0,0.0,0.0,0.5664471983909607,0.5664471983909607,link6
1762899755.0163496,ddpg_train,FAR,train,9,12,-3.0147186262276833,0,173,1,-0.051,-0.041,0.496,2.8070657,-0.6154962,2.6009796,-1.3198007,-3.0004957,-3.141582,0.0,0.0,0.0,0.5957553386688232,0.5957553386688232,link6
1762899756.3945992,ddpg_train,FAR,train,9,13,-3.3429209493024716,0,174,1,-0.106,0.002,0.545,2.418276,-0.5635729,2.513852,-0.84488356,-2.8121698,-3.141593,0.0,0.0,0.0,0.606412947177887,0.606412947177887,link6
1762899757.774917,ddpg_train,FAR,train,9,14,-3.2313213397298517,0,175,1,-0.088,-0.011,0.529,2.4904263,-0.590404,2.5549104,-0.7082536,-2.859467,-3.1014786,0.0,0.0,0.0,0.5950139760971069,0.5950139760971069,link6
1762899759.1534817,ddpg_train,FAR,train,9,15,-3.08595746760878,0,176,1,-0.065,-0.021,0.507,2.5764365,-0.6170313,2.6100059,-0.6332751,-2.9618773,-3.030606,0.0,0.0,0.0,0.5715520977973938,0.5715520977973938,link6
1762899760.5369596,ddpg_train,FAR,train,9,16,-3.1703225286271106,0,177,1,-0.069,-0.01,0.521,2.700967,-0.5780166,2.5181441,-0.84309006,-3.1415896,-2.8145185,0.0,0.0,0.0,0.5716482996940613,0.5716482996940613,link6
1762899761.9248548,ddpg_train,FAR,train,9,17,-3.0356848396669402,0,178,1,-0.055,-0.016,0.5,2.6843123,-0.59807426,2.5752974,-1.0653847,-3.1415448,-2.7912362,0.0,0.0,0.0,0.5740674138069153,0.5740674138069153,link6
1762899763.3138835,ddpg_train,FAR,train,9,18,-2.9792454829974515,0,179,1,-0.05,-0.017,0.491,2.6377335,-0.6109709,2.6088066,-1.156238,-3.1415024,-2.8576539,0.0,0.0,0.0,0.5728869438171387,0.5728869438171387,link6
1762899764.6984432,ddpg_train,FAR,train,9,19,-3.15103764030426,0,180,1,-0.068,0.001,0.518,2.5254729,-0.5825238,2.5287058,-0.96710855,-3.1415756,-3.1416008,0.0,0.0,0.0,0.5721964836120605,0.5721964836120605,link6
1762899768.352829,ddpg_train,FAR,train,10,0,-8.252842411095406,0,181,1,-0.157,0.076,1.364,-0.21821186,-0.09566341,0.008816376,-0.05064605,-0.6441544,-0.29942137,0.0,0.0,0.0,0.7730274200439453,0.7730274200439453,link6
1762899769.7549372,ddpg_train,FAR,train,10,1,-7.09748199877769,0,182,1,-0.259,0.141,1.145,-0.18629037,-0.39177907,0.42242748,-0.5787376,-2.3233619,-1.2575964,0.0,0.0,0.0,0.7325703501701355,0.7325703501701355,link6
1762899771.1356232,ddpg_train,FAR,train,10,2,-6.191593261472904,0,183,1,-0.096,-0.013,1.026,1.3641562,-0.5046524,1.2267892,-0.841074,-2.5416653,-1.9717274,0.0,0.0,0.0,0.6411519646644592,0.6411519646644592,link6
1762899772.5372581,ddpg_train,FAR,train,10,3,-4.517424319311023,0,184,1,-0.137,-0.016,0.738,2.6550856,-0.53200424,2.0189962,-1.0906699,-2.7883718,-2.5967488,0.0,0.0,0.0,0.5971603393554688,0.5971603393554688,link6
1762899773.9212615,ddpg_train,FAR,train,10,4,-3.368669876699506,0,185,1,-0.089,-0.013,0.552,2.7722363,-0.55388564,2.43489,-1.547797,-3.0979502,-2.5162268,0.0,0.0,0.0,0.5952973961830139,0.5952973961830139,link6
1762899775.315766,ddpg_train,FAR,train,10,5,-3.148487268196467,0,186,1,-0.077,-0.033,0.516,2.8895502,-0.55253094,2.5318065,-1.571893,-3.046871,-2.6330745,0.0,0.0,0.0,0.6036434769630432,0.6036434769630432,link6
1762899776.6979547,ddpg_train,FAR,train,10,6,-3.5388887172544936,0,187,1,-0.108,-0.047,0.576,2.9820526,-0.5276615,2.3811533,-1.2241397,-2.9328487,-3.08044,0.0,0.0,0.0,0.6085911989212036,0.6085911989212036,link6
1762899778.0792546,ddpg_train,FAR,train,10,7,-3.4427068639819978,0,188,1,-0.098,-0.053,0.561,2.8882828,-0.5686122,2.4301925,-1.2635134,-2.8259385,-3.0178466,0.0,0.0,0.0,0.6122109889984131,0.6122109889984131,link6
1762899779.4573736,ddpg_train,FAR,train,10,8,-3.371921277642246,0,189,1,-0.086,-0.059,0.55,2.8861964,-0.60145086,2.4719412,-1.2730247,-2.8017604,-2.9429488,0.0,0.0,0.0,0.5943350195884705,0.5943350195884705,link6
1762899780.8452091,ddpg_train,FAR,train,10,9,-3.414304475498042,0,190,1,-0.084,-0.078,0.555,3.0638106,-0.5808098,2.4205697,-1.5923765,-2.762746,-3.0800285,0.0,0.0,0.0,0.5876765847206116,0.5876765847206116,link6
1762899782.2307162,ddpg_train,FAR,train,10,10,-3.103165706213379,0,191,1,-0.058,-0.065,0.507,3.0019474,-0.60566247,2.5458016,-1.7307787,-2.8769796,-3.1226268,0.0,0.0,0.0,0.5708572864532471,0.5708572864532471,link6
1762899783.627918,ddpg_train,FAR,train,10,11,-2.994060648750238,0,192,1,-0.048,-0.055,0.491,2.9682,-0.6157481,2.5960257,-1.8064864,-2.9452653,-3.1415756,0.0,0.0,0.0,0.576490044593811,0.576490044593811,link6
1762899785.0120728,ddpg_train,FAR,train,10,12,-3.153229939556895,0,193,1,-0.085,-0.094,0.508,2.9816978,-0.5905893,2.5406137,-1.5071986,-2.558006,-3.1415854,0.0,0.0,0.0,0.6047987341880798,0.6047987341880798,link6
1762899786.395093,ddpg_train,FAR,train,10,13,-3.0834119974631196,0,194,1,-0.087,-0.094,0.496,2.8991854,-0.6158361,2.6029797,-1.3800151,-2.4997654,-3.1415668,0.0,0.0,0.0,0.6235895156860352,0.6235895156860352,link6
1762899787.8346376,ddpg_train,FAR,train,10,14,-3.4309683674694784,0,195,1,-0.141,-0.098,0.544,2.9250884,-0.576361,2.51421,-1.1441231,-2.2652938,-2.8869956,0.0,0.0,0.0,0.6409727931022644,0.6409727931022644,link6
1762899789.2436788,ddpg_train,FAR,train,10,15,-3.210910913271228,0,196,1,-0.106,-0.095,0.514,2.9087224,-0.6021542,2.5741036,-1.25599,-2.4295168,-2.6299117,0.0,0.0,0.0,0.6133923530578613,0.6133923530578613,link6
1762899790.6257567,ddpg_train,FAR,train,10,16,-3.1005548379932226,0,197,1,-0.081,-0.083,0.501,2.8801918,-0.6184267,2.6094413,-1.2913339,-2.6088798,-2.4516087,0.0,0.0,0.0,0.5804694890975952,0.5804694890975952,link6
1762899792.0058124,ddpg_train,FAR,train,10,17,-3.1827585675638326,0,198,1,-0.069,-0.015,0.523,2.7414775,-0.58292437,2.518606,-1.0824404,-3.1292977,-2.523084,0.0,0.0,0.0,0.5726804733276367,0.5726804733276367,link6
1762899793.3903327,ddpg_train,FAR,train,10,18,-3.2322093566499555,0,199,1,-0.069,-0.037,0.531,2.8068233,-0.60971284,2.5245204,-0.9703099,-2.946766,-2.502522,0.0,0.0,0.0,0.6052250862121582,0.6052250862121582,link6
1762899794.7677784,ddpg_train,FAR,train,10,19,-3.401518015513631,0,200,1,-0.089,-0.052,0.556,2.843086,-0.60961133,2.5040274,-0.88757545,-2.750486,-2.50628,0.0,0.0,0.0,0.6356956362724304,0.6356956362724304,link6
1762899798.4233665,ddpg_train,FAR,train,11,0,-8.019256039519036,0,201,1,-0.346,0.267,1.263,-0.58757704,-0.25408378,-0.14594392,-0.10678628,-0.91452926,-0.089894414,0.0,0.0,0.0,0.9467059969902039,0.9467059969902039,link6
1762899799.8034408,ddpg_train,FAR,train,11,1,-7.167219753310554,0,202,1,-0.428,0.643,0.911,-0.86348027,-0.6114867,-0.20126043,-0.19587207,-1.6658082,-0.24153925,0.0,0.0,0.0,0.8607564568519592,0.8607564568519592,link6
1762899801.2721908,ddpg_train,FAR,train,11,2,-6.360222562496736,0,203,1,-0.057,-0.082,1.052,1.5878208,-0.5919561,1.3581492,-0.16733284,-2.1865857,-1.0632064,0.0,0.0,0.0,0.5529178977012634,0.5529178977012634,link6
1762899802.6556458,ddpg_train,FAR,train,11,3,-5.356397026236871,0,204,1,-0.087,0.016,0.887,2.1732893,-0.5976827,1.8474706,-0.3074987,-2.3268762,-1.4683299,0.0,0.0,0.0,0.6438140273094177,0.6438140273094177,link6
1762899804.0361202,ddpg_train,FAR,train,11,4,-3.8482753631252855,0,205,1,-0.151,-0.051,0.62,2.9535012,-0.553598,2.4234078,-0.46411812,-2.3470604,-2.508234,0.0,0.0,0.0,0.6525408029556274,0.6525408029556274,link6
1762899805.417724,ddpg_train,FAR,train,11,5,-3.8313721919163797,0,206,1,-0.13,-0.084,0.618,3.0730443,-0.5631389,2.3880963,-0.7431959,-2.4380147,-2.8374987,0.0,0.0,0.0,0.6336836218833923,0.6336836218833923,link6
1762899806.818339,ddpg_train,FAR,train,11,6,-3.729883723759763,0,207,1,-0.114,-0.094,0.602,3.141242,-0.5525869,2.3913424,-0.951802,-2.5719728,-3.036407,0.0,0.0,0.0,0.6149067878723145,0.6149067878723145,link6
1762899808.1977315,ddpg_train,FAR,train,11,7,-3.7966546038397953,0,208,1,-0.094,-0.083,0.618,3.141529,-0.57256716,2.2624004,-1.4848112,-2.7756147,-3.1376028,0.0,0.0,0.0,0.5945373773574829,0.5945373773574829,link6
1762899809.5760922,ddpg_train,FAR,train,11,8,-3.7569212429140806,0,209,1,-0.08,-0.085,0.613,3.1413164,-0.6044046,2.2535474,-1.7488059,-2.7587762,-3.1415844,0.0,0.0,0.0,0.5965040326118469,0.5965040326118469,link6
1762899810.9570296,ddpg_train,FAR,train,11,9,-3.807817539315712,0,210,1,-0.084,-0.08,0.622,3.1170588,-0.60488194,2.2145715,-1.9656733,-2.7564704,-3.1415806,0.0,0.0,0.0,0.6077290177345276,0.6077290177345276,link6
1762899812.3340333,ddpg_train,FAR,train,11,10,-3.532642600067124,0,211,1,-0.096,-0.067,0.575,2.9358861,-0.58812404,2.3412158,-1.8085326,-2.7500656,-3.1415877,0.0,0.0,0.0,0.6043661236763,0.6043661236763,link6
1762899813.7290568,ddpg_train,FAR,train,11,11,-3.294293639684837,0,212,1,-0.078,-0.059,0.538,2.885389,-0.60521317,2.4496195,-1.8864464,-2.8431618,-3.141578,0.0,0.0,0.0,0.5922631621360779,0.5922631621360779,link6
1762899815.119061,ddpg_train,FAR,train,11,12,-3.800077617751181,0,213,1,-0.094,-0.012,0.624,2.8093097,-0.57651365,2.2415388,-2.2569675,-3.1118631,-3.1415927,0.0,0.0,0.0,0.5940723419189453,0.5940723419189453,link6
1762899816.5172393,ddpg_train,FAR,train,11,13,-3.711668310240946,0,214,1,-0.098,0.003,0.609,2.6848109,-0.555153,2.275094,-2.3136585,-3.1334393,-3.1357808,0.0,0.0,0.0,0.6154777407646179,0.6154777407646179,link6
1762899817.8963184,ddpg_train,FAR,train,11,14,-3.626304179096741,0,215,1,-0.1,-0.001,0.594,2.7629137,-0.5487321,2.3234136,-2.231897,-3.1415646,-3.030364,0.0,0.0,0.0,0.60201096534729,0.60201096534729,link6
1762899819.2830663,ddpg_train,FAR,train,11,15,-3.4255490309745307,0,216,1,-0.098,-0.039,0.559,3.1410937,-0.5095791,2.4036756,-2.0149035,-3.141594,-2.3433542,0.0,0.0,0.0,0.6002213954925537,0.6002213954925537,link6
1762899820.6635013,ddpg_train,FAR,train,11,16,-3.1246641768902825,0,217,1,-0.07,-0.039,0.512,3.1414375,-0.5331543,2.539459,-1.8870629,-3.1416035,-2.215328,0.0,0.0,0.0,0.5791385769844055,0.5791385769844055,link6
1762899822.059744,ddpg_train,FAR,train,11,17,-2.981402107647343,0,218,1,-0.058,-0.039,0.49,3.1413264,-0.53792137,2.6034536,-1.8171792,-3.1416044,-2.1512053,0.0,0.0,0.0,0.6062355637550354,0.6062355637550354,link6
1762899823.4476407,ddpg_train,FAR,train,11,18,-3.1439716170735323,0,219,1,-0.105,-0.039,0.51,3.1415539,-0.43575832,2.5175602,-1.8481438,-3.1415951,-2.2762825,0.0,0.0,0.0,0.6115602850914001,0.6115602850914001,link6
1762899824.8287954,ddpg_train,FAR,train,11,19,-3.002794232666406,0,220,1,-0.089,-0.039,0.489,3.1414473,-0.4453507,2.5823145,-1.7716404,-3.1415987,-2.336074,0.0,0.0,0.0,0.6081069111824036,0.6081069111824036,link6
1762899828.4806693,ddpg_train,FAR,train,12,0,-5.564679458674919,0,221,1,-0.165,0.053,0.91,2.53513,-0.36995754,1.5891194,-0.63544625,-2.86541,-1.1966281,0.0,0.0,0.0,0.6638015508651733,0.6638015508651733,link6
1762899829.8675714,ddpg_train,FAR,train,12,1,-3.8716892927170803,0,222,1,-0.146,-0.012,0.626,2.9666736,-0.45364404,2.2297273,-1.0760156,-3.1416142,-1.9437361,0.0,0.0,0.0,0.5862786769866943,0.5862786769866943,link6
1762899831.2514935,ddpg_train,FAR,train,12,2,-3.021970300403675,0,223,1,-0.065,-0.039,0.495,3.1413574,-0.5281054,2.589043,-1.4125215,-3.1415825,-2.5696337,0.0,0.0,0.0,0.5663723945617676,0.5663723945617676,link6
1762899832.6329944,ddpg_train,FAR,train,12,3,-3.2418449905303803,0,224,1,-0.068,-0.04,0.532,3.1414652,-0.5632185,2.4867074,-1.3717049,-3.1323612,-3.105777,0.0,0.0,0.0,0.5813277363777161,0.5813277363777161,link6
1762899834.0374207,ddpg_train,FAR,train,12,4,-3.204932794235355,0,225,1,-0.057,-0.04,0.527,3.141273,-0.59055275,2.5028493,-1.3522679,-3.134512,-3.141574,0.0,0.0,0.0,0.577966034412384,0.577966034412384,link6
1762899835.4271436,ddpg_train,FAR,train,12,5,-3.1741687926644513,0,226,1,-0.087,-0.039,0.518,3.1415794,-0.49506667,2.5148966,-1.4995683,-3.141593,-2.9138694,0.0,0.0,0.0,0.5880820155143738,0.5880820155143738,link6
1762899836.8273156,ddpg_train,FAR,train,12,6,-3.059782336320727,0,227,1,-0.072,-0.039,0.501,3.1414258,-0.5131163,2.5636387,-1.4615939,-3.1415875,-3.0638616,0.0,0.0,0.0,0.5885502696037292,0.5885502696037292,link6
1762899838.2094066,ddpg_train,FAR,train,12,7,-3.000337875137508,0,228,1,-0.064,-0.039,0.492,3.1413162,-0.5259121,2.5968451,-1.4340109,-3.1415825,-3.1322339,0.0,0.0,0.0,0.5858032703399658,0.5858032703399658,link6
1762899839.6043737,ddpg_train,FAR,train,12,8,-3.1578096860392666,0,229,1,-0.064,-0.039,0.518,3.1415503,-0.56111276,2.5267794,-1.3972937,-3.1415908,-3.1386693,0.0,0.0,0.0,0.5658009052276611,0.5658009052276611,link6
1762899840.985776,ddpg_train,FAR,train,12,9,-3.0741905380253183,0,230,1,-0.045,-0.039,0.506,3.1413112,-0.6016662,2.5644805,-1.5274928,-3.1415899,-3.0875013,0.0,0.0,0.0,0.567001223564148,0.567001223564148,link6
1762899842.369884,ddpg_train,FAR,train,12,10,-3.0856831155762574,0,231,1,-0.042,-0.039,0.508,3.1413047,-0.61372924,2.56182,-1.647499,-3.1416037,-3.0535145,0.0,0.0,0.0,0.5607843995094299,0.5607843995094299,link6
1762899843.7530622,ddpg_train,FAR,train,12,11,-3.5529222319123828,0,232,1,-0.072,-0.039,0.584,3.141504,-0.58787304,2.3391356,-1.9282653,-3.1415956,-2.9492517,0.0,0.0,0.0,0.583299994468689,0.583299994468689,link6
1762899845.1366055,ddpg_train,FAR,train,12,12,-3.535844857967634,0,233,1,-0.065,-0.039,0.582,3.1413307,-0.60823804,2.3581865,-1.9848442,-3.1416066,-2.9199593,0.0,0.0,0.0,0.5853383541107178,0.5853383541107178,link6
1762899846.5152314,ddpg_train,FAR,train,12,13,-3.1860482866235538,0,234,1,-0.071,-0.039,0.522,3.1415915,-0.54496706,2.5137918,-2.2155414,-3.141593,-2.9253201,0.0,0.0,0.0,0.5710203051567078,0.5710203051567078,link6
1762899847.9016426,ddpg_train,FAR,train,12,14,-3.0848771858976587,0,235,1,-0.052,-0.039,0.507,3.141512,-0.5805675,2.5547159,-2.073524,-3.1416023,-2.9127507,0.0,0.0,0.0,0.5627984404563904,0.5627984404563904,link6
1762899849.2883813,ddpg_train,FAR,train,12,15,-3.2108837362645692,0,236,1,-0.05,-0.039,0.529,3.1413429,-0.613403,2.5043805,-1.9897964,-3.141611,-2.8921204,0.0,0.0,0.0,0.5866654515266418,0.5866654515266418,link6
1762899850.670766,ddpg_train,FAR,train,12,16,-4.098289536397446,0,237,1,-0.096,-0.039,0.673,3.1415765,-0.5560189,2.1203568,-1.4726607,-3.1415935,-2.605884,0.0,0.0,0.0,0.5974956750869751,0.5974956750869751,link6
1762899852.0572488,ddpg_train,FAR,train,12,17,-3.5673499752913513,0,238,1,-0.074,-0.039,0.586,3.1413906,-0.5862644,2.3577971,-1.253517,-3.1416006,-2.575167,0.0,0.0,0.0,0.5762909054756165,0.5762909054756165,link6
1762899853.448034,ddpg_train,FAR,train,12,18,-3.2851498835894932,0,239,1,-0.053,-0.039,0.541,3.14122,-0.6139425,2.4735584,-1.1176549,-3.1416013,-2.5697398,0.0,0.0,0.0,0.5794126391410828,0.5794126391410828,link6
1762899854.8336434,ddpg_train,FAR,train,12,19,-3.530749461735577,0,240,1,-0.08,-0.026,0.58,2.9731708,-0.58199155,2.3629851,-1.0576415,-3.1415951,-2.6385221,0.0,0.0,0.0,0.5854145288467407,0.5854145288467407,link6
1762899858.4884613,ddpg_train,FAR,train,13,0,-8.26992517245106,0,241,1,-0.175,0.055,1.366,-0.11194658,-0.08741945,-0.027073601,0.066667505,-0.50661564,-0.060234196,0.0,0.0,0.0,0.9557125568389893,0.9557125568389893,link6
1762899859.8737786,ddpg_train,FAR,train,13,1,-7.276988588327713,0,242,1,-0.405,0.285,1.107,-0.5875635,-0.35733402,-0.043537594,0.21471554,-1.8973516,-0.44278455,0.0,0.0,0.0,0.8954418897628784,0.8954418897628784,link6
1762899861.2570405,ddpg_train,FAR,train,13,2,-7.095139142457988,0,243,1,-0.221,-0.115,1.154,0.70751137,-0.50803304,0.80355316,-0.15101568,-2.0609071,-0.7589484,0.0,0.0,0.0,0.6063910126686096,0.6063910126686096,link6
1762899862.6427038,ddpg_train,FAR,train,13,3,-5.474836027950468,0,244,1,-0.123,0.074,0.9,1.9666198,-0.5087572,1.7639208,-0.5243103,-2.278117,-1.071282,0.0,0.0,0.0,0.6632547378540039,0.6632547378540039,link6
1762899864.0380764,ddpg_train,FAR,train,13,4,-3.359313572084672,0,245,1,-0.117,-0.042,0.544,2.87076,-0.5105443,2.5018816,-0.97227824,-2.8140805,-2.061375,0.0,0.0,0.0,0.610314130783081,0.610314130783081,link6
1762899865.3911986,ddpg_train,FAR,train,13,5,-3.135607950724407,0,246,1,-0.095,-0.059,0.509,2.9271562,-0.53649014,2.6026382,-0.9500313,-2.7329543,-2.436685,0.0,0.0,0.0,0.6346156001091003,0.6346156001091003,link6
1762899866.7732785,ddpg_train,FAR,train,13,6,-3.4285369732232747,0,247,1,-0.117,-0.071,0.553,2.892033,-0.5761809,2.5140905,-0.9714399,-2.5321388,-2.8274522,0.0,0.0,0.0,0.6171787977218628,0.6171787977218628,link6
1762899868.1511745,ddpg_train,FAR,train,13,7,-3.2521765551630404,0,248,1,-0.083,-0.082,0.527,3.0786517,-0.5774106,2.5611353,-1.0046641,-2.6614404,-2.65584,0.0,0.0,0.0,0.5906373262405396,0.5906373262405396,link6
1762899869.5469296,ddpg_train,FAR,train,13,8,-3.1519716395495703,0,249,1,-0.071,-0.076,0.513,3.0469913,-0.5940987,2.609179,-0.94165885,-2.6997108,-2.641445,0.0,0.0,0.0,0.6087859272956848,0.6087859272956848,link6
1762899870.930269,ddpg_train,FAR,train,13,9,-3.4307990581465178,0,250,1,-0.092,-0.068,0.558,3.0612519,-0.5707403,2.4966946,-0.81213486,-2.727683,-2.853649,0.0,0.0,0.0,0.5940181016921997,0.5940181016921997,link6
1762899872.3114915,ddpg_train,FAR,train,13,10,-3.2479034273038674,0,251,1,-0.071,-0.059,0.531,3.0201337,-0.60004914,2.565639,-0.70678025,-2.7919197,-2.8990512,0.0,0.0,0.0,0.5869959592819214,0.5869959592819214,link6
1762899873.6999402,ddpg_train,FAR,train,13,11,-3.1908065934100356,0,252,1,-0.065,-0.054,0.523,2.9684052,-0.6161166,2.5916603,-0.6927366,-2.816173,-2.8423922,0.0,0.0,0.0,0.602326512336731,0.602326512336731,link6
1762899875.0874548,ddpg_train,FAR,train,13,12,-3.6819435188335112,0,253,1,-0.124,-0.054,0.597,2.8059876,-0.5742479,2.3890505,-1.0337446,-2.6285214,-2.692733,0.0,0.0,0.0,0.6300820708274841,0.6300820708274841,link6
1762899876.4688797,ddpg_train,FAR,train,13,13,-3.444594550541262,0,254,1,-0.102,-0.075,0.558,2.9293134,-0.6007557,2.491016,-1.0593681,-2.581741,-2.557462,0.0,0.0,0.0,0.6074970364570618,0.6074970364570618,link6
1762899877.8496711,ddpg_train,FAR,train,13,14,-3.4309043669717876,0,255,1,-0.092,-0.094,0.555,3.0641727,-0.6081517,2.5060596,-1.0553672,-2.526452,-2.4178796,0.0,0.0,0.0,0.6357525587081909,0.6357525587081909,link6
1762899879.2076893,ddpg_train,FAR,train,13,15,-3.721849311193681,0,256,1,-0.124,-0.116,0.595,3.1305563,-0.5889677,2.4348702,-0.97623503,-2.2686586,-2.6554425,0.0,0.0,0.0,0.6284714341163635,0.6284714341163635,link6
1762899880.5977027,ddpg_train,FAR,train,13,16,-3.361352931377196,0,257,1,-0.101,-0.12,0.536,3.1411965,-0.6126454,2.565269,-1.0249792,-2.2717855,-2.6250436,0.0,0.0,0.0,0.6166907548904419,0.6166907548904419,link6
1762899881.9777098,ddpg_train,FAR,train,13,17,-3.426635973967315,0,258,1,-0.094,-0.095,0.553,3.1415865,-0.57656866,2.514706,-0.95807296,-2.5539103,-2.3369384,0.0,0.0,0.0,0.5943375825881958,0.5943375825881958,link6
1762899883.3585732,ddpg_train,FAR,train,13,18,-3.3640860270599964,0,259,1,-0.097,-0.107,0.54,3.14137,-0.5978537,2.5640516,-0.9215271,-2.3728719,-2.2685273,0.0,0.0,0.0,0.6193878054618835,0.6193878054618835,link6
1762899884.7349565,ddpg_train,FAR,train,13,19,-3.2693532975401167,0,260,1,-0.089,-0.1,0.526,3.0983126,-0.6175944,2.6119065,-0.86214244,-2.411957,-2.2819555,0.0,0.0,0.0,0.5971986651420593,0.5971986651420593,link6
1762899888.4051855,ddpg_train,FAR,train,14,0,-5.916774632191776,0,261,1,-0.124,0.215,0.953,1.9026444,-0.40084243,1.7707995,-0.21531387,-1.8014978,-1.1929288,0.0,0.0,0.0,0.643292248249054,0.643292248249054,link6
1762899889.7806952,ddpg_train,FAR,train,14,1,-3.5019151779632915,0,262,1,-0.122,-0.007,0.569,2.6747837,-0.58479357,2.5512993,-0.30434164,-2.487369,-1.7452166,0.0,0.0,0.0,0.6207650303840637,0.6207650303840637,link6
1762899891.1716769,ddpg_train,FAR,train,14,2,-3.415909555519731,0,263,1,-0.1,-0.07,0.554,3.0883172,-0.55547404,2.5218458,-0.69495326,-2.6551929,-2.1456525,0.0,0.0,0.0,0.6017411351203918,0.6017411351203918,link6
1762899892.5628862,ddpg_train,FAR,train,14,3,-3.1889396020318266,0,264,1,-0.084,-0.063,0.519,3.004447,-0.55756915,2.582781,-0.8627592,-2.777838,-2.222848,0.0,0.0,0.0,0.604483425617218,0.604483425617218,link6
1762899893.9450707,ddpg_train,FAR,train,14,4,-3.1090719346187172,0,265,1,-0.078,-0.053,0.507,2.9699073,-0.5529237,2.6043267,-0.92999583,-2.8745139,-2.3218007,0.0,0.0,0.0,0.5815962553024292,0.5815962553024292,link6
1762899895.3332057,ddpg_train,FAR,train,14,5,-3.1318173570414682,0,266,1,-0.068,-0.044,0.513,3.136156,-0.5405868,2.5370097,-1.1515869,-3.0963173,-2.6817834,0.0,0.0,0.0,0.5764111280441284,0.5764111280441284,link6
1762899896.7193105,ddpg_train,FAR,train,14,6,-3.0175518804698016,0,267,1,-0.057,-0.048,0.495,3.1412714,-0.5480509,2.5961637,-1.3033475,-3.0613415,-2.684469,0.0,0.0,0.0,0.5872020125389099,0.5872020125389099,link6
1762899898.1185458,ddpg_train,FAR,train,14,7,-3.1728729276095087,0,268,1,-0.083,-0.043,0.518,3.015781,-0.5261791,2.5137906,-1.7057825,-3.0303319,-3.0217538,0.0,0.0,0.0,0.583124041557312,0.583124041557312,link6
1762899899.5035553,ddpg_train,FAR,train,14,8,-3.0592947635039556,0,269,1,-0.072,-0.049,0.5,3.0356495,-0.5307911,2.5556421,-1.7599379,-2.9946103,-2.89193,0.0,0.0,0.0,0.5869259834289551,0.5869259834289551,link6
1762899900.8895266,ddpg_train,FAR,train,14,9,-2.9578846307992563,0,270,1,-0.072,-0.054,0.483,3.001439,-0.516015,2.6037898,-1.7729453,-2.9422784,-2.8198025,0.0,0.0,0.0,0.6214272379875183,0.6214272379875183,link6
1762899902.2795057,ddpg_train,FAR,train,14,10,-3.093438141231038,0,271,1,-0.105,-0.076,0.497,3.138032,-0.43656301,2.516875,-1.887198,-2.8171265,-2.826121,0.0,0.0,0.0,0.6058298349380493,0.6058298349380493,link6
1762899903.6775947,ddpg_train,FAR,train,14,11,-2.9257373748123796,0,272,1,-0.088,-0.09,0.469,3.107918,-0.47384664,2.565839,-2.0017273,-2.6480944,-2.728844,0.0,0.0,0.0,0.6019703149795532,0.6019703149795532,link6
1762899905.061825,ddpg_train,FAR,train,14,12,-2.8096004422722642,0,273,1,-0.073,-0.092,0.451,3.1020896,-0.4970467,2.603044,-2.0997167,-2.6040425,-2.6740403,0.0,0.0,0.0,0.5925241112709045,0.5925241112709045,link6
1762899906.4525554,ddpg_train,FAR,train,14,13,-3.018665951049927,0,274,1,-0.098,-0.066,0.487,3.1415613,-0.4328792,2.5312774,-2.1950793,-2.868614,-2.8031828,0.0,0.0,0.0,0.6040689945220947,0.6040689945220947,link6
1762899907.8365943,ddpg_train,FAR,train,14,14,-2.8957660157987175,0,275,1,-0.086,-0.053,0.47,3.0603135,-0.44097775,2.5862968,-2.3218353,-2.9228256,-2.8479605,0.0,0.0,0.0,0.6086819171905518,0.6086819171905518,link6
1762899909.2209952,ddpg_train,FAR,train,14,15,-2.916664139609183,0,276,1,-0.087,-0.04,0.474,2.9994984,-0.4510424,2.5907948,-2.4775908,-2.9674299,-2.8529258,0.0,0.0,0.0,0.5795057415962219,0.5795057415962219,link6
1762899910.6130185,ddpg_train,FAR,train,14,16,-3.0821029249724297,0,277,1,-0.067,-0.041,0.505,3.1415412,-0.5336267,2.5483878,-2.39853,-3.1184628,-2.517204,0.0,0.0,0.0,0.576554000377655,0.576554000377655,link6
1762899911.999561,ddpg_train,FAR,train,14,17,-2.9861674612442606,0,278,1,-0.047,-0.039,0.491,3.141405,-0.5731042,2.602886,-2.3090594,-3.1416132,-2.5447054,0.0,0.0,0.0,0.5657010674476624,0.5657010674476624,link6
1762899913.3973792,ddpg_train,FAR,train,14,18,-3.177467737225962,0,279,1,-0.067,-0.039,0.521,3.1415875,-0.5545856,2.5152447,-1.7198216,-3.141593,-2.8501756,0.0,0.0,0.0,0.5681003332138062,0.5681003332138062,link6
1762899914.7910724,ddpg_train,FAR,train,14,19,-3.0481305633759597,0,280,1,-0.053,-0.039,0.501,3.1414142,-0.56796694,2.5695584,-1.9246675,-3.1415956,-2.8642335,0.0,0.0,0.0,0.5725213289260864,0.5725213289260864,link6
1762899918.4436016,ddpg_train,FAR,train,15,0,-5.004593970241488,0,281,1,-0.082,0.029,0.827,2.276736,-0.5401056,1.7322222,-0.7908616,-3.0904064,-1.0848343,0.0,0.0,0.0,0.579413115978241,0.579413115978241,link6
1762899919.825573,ddpg_train,FAR,train,15,1,-3.7691425359697632,0,282,1,-0.088,-0.012,0.619,2.8716855,-0.5856091,2.2959912,-1.28334,-3.1416354,-2.0583892,0.0,0.0,0.0,0.5677653551101685,0.5677653551101685,link6
1762899921.238885,ddpg_train,FAR,train,15,2,-3.107695328848037,0,283,1,-0.042,-0.039,0.512,3.1412644,-0.6170427,2.5517337,-1.6172123,-3.141596,-2.579528,0.0,0.0,0.0,0.5713396072387695,0.5713396072387695,link6
1762899922.6297264,ddpg_train,FAR,train,15,3,-3.293482459775625,0,284,1,-0.074,-0.039,0.54,3.1415296,-0.55462676,2.4638796,-1.9259819,-3.1415963,-2.983871,0.0,0.0,0.0,0.5819821953773499,0.5819821953773499,link6
1762899924.0136054,ddpg_train,FAR,train,15,4,-3.2181902448893607,0,285,1,-0.06,-0.039,0.529,3.1413746,-0.58419025,2.4981925,-1.9804319,-3.1416063,-3.072235,0.0,0.0,0.0,0.5790627598762512,0.5790627598762512,link6
1762899925.4061844,ddpg_train,FAR,train,15,5,-3.531203127922711,0,286,1,-0.097,-0.039,0.577,3.1381116,-0.5282758,2.3607395,-1.5134681,-3.1415927,-3.1415927,0.0,0.0,0.0,0.596512496471405,0.596512496471405,link6
1762899926.7890086,ddpg_train,FAR,train,15,6,-3.504169408001734,0,287,1,-0.078,-0.039,0.575,3.139446,-0.5735175,2.3778918,-1.334009,-3.1415956,-2.8865256,0.0,0.0,0.0,0.5828208327293396,0.5828208327293396,link6
1762899928.1798177,ddpg_train,FAR,train,15,7,-3.3066443810319095,0,288,1,-0.057,-0.039,0.544,3.140223,-0.6067847,2.4642694,-1.3129896,-3.1415997,-2.7621765,0.0,0.0,0.0,0.5717208981513977,0.5717208981513977,link6
1762899929.5754998,ddpg_train,FAR,train,15,8,-3.6609318106889246,0,289,1,-0.081,-0.039,0.601,3.1415868,-0.5766152,2.3042316,-1.346917,-3.1415927,-2.643014,0.0,0.0,0.0,0.5821740031242371,0.5821740031242371,link6
1762899930.9675994,ddpg_train,FAR,train,15,9,-3.5222421118365075,0,290,1,-0.071,-0.039,0.579,3.1413906,-0.59202427,2.3679092,-1.268033,-3.1415985,-2.7261162,0.0,0.0,0.0,0.584948718547821,0.584948718547821,link6
1762899932.4104106,ddpg_train,FAR,train,15,10,-3.397896579316414,0,291,1,-0.064,-0.039,0.559,3.1412437,-0.5979043,2.4251165,-1.3012209,-3.1416008,-2.676329,0.0,0.0,0.0,0.5886316299438477,0.5886316299438477,link6
1762899933.796403,ddpg_train,FAR,train,15,11,-3.1723485074763684,0,292,1,-0.058,-0.039,0.521,3.1415226,-0.58031404,2.520365,-1.7614498,-3.1415946,-1.9418279,0.0,0.0,0.0,0.5607817769050598,0.5607817769050598,link6
1762899935.1419432,ddpg_train,FAR,train,15,12,-3.192590736104019,0,293,1,-0.051,-0.036,0.526,3.076556,-0.6132378,2.5067613,-1.5189642,-3.141601,-1.9147638,0.0,0.0,0.0,0.5847037434577942,0.5847037434577942,link6
1762899936.5381157,ddpg_train,FAR,train,15,13,-3.431113472637306,0,294,1,-0.066,-0.03,0.565,2.9957712,-0.6092745,2.410306,-1.2797049,-3.141589,-1.9589521,0.0,0.0,0.0,0.592796802520752,0.592796802520752,link6
1762899937.921397,ddpg_train,FAR,train,15,14,-3.702639346602246,0,295,1,-0.09,-0.022,0.608,2.947073,-0.5697741,2.2859893,-1.4637574,-3.1415927,-2.2824829,0.0,0.0,0.0,0.5989294648170471,0.5989294648170471,link6
1762899939.3278446,ddpg_train,FAR,train,15,15,-3.6146763768424126,0,296,1,-0.085,-0.025,0.594,2.979638,-0.57609636,2.3197045,-1.529449,-3.141591,-2.2397096,0.0,0.0,0.0,0.6097002029418945,0.6097002029418945,link6
1762899940.7129045,ddpg_train,FAR,train,15,16,-4.157833218983539,0,297,1,-0.086,-0.041,0.684,3.1400251,-0.5763141,2.0930312,-1.738498,-3.1261456,-1.9344689,0.0,0.0,0.0,0.586303174495697,0.586303174495697,link6
1762899942.1979752,ddpg_train,FAR,train,15,17,-4.270606274776348,0,298,1,-0.076,-0.04,0.704,3.1414115,-0.59478885,2.051023,-1.6625177,-3.1368704,-1.9132385,0.0,0.0,0.0,0.5789958834648132,0.5789958834648132,link6
1762899943.5872295,ddpg_train,FAR,train,15,18,-4.2417110591048015,0,299,1,-0.07,-0.039,0.7,3.1412904,-0.6073973,2.0686579,-1.6628165,-3.1416023,-1.9506613,0.0,0.0,0.0,0.5858189463615417,0.5858189463615417,link6
1762899944.994643,ddpg_train,FAR,train,15,19,-3.8689222499346916,0,300,1,-0.099,-0.039,0.634,3.1415155,-0.5454671,2.2167878,-2.0757291,-3.1415946,-2.2054346,0.0,0.0,0.0,0.6055883169174194,0.6055883169174194,link6
1762899948.6503947,ddpg_train,FAR,train,16,0,-8.366755475723968,0,301,1,-0.074,0.027,1.387,0.26398852,-0.076686904,0.09295894,-0.08763872,-0.42178133,-0.04889102,0.0,0.0,0.0,0.5072131156921387,0.5072131156921387,link6
1762899950.0581415,ddpg_train,FAR,train,16,1,-6.828987755819332,0,302,1,-0.239,-0.286,1.075,0.9834025,-0.50948745,0.38478038,-0.15304239,-2.7583768,-0.29396513,0.0,0.0,0.0,0.767940104007721,0.767940104007721,link6
1762899951.4560149,ddpg_train,FAR,train,16,2,-6.337827068745702,0,303,1,-0.025,-0.222,1.03,1.7614352,-0.62731814,1.0459602,-0.34520027,-2.9036658,-0.6864502,0.0,0.0,0.0,0.5868777632713318,0.5868777632713318,link6
1762899952.8525631,ddpg_train,FAR,train,16,3,-3.8503385240969856,0,304,1,-0.085,-0.046,0.632,3.1415865,-0.5765623,2.2389047,-1.0163053,-3.071379,-1.799451,0.0,0.0,0.0,0.5860114693641663,0.5860114693641663,link6
1762899954.2464387,ddpg_train,FAR,train,16,4,-3.681386034830052,0,305,1,-0.074,-0.045,0.605,3.1413863,-0.59635544,2.3054464,-1.3447672,-3.0972052,-2.1698341,0.0,0.0,0.0,0.5851380825042725,0.5851380825042725,link6
1762899955.6360776,ddpg_train,FAR,train,16,5,-3.597076230846544,0,306,1,-0.066,-0.042,0.592,3.1412678,-0.6107416,2.3392496,-1.4987128,-3.1167288,-2.3159716,0.0,0.0,0.0,0.5864166617393494,0.5864166617393494,link6
1762899957.0252929,ddpg_train,FAR,train,16,6,-3.8196514877024366,0,307,1,-0.084,-0.058,0.626,3.1415386,-0.58171207,2.2307365,-1.8460978,-2.9779274,-2.5480168,0.0,0.0,0.0,0.5875069499015808,0.5875069499015808,link6
1762899958.4154348,ddpg_train,FAR,train,16,7,-3.455850020097453,0,308,1,-0.066,-0.064,0.566,3.1413321,-0.6047567,2.3921683,-1.7525985,-2.930576,-2.5007205,0.0,0.0,0.0,0.5786528587341309,0.5786528587341309,link6
1762899959.7956853,ddpg_train,FAR,train,16,8,-3.2673442307200498,0,309,1,-0.058,-0.069,0.534,3.1413195,-0.60810506,2.4843435,-1.651424,-2.8926442,-2.426202,0.0,0.0,0.0,0.5625779628753662,0.5625779628753662,link6
1762899961.1825771,ddpg_train,FAR,train,16,9,-3.1091579552352906,0,310,1,-0.056,-0.048,0.51,3.1414952,-0.57428175,2.544715,-1.8686775,-3.0668113,-2.3744485,0.0,0.0,0.0,0.5665126442909241,0.5665126442909241,link6
1762899962.5925462,ddpg_train,FAR,train,16,10,-2.9893369013637905,0,311,1,-0.038,-0.041,0.492,3.1413383,-0.6024014,2.6027977,-1.8915117,-3.1223042,-2.3605146,0.0,0.0,0.0,0.5607938170433044,0.5607938170433044,link6
1762899964.0017762,ddpg_train,FAR,train,16,11,-3.177545758018855,0,312,1,-0.068,-0.02,0.522,2.8476496,-0.57694066,2.5154727,-1.9641331,-3.141593,-2.3617728,0.0,0.0,0.0,0.5695571899414062,0.5695571899414062,link6
1762899965.3825476,ddpg_train,FAR,train,16,12,-3.361384929496271,0,313,1,-0.068,-0.029,0.553,2.970126,-0.59712994,2.43461,-1.8570114,-3.1344423,-2.2351022,0.0,0.0,0.0,0.5887548923492432,0.5887548923492432,link6
1762899966.771472,ddpg_train,FAR,train,16,13,-3.494607895504167,0,314,1,-0.069,-0.034,0.575,3.0447376,-0.6048689,2.3810754,-1.8388877,-3.1336136,-2.1614275,0.0,0.0,0.0,0.5887213349342346,0.5887213349342346,link6
1762899968.1574483,ddpg_train,FAR,train,16,14,-3.5381960289610825,0,315,1,-0.079,-0.032,0.581,3.0445824,-0.5807513,2.3612845,-2.0969396,-3.1415942,-2.6445346,0.0,0.0,0.0,0.5816985964775085,0.5816985964775085,link6
1762899969.5388434,ddpg_train,FAR,train,16,15,-3.723257973845137,0,316,1,-0.079,-0.019,0.613,2.8750255,-0.6049659,2.2846444,-2.2687163,-3.1416,-2.6017766,0.0,0.0,0.0,0.5945443511009216,0.5945443511009216,link6
1762899970.934191,ddpg_train,FAR,train,16,16,-3.939382385605437,0,317,1,-0.083,-0.008,0.649,2.7576315,-0.6064378,2.20514,-2.4337814,-3.141593,-2.5345395,0.0,0.0,0.0,0.5923901200294495,0.5923901200294495,link6
1762899972.3312492,ddpg_train,FAR,train,16,17,-3.8081172776481873,0,318,1,-0.082,-0.035,0.626,3.0999596,-0.5862193,2.2399073,-2.8386927,-3.1415918,-2.2408056,0.0,0.0,0.0,0.5862946510314941,0.5862946510314941,link6
1762899973.7331576,ddpg_train,FAR,train,16,18,-3.496293405011758,0,319,1,-0.067,-0.039,0.575,3.1413429,-0.60074234,2.3832664,-2.8907452,-3.141595,-2.3974836,0.0,0.0,0.0,0.580394983291626,0.580394983291626,link6
1762899975.118032,ddpg_train,FAR,train,16,19,-3.612563295972659,0,320,1,-0.12,-0.039,0.587,3.1415904,-0.47864574,2.3183544,-2.9301507,-3.141593,-2.7765913,0.0,0.0,0.0,0.6203259825706482,0.6203259825706482,link6
1762899978.7950974,ddpg_train,FAR,train,17,0,-8.139354352902467,0,321,1,-0.178,0.081,1.342,-0.07264663,-0.15304942,0.10919665,-0.39249355,-1.0578117,-0.41551623,0.0,0.0,0.0,0.7680829167366028,0.7680829167366028,link6
1762899980.1906507,ddpg_train,FAR,train,17,1,-4.815846319672387,0,322,1,-0.043,0.088,0.793,1.5592126,-0.5385965,1.8169287,-1.0950161,-3.0918772,-1.0028008,0.0,0.0,0.0,0.5440232157707214,0.5440232157707214,link6
1762899981.570347,ddpg_train,FAR,train,17,2,-4.069810560484761,0,323,1,-0.097,0.016,0.669,2.4829338,-0.5797216,2.1379123,-1.657743,-3.0602689,-2.205882,0.0,0.0,0.0,0.597549319267273,0.597549319267273,link6
1762899982.960414,ddpg_train,FAR,train,17,3,-3.695846825247604,0,324,1,-0.08,-0.026,0.608,2.8569314,-0.609742,2.289385,-1.9327077,-3.0717635,-2.7117832,0.0,0.0,0.0,0.5944744944572449,0.5944744944572449,link6
1762899984.3442545,ddpg_train,FAR,train,17,4,-4.294523344150604,0,325,1,-0.11,-0.024,0.705,2.9804578,-0.53635615,2.029665,-2.028576,-3.1181967,-2.9147918,0.0,0.0,0.0,0.6126366257667542,0.6126366257667542,link6
1762899985.7281063,ddpg_train,FAR,train,17,5,-4.065648969937821,0,326,1,-0.098,-0.023,0.668,2.9590805,-0.5641576,2.1312287,-2.0909216,-3.1306925,-2.9412205,0.0,0.0,0.0,0.5999743342399597,0.5999743342399597,link6
1762899987.1181514,ddpg_train,FAR,train,17,6,-3.9874357341717,0,327,1,-0.087,-0.024,0.656,2.9627664,-0.589099,2.1753645,-2.2107673,-3.1415927,-2.9781134,0.0,0.0,0.0,0.5852617025375366,0.5852617025375366,link6
1762899988.506054,ddpg_train,FAR,train,17,7,-3.7541039937706504,0,328,1,-0.079,-0.039,0.617,3.1414888,-0.5870402,2.270719,-2.6572773,-3.141593,-3.0132632,0.0,0.0,0.0,0.5839344263076782,0.5839344263076782,link6
1762899989.890841,ddpg_train,FAR,train,17,8,-3.4714329770058305,0,329,1,-0.063,-0.044,0.571,3.1413507,-0.608488,2.3693583,-2.6363413,-3.0567963,-2.9866266,0.0,0.0,0.0,0.5839762091636658,0.5839762091636658,link6
1762899991.2776763,ddpg_train,FAR,train,17,9,-3.9691278580982274,0,330,1,-0.092,-0.049,0.651,3.1415894,-0.5763712,2.0995083,-2.827479,-2.87382,-2.9250326,0.0,0.0,0.0,0.592376172542572,0.592376172542572,link6
1762899992.6638548,ddpg_train,FAR,train,17,10,-3.669440195954865,0,331,1,-0.075,-0.043,0.603,3.141431,-0.59388137,2.2579439,-2.9593883,-2.9908452,-2.9871504,0.0,0.0,0.0,0.5846827030181885,0.5846827030181885,link6
1762899994.049695,ddpg_train,FAR,train,17,11,-3.572315743525071,0,332,1,-0.066,-0.04,0.588,3.1413348,-0.60981894,2.31582,-3.0378232,-3.0444002,-3.0378022,0.0,0.0,0.0,0.5874019861221313,0.5874019861221313,link6
1762899995.4347837,ddpg_train,FAR,train,17,12,-3.7800381969216765,0,333,1,-0.082,-0.039,0.621,3.1415622,-0.5795087,2.2540798,-3.0763507,-3.1379328,-3.13995,0.0,0.0,0.0,0.5848720669746399,0.5848720669746399,link6
1762899996.8183424,ddpg_train,FAR,train,17,13,-3.2722087163136093,0,334,1,-0.056,-0.039,0.538,3.141406,-0.60087883,2.483779,-3.0114706,-3.1415935,-2.99773,0.0,0.0,0.0,0.5607894062995911,0.5607894062995911,link6
1762899998.1967962,ddpg_train,FAR,train,17,14,-2.9934366174539764,0,335,1,-0.036,-0.039,0.493,3.1414335,-0.6149644,2.6106627,-2.9819243,-3.1416109,-2.878117,0.0,0.0,0.0,0.5607889890670776,0.5607889890670776,link6
1762899999.583332,ddpg_train,FAR,train,17,15,-3.1954745139366203,0,336,1,-0.058,-0.039,0.525,3.1415584,-0.58435965,2.5100224,-2.9609876,-3.1415963,-2.9441187,0.0,0.0,0.0,0.5644599199295044,0.5644599199295044,link6
1762900000.981784,ddpg_train,FAR,train,17,16,-3.4014821385523657,0,337,1,-0.06,-0.039,0.56,3.1414459,-0.6095377,2.4220967,-2.7557418,-3.1416078,-2.9556699,0.0,0.0,0.0,0.586682140827179,0.586682140827179,link6
1762900002.3658547,ddpg_train,FAR,train,17,17,-3.4371354180688063,0,338,1,-0.074,-0.039,0.564,3.1415915,-0.57616013,2.4069552,-2.7342038,-3.1415927,-2.95444,0.0,0.0,0.0,0.5737146139144897,0.5737146139144897,link6
1762900003.745002,ddpg_train,FAR,train,17,18,-3.3699876317293085,0,339,1,-0.064,-0.039,0.554,3.1415045,-0.5917184,2.4285095,-3.0493326,-3.1415987,-3.1021419,0.0,0.0,0.0,0.5762986540794373,0.5762986540794373,link6
1762900005.1255443,ddpg_train,FAR,train,17,19,-3.340628662185982,0,340,1,-0.057,-0.039,0.55,3.1413875,-0.61081713,2.4505525,-3.1244872,-3.1415982,-3.1260817,0.0,0.0,0.0,0.5828512907028198,0.5828512907028198,link6
1762900008.8036973,ddpg_train,FAR,train,18,0,-5.220091460012297,0,341,1,-0.2,0.022,0.844,2.535395,-0.46483082,1.6967791,-1.9988168,-2.535389,-1.5746531,0.0,0.0,0.0,0.5865400433540344,0.5865400433540344,link6
1762900010.1863308,ddpg_train,FAR,train,18,1,-3.9152905619221623,0,342,1,-0.072,-0.039,0.645,3.141305,-0.6078512,2.202399,-2.5462875,-3.1415956,-2.3320904,0.0,0.0,0.0,0.5861899256706238,0.5861899256706238,link6
1762900011.5697913,ddpg_train,FAR,train,18,2,-4.073864825041471,0,343,1,-0.086,-0.039,0.67,3.1415849,-0.5768645,2.131277,-3.0936317,-3.1415927,-3.1404855,0.0,0.0,0.0,0.5868589282035828,0.5868589282035828,link6
1762900012.9469461,ddpg_train,FAR,train,18,3,-3.76281416727034,0,344,1,-0.075,-0.039,0.619,3.1414297,-0.5954943,2.2651098,-2.9804842,-3.141593,-3.1415925,0.0,0.0,0.0,0.5854079127311707,0.5854079127311707,link6
1762900014.3739862,ddpg_train,FAR,train,18,4,-3.5177629306564153,0,345,1,-0.067,-0.034,0.579,3.046082,-0.6097778,2.381605,-2.9715655,-3.1415954,-3.123465,0.0,0.0,0.0,0.5833686590194702,0.5833686590194702,link6
1762900015.7747464,ddpg_train,FAR,train,18,5,-3.3596578183765757,0,346,1,-0.078,-0.001,0.552,2.6269512,-0.5830346,2.4345007,-3.1382072,-3.1415935,-2.927256,0.0,0.0,0.0,0.582590639591217,0.582590639591217,link6
1762900017.1581202,ddpg_train,FAR,train,18,6,-3.2243079975518762,0,347,1,-0.063,-0.015,0.531,2.7314913,-0.60775846,2.4956362,-3.1265883,-3.1415963,-2.9729598,0.0,0.0,0.0,0.582930862903595,0.582930862903595,link6
1762900018.5375102,ddpg_train,FAR,train,18,7,-3.503530296591946,0,348,1,-0.076,-0.039,0.575,3.1415915,-0.5761506,2.3770134,-3.1414945,-3.1415927,-2.763333,0.0,0.0,0.0,0.576565146446228,0.576565146446228,link6
1762900019.9247718,ddpg_train,FAR,train,18,8,-3.157896476960362,0,349,1,-0.054,-0.039,0.519,3.141507,-0.59069985,2.5285454,-3.1343513,-3.1415951,-2.9075136,0.0,0.0,0.0,0.5607354640960693,0.5607354640960693,link6
1762900021.3262758,ddpg_train,FAR,train,18,9,-2.974689690210711,0,350,1,-0.034,-0.039,0.49,3.1414404,-0.614263,2.6110353,-3.1256115,-3.141607,-2.9278064,0.0,0.0,0.0,0.5607818365097046,0.5607818365097046,link6
1762900022.727752,ddpg_train,FAR,train,18,10,-3.4421212544984443,0,351,1,-0.073,-0.039,0.565,3.1415873,-0.5772757,2.4000769,-3.1410286,-3.1415932,-3.087965,0.0,0.0,0.0,0.5748196840286255,0.5748196840286255,link6
1762900024.1344466,ddpg_train,FAR,train,18,11,-3.203641771780567,0,352,1,-0.053,-0.039,0.527,3.1414623,-0.59943795,2.504735,-3.1302564,-3.1415973,-3.1236725,0.0,0.0,0.0,0.5678808093070984,0.5678808093070984,link6
1762900025.5315,ddpg_train,FAR,train,18,12,-3.085682393920968,0,353,1,-0.042,-0.039,0.508,3.1414242,-0.6125364,2.5677803,-3.1251614,-3.1416042,-3.1415966,0.0,0.0,0.0,0.5607883334159851,0.5607883334159851,link6
1762900026.9232483,ddpg_train,FAR,train,18,13,-3.04215649485216,0,354,1,-0.048,-0.039,0.5,3.1415555,-0.58531094,2.537141,-3.1376905,-3.0182745,-3.1415937,0.0,0.0,0.0,0.5557419061660767,0.5557419061660767,link6
1762900028.3058224,ddpg_train,FAR,train,18,14,-2.9205983277691456,0,355,1,-0.032,-0.039,0.481,3.1414502,-0.61158985,2.6039035,-3.118803,-3.0402372,-3.1415951,0.0,0.0,0.0,0.5585010051727295,0.5585010051727295,link6
1762900029.6929681,ddpg_train,FAR,train,18,15,-3.089206577110255,0,356,1,-0.056,-0.04,0.507,3.1415918,-0.5761779,2.513842,-3.0893548,-2.9992795,-3.140367,0.0,0.0,0.0,0.5556527972221375,0.5556527972221375,link6
1762900031.0738544,ddpg_train,FAR,train,18,16,-3.034282225836702,0,357,1,-0.044,-0.041,0.499,3.141522,-0.5936387,2.5578787,-2.8823397,-3.0823796,-2.9717948,0.0,0.0,0.0,0.5593218207359314,0.5593218207359314,link6
1762900032.456712,ddpg_train,FAR,train,18,17,-3.1433849370435856,0,358,1,-0.045,-0.04,0.518,3.1414285,-0.61603206,2.524756,-2.9200082,-3.118205,-2.8734536,0.0,0.0,0.0,0.5845726728439331,0.5845726728439331,link6
1762900033.8340507,ddpg_train,FAR,train,18,18,-3.972896815968331,0,359,1,-0.086,-0.039,0.653,3.1415825,-0.5773201,2.1763167,-3.1408303,-3.1415927,-2.916138,0.0,0.0,0.0,0.5868011116981506,0.5868011116981506,link6
1762900035.224895,ddpg_train,FAR,train,18,19,-4.028598185769876,0,360,1,-0.082,-0.039,0.663,3.1414332,-0.5867973,2.135059,-3.1308343,-3.0981252,-2.850123,0.0,0.0,0.0,0.5917187333106995,0.5917187333106995,link6
1762900038.8830204,ddpg_train,FAR,train,19,0,-4.297967966980587,0,361,1,-0.122,-0.064,0.701,3.0677464,-0.54196274,2.0728333,-1.6688051,-2.8674622,-1.4600259,0.0,0.0,0.0,0.6073917150497437,0.6073917150497437,link6
1762900040.2767081,ddpg_train,FAR,train,19,1,-3.2698997534274135,0,362,1,-0.084,-0.056,0.533,3.1032155,-0.5406384,2.4184237,-2.550828,-2.864966,-2.5390732,0.0,0.0,0.0,0.5806520581245422,0.5806520581245422,link6
1762900041.6537502,ddpg_train,FAR,train,19,2,-2.883263743833174,0,363,1,-0.051,-0.044,0.473,3.1139264,-0.55040604,2.57796,-2.9243207,-2.9119477,-2.937718,0.0,0.0,0.0,0.5705848336219788,0.5705848336219788,link6
1762900043.0394504,ddpg_train,FAR,train,19,3,-3.15404832033046,0,364,1,-0.075,-0.043,0.516,3.1415715,-0.5331457,2.4616427,-2.9678895,-2.9608424,-2.5891538,0.0,0.0,0.0,0.5816129446029663,0.5816129446029663,link6
1762900044.4350622,ddpg_train,FAR,train,19,4,-3.174300687239223,0,365,1,-0.075,-0.043,0.52,3.141475,-0.5510726,2.4182246,-3.0227733,-2.8401244,-2.5660105,0.0,0.0,0.0,0.6076990365982056,0.6076990365982056,link6
1762900045.8267086,ddpg_train,FAR,train,19,5,-3.2938399473537823,0,366,1,-0.09,-0.042,0.538,3.1413958,-0.5466693,2.3484116,-3.0666265,-2.754941,-2.591198,0.0,0.0,0.0,0.6092653274536133,0.6092653274536133,link6
1762900047.2210252,ddpg_train,FAR,train,19,6,-3.299051039905279,0,367,1,-0.095,-0.041,0.538,3.1415257,-0.5055699,2.3893213,-3.0620766,-2.9559758,-2.826398,0.0,0.0,0.0,0.6041141152381897,0.6041141152381897,link6
1762900048.6020718,ddpg_train,FAR,train,19,7,-3.0861618157304194,0,368,1,-0.072,-0.04,0.505,3.1414487,-0.52519476,2.5148435,-3.0916913,-2.993851,-2.7730532,0.0,0.0,0.0,0.5736801624298096,0.5736801624298096,link6
1762900050.0081918,ddpg_train,FAR,train,19,8,-2.981142068133085,0,369,1,-0.082,-0.039,0.486,3.141589,-0.47689855,2.5166402,-3.141048,-2.8889594,-2.9880936,0.0,0.0,0.0,0.5830463767051697,0.5830463767051697,link6
1762900051.3894718,ddpg_train,FAR,train,19,9,-2.7454112206876906,0,370,1,-0.049,-0.04,0.45,3.1415424,-0.5463521,2.5712228,-3.1322923,-2.707287,-2.9230351,0.0,0.0,0.0,0.5579707026481628,0.5579707026481628,link6
1762900052.782121,ddpg_train,FAR,train,19,10,-2.6273405591156953,0,371,1,-0.027,-0.04,0.432,3.1414359,-0.5986322,2.6135345,-3.1252182,-2.6738217,-2.9122646,0.0,0.0,0.0,0.5561392903327942,0.5561392903327942,link6
1762900054.1641955,ddpg_train,FAR,train,19,11,-2.8999295105288065,0,372,1,-0.048,-0.039,0.476,3.1415706,-0.58046293,2.527265,-3.1393054,-2.7846446,-2.8236904,0.0,0.0,0.0,0.5525305271148682,0.5525305271148682,link6
1762900055.548383,ddpg_train,FAR,train,19,12,-2.854401074031501,0,373,1,-0.03,-0.039,0.47,3.1414607,-0.6069776,2.5920067,-3.128698,-2.9321132,-2.8857918,0.0,0.0,0.0,0.5573281049728394,0.5573281049728394,link6
1762900056.935964,ddpg_train,FAR,train,19,13,-2.944863422034547,0,374,1,-0.034,-0.039,0.485,3.1414464,-0.6106778,2.6016953,-3.1065066,-3.0631623,-2.9196453,0.0,0.0,0.0,0.5607481598854065,0.5607481598854065,link6
1762900058.3267875,ddpg_train,FAR,train,19,14,-3.0773229175344836,0,375,1,-0.048,-0.039,0.506,3.141535,-0.58967906,2.5473332,-3.104172,-3.100746,-2.7976294,0.0,0.0,0.0,0.5587113499641418,0.5587113499641418,link6
1762900059.7087173,ddpg_train,FAR,train,19,15,-3.1018436972309202,0,376,1,-0.05,-0.039,0.511,3.1414375,-0.59092045,2.5337064,-3.1262445,-3.1129186,-2.7444746,0.0,0.0,0.0,0.6005382537841797,0.6005382537841797,link6
1762900061.1094043,ddpg_train,FAR,train,19,16,-3.54025899131073,0,377,1,-0.107,-0.039,0.577,3.1415913,-0.5009725,2.3404624,-3.1414452,-3.1000881,-2.5565615,0.0,0.0,0.0,0.6077609658241272,0.6077609658241272,link6
1762900062.489228,ddpg_train,FAR,train,19,17,-3.357412312146753,0,378,1,-0.08,-0.039,0.55,3.1415107,-0.5479392,2.432547,-3.132754,-3.1306667,-2.4558675,0.0,0.0,0.0,0.5844007134437561,0.5844007134437561,link6
1762900063.872601,ddpg_train,FAR,train,19,18,-3.1584554656473784,0,379,1,-0.055,-0.039,0.519,3.1414068,-0.58954537,2.5329604,-3.124352,-3.141601,-2.3502846,0.0,0.0,0.0,0.5610950589179993,0.5610950589179993,link6
1762900065.2758243,ddpg_train,FAR,train,19,19,-3.454005427407555,0,380,1,-0.09,-0.039,0.565,3.1415825,-0.5346431,2.3783772,-3.1405702,-3.095908,-2.1977732,0.0,0.0,0.0,0.5929452776908875,0.5929452776908875,link6
1762900068.9401462,ddpg_train,FAR,train,20,0,-8.049578312981295,0,381,1,0.034,0.12,1.334,0.6459626,-0.14619851,0.61342543,-0.59465003,-0.95228094,-0.1266407,0.0,0.0,0.0,0.6149670481681824,0.6149670481681824,link6
1762900070.3192062,ddpg_train,FAR,train,20,1,-3.8518735577715706,0,382,1,-0.126,-0.032,0.627,3.1076083,-0.49061945,2.2206633,-1.8302201,-3.1370845,-1.1115975,0.0,0.0,0.0,0.6228387951850891,0.6228387951850891,link6
1762900071.7034812,ddpg_train,FAR,train,20,2,-3.167822725714067,0,383,1,-0.089,-0.055,0.515,3.1414273,-0.4966926,2.4702988,-2.4635148,-2.9331157,-2.2052526,0.0,0.0,0.0,0.5829055309295654,0.5829055309295654,link6
1762900073.0917869,ddpg_train,FAR,train,20,3,-2.7956841265443293,0,384,1,-0.061,-0.053,0.457,3.141498,-0.5070852,2.5676234,-2.8382323,-2.7597349,-2.846137,0.0,0.0,0.0,0.6105974316596985,0.6105974316596985,link6
1762900074.4818795,ddpg_train,FAR,train,20,4,-3.1546410062211314,0,385,1,-0.103,-0.041,0.512,3.1415644,-0.5392219,2.3233724,-3.1214094,-2.4975672,-3.0420182,0.0,0.0,0.0,0.6078846454620361,0.6078846454620361,link6
1762900075.890801,ddpg_train,FAR,train,20,5,-2.7718769428203154,0,386,1,-0.061,-0.04,0.453,3.1414185,-0.5797968,2.4978368,-3.1268132,-2.4896367,-3.0872838,0.0,0.0,0.0,0.5579935312271118,0.5579935312271118,link6
1762900077.2809534,ddpg_train,FAR,train,20,6,-2.8259171067377316,0,387,1,-0.055,-0.057,0.461,3.1415918,-0.5761784,2.5138252,-2.8505733,-2.6051834,-3.0848198,0.0,0.0,0.0,0.5552670955657959,0.5552670955657959,link6
1762900078.6838574,ddpg_train,FAR,train,20,7,-3.0101849187142933,0,388,1,-0.044,-0.041,0.495,3.1415195,-0.5928798,2.554544,-2.994476,-3.0299785,-2.8000863,0.0,0.0,0.0,0.5607889890670776,0.5607889890670776,link6
1762900080.0670047,ddpg_train,FAR,train,20,8,-2.962363808801628,0,389,1,-0.034,-0.039,0.488,3.1414328,-0.6113626,2.6126711,-3.0563645,-3.126262,-2.7617936,0.0,0.0,0.0,0.5629445314407349,0.5629445314407349,link6
1762900081.4610808,ddpg_train,FAR,train,20,9,-3.163516991664929,0,390,1,-0.078,-0.031,0.518,3.040508,-0.5286467,2.5197759,-3.1405318,-3.1402795,-2.9044447,0.0,0.0,0.0,0.581046462059021,0.581046462059021,link6
1762900082.8432288,ddpg_train,FAR,train,20,10,-3.0275595217669364,0,391,1,-0.06,-0.037,0.497,3.1010487,-0.5487958,2.5828216,-2.992294,-3.1416042,-2.9509325,0.0,0.0,0.0,0.5762583613395691,0.5762583613395691,link6
1762900084.2317455,ddpg_train,FAR,train,20,11,-2.9812736671558184,0,392,1,-0.051,-0.039,0.49,3.1322026,-0.56238514,2.608291,-2.9140599,-3.141614,-3.0082579,0.0,0.0,0.0,0.5735624432563782,0.5735624432563782,link6
1762900085.6183553,ddpg_train,FAR,train,20,12,-3.1332714006692823,0,393,1,-0.08,-0.026,0.513,2.9695072,-0.52347976,2.5319474,-2.8873715,-3.1415963,-3.0333414,0.0,0.0,0.0,0.5866365432739258,0.5866365432739258,link6
1762900086.9977248,ddpg_train,FAR,train,20,13,-2.9024665662954736,0,394,1,-0.056,-0.026,0.477,2.7816942,-0.5696468,2.5941963,-2.8732092,-2.9836643,-2.90713,0.0,0.0,0.0,0.5708314180374146,0.5708314180374146,link6
1762900088.382368,ddpg_train,FAR,train,20,14,-2.8213395339591827,0,395,1,-0.051,-0.025,0.464,2.59601,-0.6096509,2.6001287,-2.8906975,-2.8597214,-2.824263,0.0,0.0,0.0,0.5710243582725525,0.5710243582725525,link6
1762900089.7653913,ddpg_train,FAR,train,20,15,-2.906695598847566,0,396,1,-0.056,-0.015,0.478,2.6477797,-0.58966666,2.5475953,-3.1152205,-2.8644753,-3.129548,0.0,0.0,0.0,0.5644845962524414,0.5644845962524414,link6
1762900091.155946,ddpg_train,FAR,train,20,16,-2.6777835114527924,0,397,1,-0.037,-0.027,0.441,2.725057,-0.61396885,2.6097114,-3.1257353,-2.7218015,-3.1415732,0.0,0.0,0.0,0.5652157068252563,0.5652157068252563,link6
1762900092.5452487,ddpg_train,FAR,train,20,17,-2.920393103734761,0,398,1,-0.058,-0.033,0.479,2.9640782,-0.5775447,2.5173101,-3.0603933,-2.7828603,-3.1415915,0.0,0.0,0.0,0.5592002868652344,0.5592002868652344,link6
1762900093.9527628,ddpg_train,FAR,train,20,18,-2.766616986086746,0,399,1,-0.042,-0.032,0.455,2.907853,-0.6013284,2.5769007,-3.1033952,-2.7460139,-3.1415858,0.0,0.0,0.0,0.5610508322715759,0.5610508322715759,link6
1762900095.3771007,ddpg_train,FAR,train,20,19,-2.708613503854597,0,400,1,-0.032,-0.033,0.446,2.8967528,-0.615162,2.6128123,-3.1252935,-2.7710056,-3.1415758,0.0,0.0,0.0,0.5602777004241943,0.5602777004241943,link6
1762900099.0334392,ddpg_train,FAR,train,21,0,-6.236659466893587,0,401,1,0.199,0.156,0.994,0.0018400558,-0.36279693,1.386576,-1.3337879,-1.8378834,-0.81816876,0.0,0.0,0.0,0.4101787805557251,0.4101787805557251,link6
1762900100.415595,ddpg_train,FAR,train,21,1,-3.532826522983287,0,402,1,0.029,0.086,0.579,0.6206801,-0.6072635,2.3420243,-2.2113712,-2.938647,-1.4912901,0.0,0.0,0.0,0.5719500184059143,0.5719500184059143,link6
1762900101.806744,ddpg_train,FAR,train,21,2,-3.3732360250069844,0,403,1,-0.068,-0.039,0.554,3.14156,-0.5817854,2.4133844,-3.1039968,-3.1043787,-2.9442985,0.0,0.0,0.0,0.5736836791038513,0.5736836791038513,link6
1762900103.1910853,ddpg_train,FAR,train,21,3,-3.2630874496092357,0,404,1,-0.055,-0.039,0.537,3.1414382,-0.604337,2.4610238,-3.1279151,-3.079061,-3.0019357,0.0,0.0,0.0,0.5757809281349182,0.5757809281349182,link6
1762900104.575572,ddpg_train,FAR,train,21,4,-3.3100871948578443,0,405,1,-0.057,-0.039,0.545,3.1414034,-0.6079618,2.4324002,-3.124371,-3.0492191,-3.0217073,0.0,0.0,0.0,0.5882797241210938,0.5882797241210938,link6
1762900105.9618227,ddpg_train,FAR,train,21,5,-3.4039378662506636,0,406,1,-0.076,-0.028,0.559,2.9828062,-0.5871173,2.3573997,-3.133682,-2.9335494,-3.0938106,0.0,0.0,0.0,0.5814825892448425,0.5814825892448425,link6
1762900107.3573642,ddpg_train,FAR,train,21,6,-3.2266670907395545,0,407,1,-0.059,-0.033,0.531,3.0289445,-0.6090838,2.4307187,-3.1250129,-2.9480886,-3.0909998,0.0,0.0,0.0,0.5812370777130127,0.5812370777130127,link6
1762900108.7427397,ddpg_train,FAR,train,21,7,-3.5053987238325535,0,408,1,-0.079,-0.039,0.575,3.1415894,-0.57643825,2.3120785,-3.1413388,-2.9415631,-3.1414099,0.0,0.0,0.0,0.580009937286377,0.580009937286377,link6
1762900110.1448271,ddpg_train,FAR,train,21,8,-3.383879311135849,0,409,1,-0.067,-0.04,0.556,3.1414766,-0.58792394,2.4118948,-2.967203,-3.0890644,-3.1415927,0.0,0.0,0.0,0.5796871781349182,0.5796871781349182,link6
1762900111.5301387,ddpg_train,FAR,train,21,9,-3.3416768322800197,0,410,1,-0.061,-0.039,0.55,3.1413896,-0.6000289,2.4420967,-2.941083,-3.137036,-3.14159,0.0,0.0,0.0,0.5936452746391296,0.5936452746391296,link6
1762900112.9159887,ddpg_train,FAR,train,21,10,-3.5013199634090255,0,411,1,-0.1,-0.032,0.572,3.0721965,-0.51926607,2.3696735,-3.0554254,-3.1409197,-3.1415927,0.0,0.0,0.0,0.6033890247344971,0.6033890247344971,link6
1762900114.3101618,ddpg_train,FAR,train,21,11,-3.0217131053035047,0,412,1,-0.063,-0.041,0.495,3.1122377,-0.5466678,2.5251946,-2.9828918,-2.9312313,-3.1415937,0.0,0.0,0.0,0.5645560622215271,0.5645560622215271,link6
1762900115.725076,ddpg_train,FAR,train,21,12,-2.7808889781722868,0,413,1,-0.043,-0.048,0.457,3.1414683,-0.57264537,2.5681834,-2.9530542,-2.742827,-3.1390543,0.0,0.0,0.0,0.6052438616752625,0.6052438616752625,link6
1762900117.1258354,ddpg_train,FAR,train,21,13,-3.0521989867182016,0,414,1,-0.103,-0.048,0.494,3.1415286,-0.55507636,2.3389986,-3.0452769,-2.3611848,-3.1044612,0.0,0.0,0.0,0.6138502955436707,0.6138502955436707,link6
1762900118.516899,ddpg_train,FAR,train,21,14,-2.994127550576034,0,415,1,-0.087,-0.049,0.487,3.1413982,-0.5772908,2.3722866,-3.018875,-2.423878,-3.0698576,0.0,0.0,0.0,0.6088597178459167,0.6088597178459167,link6
1762900119.903342,ddpg_train,FAR,train,21,15,-3.644983834280065,0,416,1,-0.1,-0.061,0.594,3.1415882,-0.5763887,2.1818042,-2.769444,-2.6344366,-3.0562973,0.0,0.0,0.0,0.6003798246383667,0.6003798246383667,link6
1762900121.2958522,ddpg_train,FAR,train,21,16,-3.3204124602612066,0,417,1,-0.09,-0.074,0.539,3.141433,-0.5948776,2.2974937,-2.6437414,-2.499546,-2.9453745,0.0,0.0,0.0,0.6056492328643799,0.6056492328643799,link6
1762900122.6942694,ddpg_train,FAR,train,21,17,-3.1594622827604524,0,418,1,-0.08,-0.081,0.512,3.1413124,-0.6094051,2.3677084,-2.568975,-2.4678311,-2.8984895,0.0,0.0,0.0,0.5996668934822083,0.5996668934822083,link6
1762900124.0767684,ddpg_train,FAR,train,21,18,-3.3090764904183723,0,419,1,-0.08,-0.075,0.538,3.1415572,-0.5792473,2.3588557,-2.4235425,-2.6851757,-2.9536278,0.0,0.0,0.0,0.5829010605812073,0.5829010605812073,link6
1762900125.4546607,ddpg_train,FAR,train,21,19,-3.247446599897465,0,420,1,-0.068,-0.071,0.53,3.1413875,-0.59559035,2.390587,-2.4374945,-2.7320206,-2.9605384,0.0,0.0,0.0,0.5936846733093262,0.5936846733093262,link6
1762900129.1019018,ddpg_train,FAR,train,22,0,-4.214439255417284,0,421,1,-0.142,-0.058,0.683,3.0241606,-0.55453926,2.2296274,-1.3407812,-2.8074107,-1.5823398,0.0,0.0,0.0,0.5852301120758057,0.5852301120758057,link6
1762900130.4925745,ddpg_train,FAR,train,22,1,-3.4920093278217843,0,422,1,-0.067,-0.055,0.573,3.141348,-0.60208064,2.3901446,-1.5204859,-3.013391,-2.4315445,0.0,0.0,0.0,0.5816398859024048,0.5816398859024048,link6
1762900131.8797092,ddpg_train,FAR,train,22,2,-3.3845151899694588,0,423,1,-0.059,-0.048,0.556,3.1412902,-0.61069316,2.4399378,-1.6185814,-3.0652094,-2.921397,0.0,0.0,0.0,0.5658091902732849,0.5658091902732849,link6
1762900133.2638788,ddpg_train,FAR,train,22,3,-3.1069271345115452,0,424,1,-0.053,-0.064,0.508,3.1415124,-0.58692086,2.5346842,-1.8832595,-2.9266958,-2.5671268,0.0,0.0,0.0,0.5603823661804199,0.5603823661804199,link6
1762900134.6552222,ddpg_train,FAR,train,22,4,-2.9283592849547038,0,425,1,-0.035,-0.075,0.478,3.141342,-0.6150459,2.6003528,-1.9393332,-2.8206494,-2.6469162,0.0,0.0,0.0,0.5644468665122986,0.5644468665122986,link6
1762900136.0401309,ddpg_train,FAR,train,22,5,-3.1433046019863906,0,426,1,-0.058,-0.051,0.515,3.1415906,-0.576309,2.5140758,-2.1798036,-3.0226731,-2.6223304,0.0,0.0,0.0,0.5585986971855164,0.5585986971855164,link6
1762900137.4218488,ddpg_train,FAR,train,22,6,-3.064789637374564,0,427,1,-0.044,-0.043,0.504,3.141468,-0.5978214,2.5627596,-2.0518773,-3.1103632,-2.6305091,0.0,0.0,0.0,0.5607935190200806,0.5607935190200806,link6
1762900138.8084896,ddpg_train,FAR,train,22,7,-2.9802654367026973,0,428,1,-0.033,-0.039,0.491,3.1413307,-0.61911964,2.6099603,-2.039533,-3.14161,-2.596772,0.0,0.0,0.0,0.560694694519043,0.560694694519043,link6
1762900140.1906345,ddpg_train,FAR,train,22,8,-3.16640001049669,0,429,1,-0.058,-0.039,0.52,3.1415732,-0.5793687,2.520984,-2.2751615,-3.1415944,-2.520744,0.0,0.0,0.0,0.5607919692993164,0.5607919692993164,link6
1762900141.5716684,ddpg_train,FAR,train,22,9,-3.0246187009330376,0,430,1,-0.039,-0.039,0.498,3.1414344,-0.6054302,2.5806637,-2.1674156,-3.1416085,-2.504415,0.0,0.0,0.0,0.5607604384422302,0.5607604384422302,link6
1762900142.9598396,ddpg_train,FAR,train,22,10,-2.98024736578399,0,431,1,-0.033,-0.039,0.491,3.1413443,-0.6186129,2.6094358,-2.1056347,-3.141612,-2.446671,0.0,0.0,0.0,0.5607931613922119,0.5607931613922119,link6
1762900144.3453097,ddpg_train,FAR,train,22,11,-3.1531983456025574,0,432,1,-0.056,-0.039,0.518,3.141544,-0.5843717,2.5322611,-2.0308409,-3.1415966,-2.2879086,0.0,0.0,0.0,0.5607927441596985,0.5607927441596985,link6
1762900145.7291455,ddpg_train,FAR,train,22,12,-3.0117723906655094,0,433,1,-0.037,-0.039,0.496,3.1413763,-0.6117318,2.5934627,-2.0520723,-3.1416073,-2.4478493,0.0,0.0,0.0,0.5607913136482239,0.5607913136482239,link6
1762900147.1335425,ddpg_train,FAR,train,22,13,-3.030579445371971,0,434,1,-0.039,-0.039,0.499,3.1413803,-0.6120495,2.594522,-2.0984488,-3.1416087,-2.598897,0.0,0.0,0.0,0.5607760548591614,0.5607760548591614,link6
1762900148.5166354,ddpg_train,FAR,train,22,14,-3.1013295398224354,0,435,1,-0.049,-0.039,0.51,3.141504,-0.5924611,2.551003,-2.3366513,-3.1416016,-2.5521936,0.0,0.0,0.0,0.5607821345329285,0.5607821345329285,link6
1762900149.8962176,ddpg_train,FAR,train,22,15,-2.9802476609889244,0,436,1,-0.033,-0.039,0.491,3.141379,-0.61713755,2.6081233,-2.4144511,-3.1416159,-2.6010191,0.0,0.0,0.0,0.560791552066803,0.560791552066803,link6
1762900151.3441474,ddpg_train,FAR,train,22,16,-3.1449216421197823,0,437,1,-0.058,-0.043,0.516,3.1415846,-0.5776823,2.5173445,-2.6649876,-3.080084,-2.6880023,0.0,0.0,0.0,0.558544397354126,0.558544397354126,link6
1762900152.746128,ddpg_train,FAR,train,22,17,-3.0019759896864664,0,438,1,-0.038,-0.042,0.494,3.141455,-0.6059349,2.5847516,-2.6172943,-3.0972764,-2.5301692,0.0,0.0,0.0,0.5596302151679993,0.5596302151679993,link6
1762900154.124053,ddpg_train,FAR,train,22,18,-2.982045914178826,0,439,1,-0.035,-0.041,0.491,3.1414063,-0.6156929,2.607296,-2.5719013,-3.114661,-2.4044197,0.0,0.0,0.0,0.5607917904853821,0.5607917904853821,link6
1762900155.5044398,ddpg_train,FAR,train,22,19,-3.123503943244527,0,440,1,-0.058,-0.039,0.513,3.141542,-0.56699884,2.537756,-2.5568156,-3.141599,-2.3811026,0.0,0.0,0.0,0.5679985284805298,0.5679985284805298,link6
1762900159.2442987,ddpg_train,FAR,train,23,0,-8.277498341933365,0,441,1,0.048,0.074,1.374,0.48190033,-0.10118791,0.44166195,-0.3078479,-0.5518821,-0.15577683,0.0,0.0,0.0,0.5712082386016846,0.5712082386016846,link6
1762900160.6421158,ddpg_train,FAR,train,23,1,-3.1006378759643347,0,442,1,-0.061,-0.021,0.51,2.7585754,-0.592301,2.5495107,-1.5257684,-3.1109197,-0.75434715,0.0,0.0,0.0,0.572893500328064,0.572893500328064,link6
1762900162.0215979,ddpg_train,FAR,train,23,2,-2.9871916310596895,0,443,1,-0.044,-0.031,0.492,2.8576756,-0.6178112,2.6058686,-1.5214839,-3.11779,-1.3787739,0.0,0.0,0.0,0.5650457739830017,0.5650457739830017,link6
1762900163.3977454,ddpg_train,FAR,train,23,3,-3.180594547961745,0,444,1,-0.06,-0.041,0.522,3.1407657,-0.5768466,2.5152502,-1.9085788,-3.1232674,-2.5283751,0.0,0.0,0.0,0.5605406761169434,0.5605406761169434,link6
1762900164.7817562,ddpg_train,FAR,train,23,4,-3.190297590095949,0,445,1,-0.054,-0.037,0.525,3.0904055,-0.6008664,2.5033972,-2.2316327,-3.1359975,-2.648635,0.0,0.0,0.0,0.5750477313995361,0.5750477313995361,link6
1762900166.1843798,ddpg_train,FAR,train,23,5,-3.1212925568114063,0,446,1,-0.047,-0.035,0.514,3.0430026,-0.61488426,2.545476,-2.3829737,-3.1416068,-2.78083,0.0,0.0,0.0,0.5665650963783264,0.5665650963783264,link6
1762900167.5760806,ddpg_train,FAR,train,23,6,-3.2324345185670436,0,447,1,-0.061,-0.038,0.531,3.1258602,-0.5823319,2.4919019,-2.679209,-3.1415942,-3.1326663,0.0,0.0,0.0,0.5661519169807434,0.5661519169807434,link6
1762900168.9601264,ddpg_train,FAR,train,23,7,-3.0376921318299805,0,448,1,-0.04,-0.04,0.5,3.1395552,-0.60778177,2.5757506,-2.660675,-3.1252341,-3.1415873,0.0,0.0,0.0,0.5596551895141602,0.5596551895141602,link6
1762900170.3472207,ddpg_train,FAR,train,23,8,-3.022621719577552,0,449,1,-0.039,-0.041,0.498,3.1414158,-0.6132305,2.583214,-2.604399,-3.1149135,-3.141585,0.0,0.0,0.0,0.5783187747001648,0.5783187747001648,link6
1762900171.7338307,ddpg_train,FAR,train,23,9,-3.1704142027824447,0,450,1,-0.055,-0.039,0.521,3.1415064,-0.58805114,2.5222003,-2.4096527,-3.141597,-3.1415894,0.0,0.0,0.0,0.5607764720916748,0.5607764720916748,link6
1762900173.123997,ddpg_train,FAR,train,23,10,-2.986621887210492,0,451,1,-0.034,-0.039,0.492,3.1413922,-0.6148856,2.603569,-2.4961593,-3.1416156,-3.1415827,0.0,0.0,0.0,0.5607912540435791,0.5607912540435791,link6
1762900174.5076678,ddpg_train,FAR,train,23,11,-3.1855837724071123,0,452,1,-0.06,-0.039,0.523,3.14159,-0.5765056,2.5145829,-2.6088135,-3.141593,-3.1415927,0.0,0.0,0.0,0.5607823729515076,0.5607823729515076,link6
1762900175.8953252,ddpg_train,FAR,train,23,12,-3.076327315880212,0,453,1,-0.047,-0.039,0.506,3.1414907,-0.5965949,2.5636613,-2.640161,-3.1416054,-2.865926,0.0,0.0,0.0,0.5610693693161011,0.5610693693161011,link6
1762900177.2930596,ddpg_train,FAR,train,23,13,-2.9742825896823035,0,454,1,-0.033,-0.039,0.49,3.1413984,-0.6165206,2.6117868,-2.6798081,-3.1416173,-2.5613353,0.0,0.0,0.0,0.5607771277427673,0.5607771277427673,link6
1762900178.6739085,ddpg_train,FAR,train,23,14,-3.111100308756261,0,455,1,-0.053,-0.041,0.511,3.1415715,-0.580599,2.5245245,-2.8980148,-3.0753407,-2.2132769,0.0,0.0,0.0,0.5580543279647827,0.5580543279647827,link6
1762900180.0602832,ddpg_train,FAR,train,23,15,-3.000452209392326,0,456,1,-0.039,-0.039,0.494,3.1150968,-0.6058537,2.5868654,-2.8657687,-3.112795,-2.404363,0.0,0.0,0.0,0.5624837875366211,0.5624837875366211,link6
1762900181.4619274,ddpg_train,FAR,train,23,16,-2.9815489947706975,0,457,1,-0.037,-0.038,0.491,3.0898647,-0.61408806,2.6066825,-2.835237,-3.1247144,-2.578389,0.0,0.0,0.0,0.5604219436645508,0.5604219436645508,link6
1762900182.864613,ddpg_train,FAR,train,23,17,-2.887333761544195,0,458,1,-0.054,-0.046,0.473,2.9470735,-0.5882259,2.5430305,-2.7437325,-2.7804525,-3.087211,0.0,0.0,0.0,0.5649533271789551,0.5649533271789551,link6
1762900184.2832236,ddpg_train,FAR,train,23,18,-2.712945568274797,0,459,1,-0.046,-0.056,0.444,2.8285418,-0.61420256,2.605031,-2.5845158,-2.683059,-3.067255,0.0,0.0,0.0,0.5900356769561768,0.5900356769561768,link6
1762900185.6828191,ddpg_train,FAR,train,23,19,-2.9162796675605915,0,460,1,-0.066,-0.059,0.475,3.0520537,-0.57727146,2.48561,-2.7067575,-2.6241212,-2.7996464,0.0,0.0,0.0,0.5671973824501038,0.5671973824501038,link6
1762900189.3337407,ddpg_train,FAR,train,24,0,-7.658588444125388,0,461,1,0.053,0.197,1.258,0.8463886,-0.21337031,0.9088997,-0.66883796,-1.0522228,-0.48900652,0.0,0.0,0.0,0.6033579707145691,0.6033579707145691,link6
1762900190.7176116,ddpg_train,FAR,train,24,1,-3.8087505621605255,0,462,1,-0.106,-0.034,0.623,2.788909,-0.5762918,2.2497287,-1.5334722,-2.8986266,-1.7691299,0.0,0.0,0.0,0.6070780158042908,0.6070780158042908,link6
1762900192.120612,ddpg_train,FAR,train,24,2,-3.6174049762188445,0,463,1,-0.105,-0.059,0.589,2.906483,-0.58461195,2.269082,-2.147655,-2.7190769,-2.479366,0.0,0.0,0.0,0.6187281608581543,0.6187281608581543,link6
1762900193.5187743,ddpg_train,FAR,train,24,3,-3.4499285949607668,0,464,1,-0.096,-0.057,0.562,2.9578476,-0.5920257,2.2996514,-2.4890192,-2.6846287,-2.7168128,0.0,0.0,0.0,0.6029514670372009,0.6029514670372009,link6
1762900194.903316,ddpg_train,FAR,train,24,4,-3.6819015223465787,0,465,1,-0.109,-0.01,0.602,2.8082376,-0.5343358,2.2394369,-2.8876987,-2.981691,-2.437194,0.0,0.0,0.0,0.6148725152015686,0.6148725152015686,link6
1762900196.2809947,ddpg_train,FAR,train,24,5,-3.5784651795694553,0,466,1,-0.096,-0.027,0.586,2.9859512,-0.5481495,2.3125308,-2.8908439,-3.0494232,-2.3626895,0.0,0.0,0.0,0.6039345860481262,0.6039345860481262,link6
1762900197.665066,ddpg_train,FAR,train,24,6,-3.5933231880765932,0,467,1,-0.088,-0.04,0.589,3.1381412,-0.5566054,2.3244255,-2.8660283,-3.099946,-2.29884,0.0,0.0,0.0,0.6028387546539307,0.6028387546539307,link6
1762900199.0528338,ddpg_train,FAR,train,24,7,-3.8645147108899285,0,468,1,-0.091,-0.043,0.634,3.1415114,-0.56300795,2.184865,-2.8181806,-3.0491438,-2.025969,0.0,0.0,0.0,0.5961578488349915,0.5961578488349915,link6
1762900200.443902,ddpg_train,FAR,train,24,8,-3.7043894976652916,0,469,1,-0.087,-0.042,0.608,3.141334,-0.56591326,2.2691958,-2.7967103,-3.0768504,-1.9632835,0.0,0.0,0.0,0.6153930425643921,0.6153930425643921,link6
