QuanPM-doosan/DoosanRobot_Reinforcement_Learning/ros2_ws/rl_logs/20251118_101956_d4pg_train.csv
ts,run_tag,mode,phase,ep,step,reward,done,mem_len,learn_flag,ee_x,ee_y,ee_z,j1,j2,j3,j4,j5,j6,sphere_x,sphere_y,sphere_z,dist_out,signed,closest_link
1763436001.125655,d4pg_train,FAR,train,1,0,-8.312063484268156,0,1,0,-0.026,0.074,1.38,-0.17133947,0.014503328,-0.17109238,0.5130722,0.49994442,0.10690815,0.0,0.0,0.0,0.5588650703430176,0.5588650703430176,link6
1763436002.512767,d4pg_train,FAR,train,1,1,-8.278809508983306,0,2,0,-0.07,0.114,1.359,-0.21379097,0.008323099,-0.26318774,0.7499588,0.71775484,0.13701859,0.0,0.0,0.0,0.4069856107234955,0.4069856107234955,link6
1763436003.8938794,d4pg_train,FAR,train,1,2,-8.377858268818134,0,3,0,0.176,0.089,1.35,0.26151466,-0.06186603,0.3851234,0.06048433,0.21412683,0.20699964,0.0,0.0,0.0,0.32603394985198975,0.32603394985198975,link6
1763436005.2735345,d4pg_train,FAR,train,1,3,-8.94969466982849,0,4,0,0.349,0.005,1.251,0.091988824,0.07955039,0.32955772,-0.7068091,1.0652355,-1.0149983,0.0,0.0,0.0,0.14635898172855377,0.14635898172855377,link6
1763436006.6560955,d4pg_train,FAR,train,1,4,-7.822308416593164,0,5,0,0.41,-0.018,1.233,0.023165893,0.16963287,0.25193572,-0.64558953,1.1024107,-1.1877795,0.0,0.0,0.0,0.5287219882011414,0.5287219882011414,link6
1763436008.0533986,d4pg_train,FAR,train,1,5,-8.450693681469977,0,6,0,0.273,0.249,1.31,0.45401996,0.26139447,0.017357383,0.959179,0.72007525,-0.8364152,0.0,0.0,0.0,0.2868174612522125,0.2868174612522125,link6
1763436009.4356515,d4pg_train,FAR,train,1,6,-8.920488681142238,0,7,0,0.386,0.044,1.291,-0.052376494,0.12022963,0.30583966,0.3210401,0.54853266,-0.51184636,0.0,0.0,0.0,0.17941351234912872,0.17941351234912872,link6
1763436010.8293364,d4pg_train,FAR,train,1,7,-8.094601277585564,0,8,0,0.434,0.086,1.251,0.07756926,0.12313393,0.425778,0.48882768,0.58134943,-0.24953805,0.0,0.0,0.0,0.36268502473831177,0.36268502473831177,link6
1763436012.212593,d4pg_train,FAR,train,1,8,-9.508822245245112,0,9,0,0.347,0.407,1.205,0.6354503,0.2451329,0.43290865,1.174442,0.7511435,0.09721178,0.0,0.0,0.0,0.11402848362922668,0.11402848362922668,link6
1763436013.651076,d4pg_train,MID,train,1,9,-8.009692145519505,0,10,0,0.353,0.031,1.22,0.011982311,0.059152737,0.32713944,-0.105015144,1.2686405,0.58479214,0.0,0.0,0.0,0.2558342218399048,0.2558342218399048,link6
1763436015.0456746,d4pg_train,FAR,train,1,10,-8.29627457277083,0,11,0,0.09,0.032,1.379,-0.05187684,0.046929292,-0.042982414,-0.03829418,0.49955827,-0.09887323,0.0,0.0,0.0,0.7621448636054993,0.7621448636054993,link6
1763436016.4273953,d4pg_train,FAR,train,1,11,-8.109025157905878,0,12,0,-0.291,0.047,1.317,-0.034168556,-0.03638495,-0.31043428,0.10135956,-0.53534555,-0.6449112,0.0,0.0,0.0,0.6073399186134338,0.6073399186134338,link6
1763436017.8095315,d4pg_train,FAR,train,1,12,-8.426193041418093,0,13,0,0.043,0.063,1.392,0.43277726,0.007072041,0.0963279,0.25131145,0.010856533,0.037399773,0.0,0.0,0.0,0.43954986333847046,0.43954986333847046,link6
1763436019.1852055,d4pg_train,FAR,train,1,13,-8.419442558329838,0,14,0,0.057,0.038,1.393,-0.21259847,0.025937323,-0.0030087363,0.4736663,0.15715,-0.103868194,0.0,0.0,0.0,0.4578689932823181,0.4578689932823181,link6
1763436020.57514,d4pg_train,FAR,train,1,14,-8.884640158824425,0,15,0,0.102,0.02,1.386,-0.28262505,0.029633349,0.05295846,0.31059644,0.29562294,-0.29164675,0.0,0.0,0.0,0.22158797085285187,0.22158797085285187,link6
1763436021.9539473,d4pg_train,FAR,train,1,15,-8.13298908861379,0,16,0,-0.282,-0.064,1.324,0.30317897,-0.057612684,-0.28199703,0.24711011,-0.5633624,0.11146394,0.0,0.0,0.0,0.7971977591514587,0.7971977591514587,link6
1763436023.3353078,d4pg_train,FAR,train,1,16,-8.341213652311867,0,17,0,-0.023,0.019,1.379,-0.27237788,-0.08847062,0.057736155,-0.48597834,0.53947014,-0.41920543,0.0,0.0,0.0,0.43385428190231323,0.43385428190231323,link6
1763436024.7326522,d4pg_train,FAR,train,1,17,-8.838960133311788,0,18,0,0.238,-0.023,1.311,-0.07935906,-0.012934363,0.33195642,-0.3662856,0.7710133,-0.44620395,0.0,0.0,0.0,0.17799893021583557,0.17799893021583557,link6
1763436026.1127443,d4pg_train,FAR,train,1,18,-7.706755738626598,0,19,0,0.472,0.243,1.159,0.3829804,0.12186101,0.5905193,0.08445949,0.7052741,-0.29664528,0.0,0.0,0.0,0.44574713706970215,0.44574713706970215,link6
1763436027.4952478,d4pg_train,FAR,train,1,19,-9.482720838520901,0,20,0,0.343,0.137,1.316,0.24911559,0.14046845,0.32039076,0.4771149,0.19840696,0.142232,0.0,0.0,0.0,0.13613039255142212,0.13613039255142212,link6
1763436028.8723235,d4pg_train,FAR,train,1,20,-8.366162174793615,0,21,0,0.254,0.094,1.364,0.16429816,0.18742488,0.033629935,0.87143576,0.109930076,0.082423225,0.0,0.0,0.0,0.5408562421798706,0.5408562421798706,link6
1763436030.2586355,d4pg_train,FAR,train,1,21,-9.459197585753001,0,22,0,0.025,0.061,1.39,0.05264459,0.08442983,-0.12731792,1.0340307,0.19895378,0.050409123,0.0,0.0,0.0,0.15052373707294464,0.15052373707294464,link6
1763436031.6421194,d4pg_train,FAR,train,1,22,-8.341847658252318,0,23,0,0.038,0.015,1.383,-0.033244845,-0.086683325,0.17869754,-0.8140387,0.2596193,-0.3592817,0.0,0.0,0.0,0.48226284980773926,0.48226284980773926,link6
1763436033.0235786,d4pg_train,FAR,train,1,23,-8.287337062339997,0,24,0,0.136,0.125,1.352,0.577516,-0.0766054,0.4332611,0.054975316,0.10033401,-0.20384896,0.0,0.0,0.0,0.39122745394706726,0.39122745394706726,link6
1763436034.4092908,d4pg_train,FAR,train,1,24,-7.874966999868763,0,25,0,0.262,0.35,1.213,0.8102964,-0.012053656,0.75690514,0.41719475,0.21867283,-0.06700689,0.0,0.0,0.0,0.3585178554058075,0.3585178554058075,link6
1763436035.7875938,d4pg_train,FAR,train,1,25,-8.904670226714593,0,26,0,0.297,-0.11,1.338,-0.47126332,0.10390472,0.3002907,-0.4811304,0.04455897,-1.2239759,0.0,0.0,0.0,0.2032821625471115,0.2032821625471115,link6
1763436037.174427,d4pg_train,FAR,train,1,26,-8.716737575335877,0,27,0,0.324,-0.085,1.312,-0.34723014,0.040522996,0.41856694,-0.2836813,0.24137592,0.19772255,0.0,0.0,0.0,0.21332977712154388,0.21332977712154388,link6
1763436038.5565207,d4pg_train,FAR,train,1,27,-8.454731774739777,0,28,0,0.301,-0.102,1.325,-0.435276,0.05939705,0.3544779,-0.19589414,0.22086886,0.27783167,0.0,0.0,0.0,0.2885124683380127,0.2885124683380127,link6
1763436039.946033,d4pg_train,FAR,train,1,28,-8.320211689561791,0,29,0,0.26,-0.057,1.353,-0.339051,0.08650154,0.21419646,-0.0011862975,0.21655342,0.13103032,0.0,0.0,0.0,0.4675382077693939,0.4675382077693939,link6
1763436041.3277166,d4pg_train,FAR,train,1,29,-8.46705770020695,0,30,0,0.245,0.209,1.323,0.5904039,0.053222973,0.46436387,0.06854134,-0.20274395,0.47762716,0.0,0.0,0.0,0.2822517156600952,0.2822517156600952,link6
1763436042.7146292,d4pg_train,FAR,train,1,30,-9.76251701425676,0,31,0,0.437,0.231,1.193,0.4103982,0.04814287,0.8166019,0.4149728,-0.2066657,0.18231209,0.0,0.0,0.0,0.09091013669967651,0.09091013669967651,link6
1763436044.1556582,d4pg_train,MID,train,1,31,-7.704212858476684,0,32,0,0.512,0.129,1.141,0.21719244,0.050998587,0.91882396,0.53928834,-0.40908387,0.026114125,0.0,0.0,0.0,0.34374022483825684,0.34374022483825684,link6
1763436045.5448096,d4pg_train,FAR,train,1,32,-8.47470600633934,0,33,0,0.134,-0.025,1.386,-0.5391527,0.0742609,0.026382342,0.37712547,0.17944929,0.060840465,0.0,0.0,0.0,0.37415701150894165,0.37415701150894165,link6
1763436046.9520857,d4pg_train,FAR,train,1,33,-8.570271999444863,0,34,0,0.208,-0.08,1.354,-0.4848653,0.06569207,0.14172071,-0.22371791,0.48475403,-0.25697142,0.0,0.0,0.0,0.26972025632858276,0.26972025632858276,link6
1763436048.3413217,d4pg_train,FAR,train,1,34,-8.207598758748281,0,35,0,0.277,-0.063,1.328,-0.19975032,0.07820926,0.22384405,-0.58167154,0.5656373,-0.21702741,0.0,0.0,0.0,0.44339418411254883,0.44339418411254883,link6
1763436049.723943,d4pg_train,FAR,train,1,35,-8.408053411104888,0,36,0,0.07,0.059,1.387,0.34212667,0.0062722024,0.162661,0.2679106,-0.2145412,0.2361789,0.0,0.0,0.0,0.42984873056411743,0.42984873056411743,link6
1763436051.1087456,d4pg_train,FAR,train,1,36,-8.124826240711387,0,37,0,0.214,0.218,1.294,0.597378,-0.017995607,0.43153694,0.29615918,0.5970058,-0.11393466,0.0,0.0,0.0,0.3523994982242584,0.3523994982242584,link6
1763436052.4918187,d4pg_train,FAR,train,1,37,-8.088304932951955,0,38,0,0.356,0.299,1.167,0.48878166,0.06928343,0.5488375,0.3799794,1.0155028,-0.18816614,0.0,0.0,0.0,0.22052140533924103,0.22052140533924103,link6
1763436053.8785174,d4pg_train,FAR,train,1,38,-8.80026504095177,0,39,0,0.293,-0.036,1.333,-0.38588881,0.051110588,0.3354965,1.130883,0.33625415,-0.05859574,0.0,0.0,0.0,0.21062172949314117,0.21062172949314117,link6
1763436055.261619,d4pg_train,FAR,train,1,39,-8.374783047667117,0,40,0,0.126,0.061,1.384,0.24121656,0.07794648,0.09099445,0.08992223,-0.27673277,-0.8402729,0.0,0.0,0.0,0.5170378088951111,0.5170378088951111,link6
1763436056.643554,d4pg_train,FAR,train,1,40,-9.502365417734566,0,41,0,0.115,0.096,1.375,0.41423154,0.056052625,0.21139303,-0.03455553,-0.41681442,-0.8680698,0.0,0.0,0.0,0.14241643249988556,0.14241643249988556,link6
1763436058.0302107,d4pg_train,FAR,train,1,41,-7.998174966835092,0,42,0,0.299,0.398,1.217,0.81730676,0.117940314,0.56052125,0.4112896,0.36379912,-0.62568396,0.0,0.0,0.0,0.38264864683151245,0.38264864683151245,link6
1763436059.4095483,d4pg_train,FAR,train,1,42,-8.342513726418339,0,43,0,0.21,0.237,1.342,0.72842026,0.13799053,0.1328514,-0.1723471,0.24647875,-0.5234884,0.0,0.0,0.0,0.42772865295410156,0.42772865295410156,link6
1763436060.789391,d4pg_train,FAR,train,1,43,-8.37011427773245,0,44,0,0.03,0.086,1.385,0.8125078,-0.013414489,0.105531625,-0.055076502,0.2660393,-0.38237733,0.0,0.0,0.0,0.47756266593933105,0.47756266593933105,link6
1763436062.1760306,d4pg_train,FAR,train,1,44,-8.480678386370165,0,45,0,0.204,-0.093,1.352,-0.6575762,0.046774235,0.16891183,0.19467361,0.50855994,0.5785885,0.0,0.0,0.0,0.29646211862564087,0.29646211862564087,link6
1763436063.562918,d4pg_train,FAR,train,1,45,-10.194772519131782,0,46,0,0.375,-0.125,1.301,-0.43403825,0.13124292,0.36126745,0.34054357,0.22459343,0.053267725,0.0,0.0,0.0,0.08982421457767487,0.08982421457767487,link6
1763436065.0004258,d4pg_train,MID,train,1,46,-8.319235890541062,0,47,0,0.396,0.041,1.296,0.014566531,0.10185608,0.420599,0.41494042,0.12218391,0.122235425,0.0,0.0,0.0,0.32989242672920227,0.32989242672920227,link6
1763436066.399053,d4pg_train,FAR,train,1,47,-8.484318096081797,0,48,0,0.214,0.162,1.342,0.49006918,0.034942046,0.37280813,0.4476371,0.06209215,0.4095151,0.0,0.0,0.0,0.29082566499710083,0.29082566499710083,link6
1763436067.798367,d4pg_train,FAR,train,1,48,-8.419012918174568,0,49,0,0.3,0.137,1.272,0.46151352,0.027795298,0.38782692,-0.5894044,0.83868873,-0.18287209,0.0,0.0,0.0,0.223557248711586,0.223557248711586,link6
1763436069.1810853,d4pg_train,FAR,train,1,49,-8.103123994220965,0,50,0,0.243,0.12,1.302,0.3232067,0.06484673,0.16294922,-0.028245227,0.9638537,-0.1933892,0.0,0.0,0.0,0.3699486255645752,0.3699486255645752,link6
1763436070.560645,d4pg_train,FAR,train,1,50,-8.21524171443928,0,51,0,0.019,0.055,1.366,0.60048604,0.059975956,-0.20620158,-0.07415016,0.72767806,-0.09073681,0.0,0.0,0.0,0.604835033416748,0.604835033416748,link6
1763436071.9414995,d4pg_train,FAR,train,1,51,-10.009339847354628,0,52,0,0.415,0.111,1.267,0.20145197,0.15477489,0.31769177,-0.19395228,0.614598,0.36073822,0.0,0.0,0.0,0.09252018481492996,0.09252018481492996,link6
1763436073.385261,d4pg_train,MID,train,1,52,-9.025121133339495,0,53,0,0.413,0.083,1.222,0.10221977,0.0744066,0.4379058,0.0158731,0.90613407,0.15913998,0.0,0.0,0.0,0.13706651329994202,0.13706651329994202,link6
1763436074.7656293,d4pg_train,FAR,train,1,53,-8.79419589670547,0,54,0,0.434,0.12,1.229,0.15709095,0.06350758,0.56678605,0.27754334,0.4355799,-0.036354158,0.0,0.0,0.0,0.16704128682613373,0.16704128682613373,link6
1763436076.143219,d4pg_train,FAR,train,1,54,-8.312859268361173,0,55,0,0.023,0.103,1.375,0.85559714,-0.019975469,0.08095885,0.19795308,0.5004624,0.20143591,0.0,0.0,0.0,0.486409991979599,0.486409991979599,link6
1763436077.5373254,d4pg_train,FAR,train,1,55,-8.95958990998679,0,56,0,0.224,0.182,1.322,0.41036326,0.039056733,0.31592348,0.5610146,0.5527045,0.19025485,0.0,0.0,0.0,0.17828887701034546,0.17828887701034546,link6
1763436078.869094,d4pg_train,FAR,train,1,56,-7.993117434135066,0,57,0,0.337,0.098,1.28,0.09890029,0.030869752,0.38796902,0.25132328,0.688214,0.07037013,0.0,0.0,0.0,0.5127338171005249,0.5127338171005249,link6
1763436080.283317,d4pg_train,FAR,train,1,57,-8.364308600414354,0,58,0,0.203,0.188,1.331,0.5089226,0.07053259,0.41645068,-0.39011037,-0.6174193,-0.42790738,0.0,0.0,0.0,0.3181641697883606,0.3181641697883606,link6
1763436081.672333,d4pg_train,FAR,train,1,58,-8.7943492307866,0,59,0,0.328,0.096,1.32,0.11360777,0.08491912,0.31735358,0.3851844,0.34062326,-0.21923172,0.0,0.0,0.0,0.20985017716884613,0.20985017716884613,link6
1763436083.0602174,d4pg_train,FAR,train,1,59,-8.358603822202896,0,60,0,0.299,0.084,1.333,0.12290059,0.07151286,0.31259617,0.2930341,0.19528581,-0.16449833,0.0,0.0,0.0,0.35309189558029175,0.35309189558029175,link6
1763436086.7158966,d4pg_train,FAR,train,2,0,-8.538740690105868,0,61,0,0.304,0.197,1.29,0.34389022,0.052278668,0.44418845,0.91437596,0.50495535,0.08505261,0.0,0.0,0.0,0.23038731515407562,0.23038731515407562,link6
1763436088.1012957,d4pg_train,FAR,train,2,1,-8.371792003058223,0,62,0,0.138,0.075,1.385,0.2070685,0.124027796,-0.03819847,0.4318139,0.06510154,-0.0572114,0.0,0.0,0.0,0.6373832821846008,0.6373832821846008,link6
1763436089.477833,d4pg_train,FAR,train,2,2,-8.570468733938688,0,63,0,-0.051,0.028,1.381,0.22225185,0.11916376,-0.2748742,0.117822535,-0.059404522,-0.15127392,0.0,0.0,0.0,0.28927475214004517,0.28927475214004517,link6
1763436090.8601909,d4pg_train,FAR,train,2,3,-8.313493954303041,0,64,0,0.091,0.04,1.371,0.0009528865,-0.024756849,0.07540558,-0.004656816,0.5613728,-0.4011817,0.0,0.0,0.0,0.4329041838645935,0.4329041838645935,link6
1763436092.2518277,d4pg_train,FAR,train,2,4,-10.81356789467884,0,65,1,0.287,0.034,1.305,-0.052891802,-0.0030807212,0.3924141,0.14086232,0.6229933,0.23312826,0.0,0.0,0.0,0.058201566338539124,0.058201566338539124,link6
1763436093.7703118,d4pg_train,NEAR,train,2,5,-8.102992505107316,0,66,1,0.306,0.048,1.31,0.0058847778,0.019460732,0.34168094,0.14635673,0.49581847,0.2823687,0.0,0.0,0.0,0.5248750448226929,0.5248750448226929,link6
1763436095.2440412,d4pg_train,FAR,train,2,6,-8.314944568977726,0,67,1,0.153,0.213,1.345,0.77303475,0.084359266,0.1845483,0.23057133,0.4817885,-0.09998262,0.0,0.0,0.0,0.3984943926334381,0.3984943926334381,link6
1763436096.6316755,d4pg_train,FAR,train,2,7,-8.29947268611595,0,68,1,0.218,0.303,1.316,0.8390036,0.12676924,0.34098783,-0.07321251,0.05946705,0.040132467,0.0,0.0,0.0,0.39955344796180725,0.39955344796180725,link6
1763436098.0202608,d4pg_train,FAR,train,2,8,-9.671549464619401,0,69,1,0.181,0.265,1.313,0.72597945,0.08044314,0.4823184,-0.49754453,-0.5625393,0.28765225,0.0,0.0,0.0,0.11636914312839508,0.11636914312839508,link6
1763436099.4618616,d4pg_train,MID,train,2,9,-8.078629086654482,0,70,1,0.355,0.184,1.22,0.31379846,0.11955626,0.27270973,0.30097878,1.2620795,0.3567221,0.0,0.0,0.0,0.2588920593261719,0.2588920593261719,link6
1763436100.8435469,d4pg_train,FAR,train,2,10,-7.970076515061467,0,71,1,0.224,0.23,1.286,0.62437934,0.0848758,0.18288194,0.23956603,0.8927695,0.08242015,0.0,0.0,0.0,0.5669171214103699,0.5669171214103699,link6
1763436102.2920656,d4pg_train,FAR,train,2,11,-8.705752911181555,0,72,1,0.281,0.02,1.328,-0.062488247,-0.011191351,0.46598276,-0.3120521,0.04487172,-0.2089899,0.0,0.0,0.0,0.21884597837924957,0.21884597837924957,link6
1763436103.6941104,d4pg_train,FAR,train,2,12,-62.38810774149917,1,73,1,0.519,-0.112,1.111,-0.35834646,0.033530224,0.82670915,0.50999033,0.6450796,-0.490629,0.0,0.0,0.0,0.0,-0.03118319809436798,link6
1763436107.3687642,d4pg_train,FAR,train,3,0,-8.533328987496803,0,74,1,0.058,0.042,1.392,0.06075403,0.008166642,0.08706264,-0.009898694,0.06146062,0.008744387,0.0,0.0,0.0,0.3379722237586975,0.3379722237586975,link6
1763436108.7577875,d4pg_train,FAR,train,3,1,-8.344666328908852,0,75,1,-0.026,0.095,1.385,1.1570201,-0.033738397,0.14584732,1.009664,0.22229496,0.20894545,0.0,0.0,0.0,0.5901270508766174,0.5901270508766174,link6
1763436110.1400127,d4pg_train,FAR,train,3,2,-8.510248930770283,0,76,1,-0.036,0.015,1.393,0.89137805,-0.06747022,0.1226974,0.4702747,-0.032614566,-0.006081895,0.0,0.0,0.0,0.35134220123291016,0.35134220123291016,link6
1763436111.5265133,d4pg_train,FAR,train,3,3,-8.722415483702841,0,77,1,0.214,0.171,1.348,0.49407613,0.0732767,0.33935532,-0.34513804,-0.1985318,-0.19887811,0.0,0.0,0.0,0.23663590848445892,0.23663590848445892,link6
1763436112.9237754,d4pg_train,FAR,train,3,4,-8.160485231108892,0,78,1,0.069,0.228,1.332,1.1202784,-0.06921398,0.5146835,0.8564454,-0.023123594,-0.4803576,0.0,0.0,0.0,0.47870028018951416,0.47870028018951416,link6
1763436114.3016424,d4pg_train,FAR,train,3,5,-8.260177539362946,0,79,1,0.112,0.118,1.356,0.50948954,-0.06666845,0.30255613,0.19062388,0.39102304,-0.18639858,0.0,0.0,0.0,0.4330129027366638,0.4330129027366638,link6
1763436115.6947734,d4pg_train,FAR,train,3,6,-11.43366517914545,0,80,1,0.128,-0.013,1.346,-0.17003112,-0.03618823,0.1709826,-0.349977,0.78078866,0.2815479,0.0,0.0,0.0,0.04092155396938324,0.04092155396938324,link6
1763436117.1974723,d4pg_train,NEAR,train,3,7,-8.372770558415489,0,81,1,0.158,0.053,1.358,0.06342876,-0.011252266,0.18206586,0.07889407,0.53165174,0.103732646,0.0,0.0,0.0,0.3419489860534668,0.3419489860534668,link6
1763436118.6628687,d4pg_train,FAR,train,3,8,-8.371794840577781,0,82,1,0.149,0.048,1.371,0.03137061,-0.02254459,0.2390618,0.12085562,0.19325678,0.049374383,0.0,0.0,0.0,0.39916396141052246,0.39916396141052246,link6
1763436120.0517564,d4pg_train,FAR,train,3,9,-8.322069564333887,0,83,1,0.108,0.042,1.379,0.08944603,-0.042695552,0.28621843,0.1599569,-0.15557761,0.080146365,0.0,0.0,0.0,0.5577582716941833,0.5577582716941833,link6
1763436121.440925,d4pg_train,FAR,train,3,10,-8.384424585127682,0,84,1,0.168,0.165,1.326,0.56889224,-0.09648512,0.561121,-0.3598506,0.043016087,0.00920613,0.0,0.0,0.0,0.2800336182117462,0.2800336182117462,link6
1763436122.8231692,d4pg_train,FAR,train,3,11,-8.159801165189279,0,85,1,0.208,0.129,1.324,0.38855746,-0.08372521,0.5599842,-0.17423077,-0.08921878,-0.40020293,0.0,0.0,0.0,0.4120216369628906,0.4120216369628906,link6
1763436124.2288043,d4pg_train,FAR,train,3,12,-8.305398069221702,0,86,1,0.093,0.086,1.374,0.48414198,-0.06067115,0.3231988,0.26010716,-0.056924295,-0.5017677,0.0,0.0,0.0,0.5242336392402649,0.5242336392402649,link6
1763436125.6221046,d4pg_train,FAR,train,3,13,-7.9796066898179685,0,87,1,0.107,0.265,1.286,1.0495445,-0.03812139,0.4215174,-0.008368201,0.7436332,0.4507909,0.0,0.0,0.0,0.4194752275943756,0.4194752275943756,link6
1763436127.005026,d4pg_train,FAR,train,3,14,-7.999332794280295,0,88,1,0.143,0.336,1.271,1.0532459,-0.01620808,0.60579056,0.20972544,0.1831608,0.06931613,0.0,0.0,0.0,0.43453872203826904,0.43453872203826904,link6
1763436128.414403,d4pg_train,FAR,train,3,15,-7.85919678436259,0,89,1,0.164,0.377,1.239,1.126242,0.0061097257,0.7709454,0.54557544,-0.36030942,-0.28192604,0.0,0.0,0.0,0.5235522985458374,0.5235522985458374,link6
1763436129.798994,d4pg_train,FAR,train,3,16,-6.705164544303208,0,90,1,-0.025,0.432,1.029,1.5644435,-0.20785438,1.171316,-0.1006984,0.6826948,-0.36629137,0.0,0.0,0.0,0.6507576107978821,0.6507576107978821,link6
1763436131.222751,d4pg_train,FAR,train,3,17,-7.082048802179839,0,91,1,-0.024,0.463,1.083,1.5584377,-0.11359507,1.0092113,-0.12851997,0.6053981,-0.6178955,0.0,0.0,0.0,0.5902222990989685,0.5902222990989685,link6
1763436132.6064043,d4pg_train,FAR,train,3,18,-7.7627401488157615,0,92,1,0.012,0.425,1.21,1.4465886,-0.016629735,0.68688345,-0.03343704,0.49580064,-0.76965165,0.0,0.0,0.0,0.4303683340549469,0.4303683340549469,link6
1763436134.034239,d4pg_train,FAR,train,3,19,-7.429833837576375,0,93,1,0.246,0.37,1.137,1.0067196,-0.07485048,0.9152514,-0.8449781,0.5914817,0.08563397,0.0,0.0,0.0,0.3858996033668518,0.3858996033668518,link6
1763436135.445374,d4pg_train,FAR,train,3,20,-7.283391640353236,0,94,1,0.209,0.438,1.107,1.1709796,0.018895015,0.74970853,-0.56583565,1.006019,0.054527465,0.0,0.0,0.0,0.5078501105308533,0.5078501105308533,link6
1763436136.844523,d4pg_train,FAR,train,3,21,-7.537577954696305,0,95,1,0.08,0.345,1.193,1.2339053,0.008526845,0.44807392,-0.07792588,1.3061383,-0.05131936,0.0,0.0,0.0,0.4256852865219116,0.4256852865219116,link6
1763436138.2268338,d4pg_train,FAR,train,3,22,-8.205327873690678,0,96,1,0.215,0.082,1.294,0.2145793,-0.14051443,0.5468549,-0.06911247,0.5608502,0.66728646,0.0,0.0,0.0,0.27503523230552673,0.27503523230552673,link6
1763436139.6195097,d4pg_train,FAR,train,3,23,-8.23154147069685,0,97,1,-0.068,0.003,1.37,0.39778328,-0.14935713,0.055029366,-0.14818072,0.6086925,0.9304783,0.0,0.0,0.0,0.8178959488868713,0.8178959488868713,link6
1763436141.0037181,d4pg_train,FAR,train,3,24,-8.11779916210398,0,98,1,-0.34,-0.261,1.28,0.7405702,-0.20256034,-0.43717054,-0.15746595,0.61799836,0.8865236,0.0,0.0,0.0,0.5591806769371033,0.5591806769371033,link6
1763436142.4171984,d4pg_train,FAR,train,3,25,-8.344698536967494,0,99,1,0.195,0.011,1.326,-0.18011335,-0.15138276,0.5804856,0.58261657,0.09046423,0.24444085,0.0,0.0,0.0,0.28039276599884033,0.28039276599884033,link6
1763436143.7831676,d4pg_train,FAR,train,3,26,-8.072146187598117,0,100,1,0.106,0.09,1.333,0.3894192,-0.20204325,0.5378788,0.2142938,0.25542533,-0.050064716,0.0,0.0,0.0,0.509139895439148,0.509139895439148,link6
1763436145.201893,d4pg_train,FAR,train,3,27,-8.143533312448934,0,101,1,-0.017,0.034,1.352,0.98476297,-0.23162782,0.38988724,-0.11698296,0.4401864,-0.24026619,0.0,0.0,0.0,0.5173357129096985,0.5173357129096985,link6
1763436146.588374,d4pg_train,FAR,train,3,28,-8.048624528154164,0,102,1,-0.015,-0.033,1.336,1.6074369,-0.29209775,0.36539263,-0.29106137,0.70133406,-0.8065576,0.0,0.0,0.0,0.5126906037330627,0.5126906037330627,link6
1763436147.969524,d4pg_train,FAR,train,3,29,-7.9071530035572595,0,103,1,0.021,0.138,1.29,1.1867481,-0.21712132,0.5220929,-0.08700749,0.82515585,-0.286058,0.0,0.0,0.0,0.3713410496711731,0.3713410496711731,link6
1763436149.361744,d4pg_train,FAR,train,3,30,-7.554191770301005,0,104,1,0.234,0.33,1.182,0.83489966,-0.046502825,0.66330993,0.089326955,0.85958076,-0.018239142,0.0,0.0,0.0,0.44512325525283813,0.44512325525283813,link6
1763436150.7568796,d4pg_train,FAR,train,3,31,-8.008338750776003,0,105,1,-0.086,-0.069,1.328,0.93102413,-0.2826097,0.18350399,-0.13317122,0.9562808,0.05856175,0.0,0.0,0.0,0.595819890499115,0.595819890499115,link6
1763436152.1379397,d4pg_train,FAR,train,3,32,-8.1074458821695,0,106,1,-0.148,-0.273,1.313,1.1346703,-0.31577283,-0.072131395,-0.26537183,0.87394166,0.3772768,0.0,0.0,0.0,0.6023207306861877,0.6023207306861877,link6
1763436153.5336685,d4pg_train,FAR,train,3,33,-8.01265607137332,0,107,1,-0.117,-0.358,1.278,1.2818512,-0.30595753,-0.23068078,-0.27000082,1.0649803,0.5097204,0.0,0.0,0.0,0.5594030022621155,0.5594030022621155,link6
1763436154.929182,d4pg_train,FAR,train,3,34,-7.307805536200851,0,108,1,0.237,0.237,1.101,0.41501835,-0.2398087,1.0132822,0.7531835,1.0773002,-0.62072945,0.0,0.0,0.0,0.2519526779651642,0.2519526779651642,link6
1763436156.3194158,d4pg_train,FAR,train,3,35,-7.085385222358292,0,109,1,0.153,0.335,1.119,0.9509848,-0.16959657,0.8706644,0.5607205,1.0208762,-0.20795277,0.0,0.0,0.0,0.5677965879440308,0.5677965879440308,link6
1763436157.6979985,d4pg_train,FAR,train,3,36,-7.547990147263611,0,110,1,-0.001,0.273,1.226,1.3158067,-0.16766319,0.6174219,0.2581178,0.94360995,0.089136496,0.0,0.0,0.0,0.6047150492668152,0.6047150492668152,link6
1763436159.1902936,d4pg_train,FAR,train,3,37,-7.09859228697252,0,111,1,0.082,0.268,1.141,1.0735484,-0.22689502,0.8362245,0.1481688,1.2395759,-0.10892672,0.0,0.0,0.0,0.46234822273254395,0.46234822273254395,link6
1763436160.590345,d4pg_train,FAR,train,3,38,-7.750262402404642,0,112,1,0.007,0.18,1.275,1.3232285,-0.19655803,0.51339644,-0.0015085201,0.84031576,0.52385503,0.0,0.0,0.0,0.532716691493988,0.532716691493988,link6
1763436161.969425,d4pg_train,FAR,train,3,39,-8.286100176882453,0,113,1,-0.037,-0.004,1.371,1.4668146,-0.14111738,0.15359426,-0.04326724,0.5375101,0.937946,0.0,0.0,0.0,0.4472912847995758,0.4472912847995758,link6
1763436163.3962636,d4pg_train,FAR,train,3,40,-7.519384104646902,0,114,1,0.177,0.227,1.193,0.6439837,-0.2113339,0.772234,0.32909298,0.8811988,-0.5112366,0.0,0.0,0.0,0.3467522859573364,0.3467522859573364,link6
1763436164.7302592,d4pg_train,FAR,train,3,41,-7.533909111422387,0,115,1,0.211,0.212,1.184,0.5133329,-0.21681072,0.81841296,0.45134297,0.8732845,0.2932978,0.0,0.0,0.0,0.3185780346393585,0.3185780346393585,link6
1763436166.167326,d4pg_train,FAR,train,3,42,-7.345806992637546,0,116,1,0.19,0.213,1.188,0.5170129,-0.20764703,0.7615964,0.61044955,1.0260067,1.0476879,0.0,0.0,0.0,0.5811586976051331,0.5811586976051331,link6
1763436167.5565174,d4pg_train,FAR,train,3,43,-8.14631962914236,0,117,1,0.038,0.093,1.345,0.6370379,-0.16826895,0.35749084,0.19029036,0.5507674,-0.862921,0.0,0.0,0.0,0.4531201124191284,0.4531201124191284,link6
1763436168.9581366,d4pg_train,FAR,train,3,44,-8.176854311920986,0,118,1,-0.162,0.006,1.353,0.22937141,-0.28604996,0.17162806,0.050977644,0.62472254,-0.6074504,0.0,0.0,0.0,0.8751087784767151,0.8751087784767151,link6
1763436170.3431826,d4pg_train,FAR,train,3,45,-8.119170530922604,0,119,1,-0.429,0.022,1.274,0.047764,-0.4734073,0.037360776,0.0016756085,0.83810604,-0.20005774,0.0,0.0,0.0,0.455929160118103,0.455929160118103,link6
1763436171.7341695,d4pg_train,FAR,train,3,46,-8.321433071798387,0,120,1,0.04,-0.292,1.332,2.0294688,-0.21120065,-0.22088832,0.5830766,0.735613,-0.84879506,0.0,0.0,0.0,0.36035746335983276,0.36035746335983276,link6
1763436173.1345315,d4pg_train,FAR,train,3,47,-8.21480441966036,0,121,1,-0.133,-0.228,1.33,1.3116628,-0.31519526,0.09458795,0.49553886,0.79735315,-1.2427553,0.0,0.0,0.0,0.4145658314228058,0.4145658314228058,link6
1763436174.5143435,d4pg_train,FAR,train,3,48,-7.605311786027692,0,122,1,0.073,0.141,1.255,0.6597335,-0.29883286,0.6904156,0.330572,0.80130297,-1.3718174,0.0,0.0,0.0,0.5790120363235474,0.5790120363235474,link6
1763436175.8951838,d4pg_train,FAR,train,3,49,-7.4787153704756255,0,123,1,0.069,0.228,1.212,1.0463544,-0.24615222,0.7465898,0.15771437,0.9002146,-0.8188676,0.0,0.0,0.0,0.4303757846355438,0.4303757846355438,link6
1763436177.2797148,d4pg_train,FAR,train,3,50,-7.833365210269407,0,124,1,0.083,0.211,1.28,1.0729375,-0.17401731,0.6026695,-0.15074061,0.47148126,-0.6151255,0.0,0.0,0.0,0.4996623396873474,0.4996623396873474,link6
1763436178.663802,d4pg_train,FAR,train,3,51,-8.198458238114393,0,125,1,0.002,0.137,1.356,1.25958,-0.13649775,0.47666442,-0.36332774,-0.046812557,-0.25895134,0.0,0.0,0.0,0.5471218228340149,0.5471218228340149,link6
1763436180.0454285,d4pg_train,FAR,train,3,52,-7.797740307246139,0,126,1,-0.071,0.113,1.29,1.9583338,-0.3088043,0.83834,0.56947505,-0.23377505,-0.5661543,0.0,0.0,0.0,0.5717966556549072,0.5717966556549072,link6
1763436181.430639,d4pg_train,FAR,train,3,53,-7.5420941271891415,0,127,1,-0.066,0.179,1.237,1.6968293,-0.3496532,0.97739047,0.12948154,0.064380415,-0.7546284,0.0,0.0,0.0,0.504082441329956,0.504082441329956,link6
1763436182.8106534,d4pg_train,FAR,train,3,54,-7.231258932592251,0,128,1,0.033,0.248,1.178,1.3232774,-0.3528418,1.0738125,-0.33040252,0.25955644,-0.93272525,0.0,0.0,0.0,0.6792266368865967,0.6792266368865967,link6
1763436184.2070906,d4pg_train,FAR,train,3,55,-8.194411837633222,0,129,1,-0.081,-0.348,1.315,1.6222091,-0.33457142,-0.036589786,0.69019866,0.7692242,-0.74912024,0.0,0.0,0.0,0.5607739686965942,0.5607739686965942,link6
1763436185.5899253,d4pg_train,FAR,train,3,56,-8.056274382943412,0,130,1,-0.073,-0.156,1.327,1.5443305,-0.4015949,0.3914917,0.41848236,0.633642,-0.67659116,0.0,0.0,0.0,0.5203382968902588,0.5203382968902588,link6
1763436186.9773293,d4pg_train,FAR,train,3,57,-7.454207757977283,0,131,1,0.0,0.23,1.212,1.4058952,-0.33738,0.9707235,0.011202134,0.22874396,-0.8604589,0.0,0.0,0.0,0.4557804465293884,0.4557804465293884,link6
1763436188.368203,d4pg_train,FAR,train,3,58,-7.703811881171921,0,132,1,0.041,0.165,1.261,1.0440556,-0.3208475,0.81999964,0.19182712,0.35807735,-1.4954076,0.0,0.0,0.0,0.4277992844581604,0.4277992844581604,link6
1763436189.753743,d4pg_train,FAR,train,3,59,-7.073739687439264,0,133,1,0.037,0.337,1.128,1.2328204,-0.25286618,1.0103736,0.5170787,0.7632889,-0.973558,0.0,0.0,0.0,0.6620826125144958,0.6620826125144958,link6
1763436193.4006658,d4pg_train,FAR,train,4,0,-8.12879354195824,0,134,1,-0.073,-0.018,1.35,0.7400636,-0.32569438,0.5702833,0.09185371,-0.34280658,-0.8970636,0.0,0.0,0.0,0.572965145111084,0.572965145111084,link6
1763436194.783149,d4pg_train,FAR,train,4,1,-8.204711250205484,0,135,1,-0.208,-0.172,1.34,0.88119346,-0.40587968,0.40419668,-0.22909969,-0.400871,-0.3981847,0.0,0.0,0.0,0.7341569662094116,0.7341569662094116,link6
1763436196.1730487,d4pg_train,FAR,train,4,2,-8.20898790784738,0,136,1,-0.181,-0.193,1.335,1.0108047,-0.44762626,0.48014262,-0.31249708,-0.2869134,-0.34468123,0.0,0.0,0.0,0.47518742084503174,0.47518742084503174,link6
1763436197.5525472,d4pg_train,FAR,train,4,3,-8.233969516577375,0,137,1,0.056,-0.393,1.303,1.7251031,-0.3914254,0.19771092,0.47091407,-0.64478856,-0.5450362,0.0,0.0,0.0,0.4403068423271179,0.4403068423271179,link6
1763436198.930767,d4pg_train,FAR,train,4,4,-8.262692986697276,0,138,1,-0.058,-0.464,1.293,1.5147692,-0.5098439,0.22740822,0.42167905,-0.13962957,-0.76751196,0.0,0.0,0.0,0.5956400036811829,0.5956400036811829,link6
1763436200.3146517,d4pg_train,FAR,train,4,5,-8.02510892280322,0,139,1,-0.065,-0.264,1.308,1.4770038,-0.5597806,0.6151618,0.27474222,0.006192525,-0.69419247,0.0,0.0,0.0,0.6280942559242249,0.6280942559242249,link6
1763436201.7045023,d4pg_train,FAR,train,4,6,-8.228861721582057,0,140,1,-0.187,-0.43,1.288,1.205413,-0.3912658,0.039171886,0.2975474,-0.46044633,-1.690298,0.0,0.0,0.0,0.6975234150886536,0.6975234150886536,link6
1763436203.094749,d4pg_train,FAR,train,4,7,-7.8312555259818994,0,141,1,-0.049,-0.111,1.297,1.5537529,-0.5151784,0.8552388,-0.24978736,-0.20907526,-1.124106,0.0,0.0,0.0,0.5790826678276062,0.5790826678276062,link6
1763436204.4989703,d4pg_train,FAR,train,4,8,-6.788242776928395,0,142,1,-0.058,0.3,1.086,1.5953926,-0.3929097,1.3758374,-0.41816145,-0.20632485,-0.9258149,0.0,0.0,0.0,0.5560053586959839,0.5560053586959839,link6
1763436205.9689646,d4pg_train,FAR,train,4,9,-7.998020474937557,0,143,1,-0.068,-0.109,1.324,1.3747369,-0.351845,0.60916233,-0.06272699,-0.82501584,-0.3238307,0.0,0.0,0.0,0.570118248462677,0.570118248462677,link6
1763436207.4162064,d4pg_train,FAR,train,4,10,-8.230653853695946,0,144,1,-0.177,-0.269,1.333,1.102958,-0.38726154,0.3008408,0.026955377,-0.47353354,-0.2895162,0.0,0.0,0.0,0.7561069130897522,0.7561069130897522,link6
1763436208.8115153,d4pg_train,FAR,train,4,11,-8.267029267495383,0,145,1,-0.298,-0.428,1.27,1.0642582,-0.4699744,0.085844025,0.029543769,-0.34755835,-0.34633175,0.0,0.0,0.0,0.5130910873413086,0.5130910873413086,link6
1763436210.2008572,d4pg_train,FAR,train,4,12,-7.799065379842182,0,146,1,0.029,-0.344,1.245,1.6384033,-0.29664603,0.19584067,0.3946268,-1.4591048,-0.3887565,0.0,0.0,0.0,0.4662601351737976,0.4662601351737976,link6
1763436211.5869164,d4pg_train,FAR,train,4,13,-8.252498125045316,0,147,1,0.055,-0.373,1.319,1.7249928,-0.40309495,0.2130542,0.8420104,-0.38103744,-0.54745334,0.0,0.0,0.0,0.5448038578033447,0.5448038578033447,link6
1763436212.9942634,d4pg_train,FAR,train,4,14,-8.255611997389275,0,148,1,-0.043,-0.264,1.349,1.6927319,-0.3576127,0.22268105,1.0135577,0.3554438,-0.71188307,0.0,0.0,0.0,0.7121182084083557,0.7121182084083557,link6
1763436214.3875778,d4pg_train,FAR,train,4,15,-8.105509418833956,0,149,1,-0.123,-0.214,1.326,1.1982353,-0.46748796,0.5706453,0.07243547,-0.41632804,-0.3314718,0.0,0.0,0.0,0.5964328050613403,0.5964328050613403,link6
1763436215.7741215,d4pg_train,FAR,train,4,16,-8.031455762730712,0,150,1,-0.264,-0.51,1.209,1.1437587,-0.5726367,0.26048553,0.113565564,-0.8223462,0.10138198,0.0,0.0,0.0,0.8885847330093384,0.8885847330093384,link6
1763436217.161695,d4pg_train,FAR,train,4,17,-7.364358586594644,0,151,1,-0.424,-0.714,0.903,1.056598,-0.65360934,-0.22537513,0.18356681,-1.3308154,0.45366672,0.0,0.0,0.0,0.7209249138832092,0.7209249138832092,link6
1763436218.5821443,d4pg_train,FAR,train,4,18,-7.486490293864723,0,152,1,-0.155,-0.053,1.235,1.1457236,-0.441925,0.8744699,-0.74939257,-1.3491547,-0.3989622,0.0,0.0,0.0,0.6066990494728088,0.6066990494728088,link6
1763436219.9668732,d4pg_train,FAR,train,4,19,-7.355093884892709,0,153,1,-0.07,0.028,1.218,1.3506074,-0.45572314,1.096287,-0.28428808,-1.0873876,-0.7481769,0.0,0.0,0.0,0.5017440319061279,0.5017440319061279,link6
1763436221.3809667,d4pg_train,FAR,train,4,20,-7.476771600224952,0,154,1,-0.002,0.01,1.244,1.552492,-0.47785324,1.033905,0.4422554,-0.77629095,-1.1445365,0.0,0.0,0.0,0.598980188369751,0.598980188369751,link6
1763436222.7621553,d4pg_train,FAR,train,4,21,-7.716576771216693,0,155,1,-0.331,0.036,1.242,-0.11438563,-0.42282018,0.45230618,0.2753305,-1.45377,-0.5123627,0.0,0.0,0.0,0.8144508600234985,0.8144508600234985,link6
1763436224.1512072,d4pg_train,FAR,train,4,22,-7.727138870008111,0,156,1,-0.454,0.007,1.205,0.059309416,-0.5169917,0.40978077,0.11854832,-1.3675045,-0.40651792,0.0,0.0,0.0,0.8627811074256897,0.8627811074256897,link6
1763436225.5493,d4pg_train,FAR,train,4,23,-7.824763059915729,0,157,1,-0.102,-0.521,1.189,1.3889652,-0.3733966,-0.039590277,0.2941347,-1.1710399,-1.4572787,0.0,0.0,0.0,0.6038220524787903,0.6038220524787903,link6
1763436226.9443784,d4pg_train,FAR,train,4,24,-7.4215340024569505,0,158,1,-0.379,-0.119,1.171,0.34867486,-0.4500008,0.39217195,0.11685121,-1.8658726,-1.0855106,0.0,0.0,0.0,0.7699483633041382,0.7699483633041382,link6
1763436228.356895,d4pg_train,FAR,train,4,25,-7.320898033069774,0,159,1,-0.204,0.0,1.184,0.16945712,-0.42803386,0.7445686,0.04614003,-1.9720945,-0.80162257,0.0,0.0,0.0,0.37967029213905334,0.37967029213905334,link6
1763436229.7430837,d4pg_train,FAR,train,4,26,-7.285628094283218,0,160,1,-0.213,-0.242,1.17,1.2248275,-0.36192718,0.29326782,-0.78759176,-2.0771606,-0.2796061,0.0,0.0,0.0,0.7128846049308777,0.7128846049308777,link6
1763436231.1556492,d4pg_train,FAR,train,4,27,-7.521461101241937,0,161,1,-0.326,-0.42,1.135,1.1420285,-0.4199866,0.004276959,-0.73478806,-1.628024,0.26026326,0.0,0.0,0.0,0.8235229849815369,0.8235229849815369,link6
1763436232.5566168,d4pg_train,FAR,train,4,28,-7.6573286583702975,0,162,1,-0.5,-0.21,1.15,0.51881456,-0.434631,0.08112375,-0.7783093,-1.4917201,0.19811453,0.0,0.0,0.0,0.5164013504981995,0.5164013504981995,link6
1763436233.987564,d4pg_train,FAR,train,4,29,-7.439530111641202,0,163,1,-0.607,-0.155,1.07,0.28330016,-0.41716576,-0.19076413,0.1629454,-1.4896966,-0.4830796,0.0,0.0,0.0,1.10823655128479,1.10823655128479,link6
1763436235.3815145,d4pg_train,FAR,train,4,30,-7.657803330223134,0,164,1,-0.649,-0.123,1.092,0.25055382,-0.4645448,-0.081964925,0.12639922,-1.242867,-0.26641107,0.0,0.0,0.0,0.9565616250038147,0.9565616250038147,link6
1763436236.7822192,d4pg_train,FAR,train,4,31,-7.553264345626899,0,165,1,-0.562,-0.345,1.072,0.59528166,-0.4815642,-0.11742228,0.18046692,-1.408437,-0.09093955,0.0,0.0,0.0,0.7978184819221497,0.7978184819221497,link6
1763436238.1743824,d4pg_train,FAR,train,4,32,-7.380225337391176,0,166,1,-0.601,-0.174,1.059,0.29398257,-0.26771167,-0.51516324,0.267816,-1.1523306,-0.3268963,0.0,0.0,0.0,1.0995616912841797,1.0995616912841797,link6
1763436239.5636945,d4pg_train,FAR,train,4,33,-7.42183068902994,0,167,1,-0.512,-0.27,1.093,0.7174162,-0.36859918,-0.20553404,-0.80219764,-1.6041042,-0.901638,0.0,0.0,0.0,0.8532119393348694,0.8532119393348694,link6
1763436240.94596,d4pg_train,FAR,train,4,34,-7.452243401109984,0,168,1,-0.517,-0.228,1.106,0.58448017,-0.45389482,0.008611181,-0.5409957,-1.6854166,-0.8851285,0.0,0.0,0.0,0.9494687914848328,0.9494687914848328,link6
1763436242.343911,d4pg_train,FAR,train,4,35,-7.1259981316363215,0,169,1,-0.48,-0.134,1.078,0.40614694,-0.20100355,-0.4119669,-0.22308998,-1.7585615,-0.7339367,0.0,0.0,0.0,0.9785435795783997,0.9785435795783997,link6
1763436243.755781,d4pg_train,FAR,train,4,36,-7.103464594554947,0,170,1,-0.412,-0.077,1.107,0.33945298,-0.44459057,0.2770185,-0.2986364,-2.3370683,-0.71845675,0.0,0.0,0.0,0.8236055970191956,0.8236055970191956,link6
1763436245.1445067,d4pg_train,FAR,train,4,37,-7.053767491021164,0,171,1,-0.507,-0.15,1.05,0.47385997,-0.5248139,0.11839516,-0.6763931,-2.284997,-0.93883467,0.0,0.0,0.0,1.0536983013153076,1.0536983013153076,link6
1763436246.537486,d4pg_train,FAR,train,4,38,-7.112376588372559,0,172,1,-0.708,0.251,0.917,-0.18719642,-0.43345293,-0.5656997,-0.6797499,-1.3593845,-1.8811603,0.0,0.0,0.0,1.2202937602996826,1.2202937602996826,link6
1763436247.928695,d4pg_train,FAR,train,4,39,-7.43554903880448,0,173,1,-0.654,0.058,1.051,0.149741,-0.4381925,-0.33430633,-1.2136627,-1.4653308,-0.786731,0.0,0.0,0.0,1.0161066055297852,1.0161066055297852,link6
1763436249.3798223,d4pg_train,FAR,train,4,40,-7.247951390421813,0,174,1,-0.568,0.255,1.034,-0.25272742,-0.46289563,-0.23431793,-1.1381552,-1.8715326,-0.30317882,0.0,0.0,0.0,0.6715359091758728,0.6715359091758728,link6
1763436250.7621202,d4pg_train,FAR,train,4,41,-7.268193120580585,0,175,1,-0.213,0.095,1.188,-0.23922335,-0.38397488,0.58185625,-0.01649551,-2.0250795,-0.25274143,0.0,0.0,0.0,0.709816575050354,0.709816575050354,link6
1763436252.154342,d4pg_train,FAR,train,4,42,-7.126457976138771,0,176,1,-0.226,0.277,1.132,-0.60182923,-0.29331458,0.027890902,-0.7174725,-2.289711,-0.52221805,0.0,0.0,0.0,0.7181958556175232,0.7181958556175232,link6
1763436253.545355,d4pg_train,FAR,train,4,43,-6.94616752388755,0,177,1,-0.344,0.32,1.058,-0.54227936,-0.32108834,-0.22184362,-0.6163448,-2.3295798,-0.5064092,0.0,0.0,0.0,0.9418037533760071,0.9418037533760071,link6
1763436254.9340656,d4pg_train,FAR,train,4,44,-6.913635283628231,0,178,1,-0.199,0.341,1.082,-0.86569965,-0.2987205,-0.120425574,-0.48625287,-2.567324,-0.5271983,0.0,0.0,0.0,0.7441412806510925,0.7441412806510925,link6
1763436256.3284464,d4pg_train,FAR,train,4,45,-6.272746259511631,0,179,1,-0.551,0.207,0.864,-0.20770615,-0.38751546,-0.747305,-0.9047372,-2.7951758,-0.73949814,0.0,0.0,0.0,1.0792186260223389,1.0792186260223389,link6
1763436257.71523,d4pg_train,FAR,train,4,46,-6.217742930655736,0,180,1,-0.625,0.162,0.81,-0.12685683,-0.46366966,-0.7335265,-0.86549413,-2.6753652,-0.9217293,0.0,0.0,0.0,0.7527683973312378,0.7527683973312378,link6
1763436259.1604464,d4pg_train,FAR,train,4,47,-6.683187383660902,0,181,1,-0.189,0.301,1.055,-0.8558084,-0.19513461,-0.4374416,-0.981016,-2.9819322,-0.55321336,0.0,0.0,0.0,0.7228066921234131,0.7228066921234131,link6
1763436260.5514774,d4pg_train,FAR,train,4,48,-6.917255552759949,0,182,1,-0.312,0.217,1.088,-0.2795381,-0.19157761,-0.33795747,-1.0975599,-2.3703713,-0.8596559,0.0,0.0,0.0,0.7616281509399414,0.7616281509399414,link6
1763436261.947128,d4pg_train,FAR,train,4,49,-7.161804656594615,0,183,1,-0.322,0.166,1.137,-0.12838413,-0.18142122,-0.25250393,-1.017252,-2.087148,-0.9920722,0.0,0.0,0.0,0.7878627181053162,0.7878627181053162,link6
1763436263.3278763,d4pg_train,FAR,train,4,50,-6.85918715280313,0,184,1,-0.275,0.135,1.101,-0.17116104,-0.20072632,-0.24902944,-1.4301683,-2.7733846,-0.7994256,0.0,0.0,0.0,0.7714361548423767,0.7714361548423767,link6
1763436264.7305317,d4pg_train,FAR,train,4,51,-6.804141992276749,0,185,1,-0.197,0.288,1.077,-0.7742464,-0.25397635,-0.27832857,-1.5313052,-2.9019935,-1.1673131,0.0,0.0,0.0,0.607848048210144,0.607848048210144,link6
1763436266.120813,d4pg_train,FAR,train,4,52,-6.811757769726445,0,186,1,-0.033,0.423,1.041,-1.3110996,-0.31235906,-0.3506243,-1.5523381,-2.833615,-1.0138446,0.0,0.0,0.0,0.43140581250190735,0.43140581250190735,link6
1763436267.5088372,d4pg_train,FAR,train,4,53,-6.728036287120761,0,187,1,0.036,0.58,0.958,-1.393667,-0.35952833,-0.5792116,-1.351074,-2.256006,-1.0563337,0.0,0.0,0.0,0.6868996024131775,0.6868996024131775,link6
1763436268.8995945,d4pg_train,FAR,train,4,54,-6.5769790659614,0,188,1,0.02,0.566,0.936,-1.4425485,-0.41043514,-0.5237506,-1.2689987,-2.6751654,-0.87569433,0.0,0.0,0.0,0.5957241654396057,0.5957241654396057,link6
1763436270.3050742,d4pg_train,FAR,train,4,55,-6.70052490531787,0,189,1,0.043,0.519,0.975,-1.5106325,-0.39878368,-0.41108346,-1.1730777,-2.834706,-0.83679754,0.0,0.0,0.0,0.4292900264263153,0.4292900264263153,link6
1763436271.6931715,d4pg_train,FAR,train,4,56,-6.5631599997520125,0,190,1,-0.09,0.368,1.025,-1.1083437,-0.13604638,-0.6379585,-1.1974757,-2.7438688,-0.21348254,0.0,0.0,0.0,0.6640401482582092,0.6640401482582092,link6
1763436273.0843298,d4pg_train,FAR,train,4,57,-6.6906572636009525,0,191,1,-0.079,0.38,1.041,-1.116013,-0.16307108,-0.5469301,-1.4298577,-2.635278,-0.58674616,0.0,0.0,0.0,0.5312231183052063,0.5312231183052063,link6
1763436274.4670918,d4pg_train,FAR,train,4,58,-6.884639681874712,0,192,1,-0.033,0.312,1.102,-1.106655,-0.14335662,-0.40249208,-1.542147,-2.5460598,-0.73383826,0.0,0.0,0.0,0.6225292682647705,0.6225292682647705,link6
1763436275.8725252,d4pg_train,FAR,train,4,59,-6.75734967949008,0,193,1,-0.083,0.333,1.071,-1.1575747,-0.22140108,-0.34826016,-1.4067696,-2.9907694,-0.17201084,0.0,0.0,0.0,0.6265969276428223,0.6265969276428223,link6
1763436279.5221891,d4pg_train,FAR,train,5,0,-8.290192192999285,0,194,1,-0.115,0.038,1.376,0.11237282,-0.03716752,-0.02121887,-0.1900951,-0.54404145,-0.16307493,0.0,0.0,0.0,0.7696502804756165,0.7696502804756165,link6
1763436280.9078932,d4pg_train,FAR,train,5,1,-7.580073101255532,0,195,1,-0.111,0.242,1.233,-0.78437644,-0.058261123,-0.14754443,-0.49157554,-1.5829724,-0.5553713,0.0,0.0,0.0,0.606891930103302,0.606891930103302,link6
1763436282.3018441,d4pg_train,FAR,train,5,2,-7.658565029464267,0,196,1,0.202,0.076,1.239,-1.9916008,-0.090464234,-0.027928531,-1.2065384,-1.7384181,0.117968805,0.0,0.0,0.0,0.3793144226074219,0.3793144226074219,link6
1763436283.690405,d4pg_train,FAR,train,5,3,-7.421121200774416,0,197,1,0.152,-0.064,1.217,-2.3815858,-0.071309805,-0.014512223,-1.688266,-2.006643,0.5497714,0.0,0.0,0.0,0.4558742344379425,0.4558742344379425,link6
1763436285.2154973,d4pg_train,FAR,train,5,4,-6.8674658882764605,0,198,1,0.183,0.435,1.035,-1.6652509,-0.05605766,-0.8623428,-1.1783322,-1.6503676,-0.5199911,0.0,0.0,0.0,0.47705280780792236,0.47705280780792236,link6
1763436286.5964322,d4pg_train,FAR,train,5,5,-6.9638859018197214,0,199,1,0.193,0.408,1.05,-1.682249,-0.056486066,-0.69350797,-1.0546116,-1.8531241,-0.42747864,0.0,0.0,0.0,0.3848997950553894,0.3848997950553894,link6
1763436287.978829,d4pg_train,FAR,train,5,6,-6.723663224942011,0,200,1,0.047,0.166,1.099,-1.2998279,0.114460066,-0.5960473,-1.0806625,-2.6648812,0.3859165,0.0,0.0,0.0,0.4627280831336975,0.4627280831336975,link6
1763436289.3667314,d4pg_train,FAR,train,5,7,-7.310291847089426,0,201,1,0.115,0.076,1.197,-1.4842217,0.11201759,-0.534284,-2.3703992,-2.0121675,-0.19941318,0.0,0.0,0.0,0.41248804330825806,0.41248804330825806,link6
1763436290.7538874,d4pg_train,FAR,train,5,8,-7.215061389538509,0,202,1,0.128,0.148,1.17,-1.6090425,0.1092395,-0.7761302,-2.2163026,-2.0368574,-0.04559485,0.0,0.0,0.0,0.39366838335990906,0.39366838335990906,link6
1763436292.1396594,d4pg_train,FAR,train,5,9,-6.716247777663317,0,203,1,0.012,0.116,1.107,-1.077283,0.13111882,-0.5686948,-1.4847448,-2.9282897,0.149426,0.0,0.0,0.0,0.4893036186695099,0.4893036186695099,link6
1763436293.5301602,d4pg_train,FAR,train,5,10,-6.791028893490977,0,204,1,0.076,0.1,1.111,-1.3854105,0.1895234,-0.74597347,-2.1394536,-2.5805814,0.15330096,0.0,0.0,0.0,0.410361111164093,0.410361111164093,link6
1763436294.9282832,d4pg_train,FAR,train,5,11,-6.952551208525098,0,205,1,0.131,0.115,1.095,-1.6970587,0.19853073,-0.87738866,-1.95495,-2.4032755,-0.100936234,0.0,0.0,0.0,0.2814001739025116,0.2814001739025116,link6
1763436296.3090405,d4pg_train,FAR,train,5,12,-6.78500438826211,0,206,1,0.132,0.156,1.093,-1.7906853,0.07337414,-0.6501834,-1.5530943,-2.6722429,0.5545172,0.0,0.0,0.0,0.3786548674106598,0.3786548674106598,link6
1763436297.7065942,d4pg_train,FAR,train,5,13,-6.719594764137992,0,207,1,0.219,0.073,1.042,-2.3011289,0.18494818,-0.9921249,-1.6360817,-2.4458756,-0.13649696,0.0,0.0,0.0,0.27614307403564453,0.27614307403564453,link6
1763436299.0892794,d4pg_train,FAR,train,5,14,-6.254898387066644,0,208,1,0.227,0.018,1.002,-2.4574864,0.25230175,-1.1777403,-1.7497036,-2.421014,-0.62025964,0.0,0.0,0.0,0.4021790623664856,0.4021790623664856,link6
1763436300.4778407,d4pg_train,FAR,train,5,15,-7.206571239170198,0,209,1,0.136,-0.017,1.172,-2.009472,0.22043094,-0.7066218,-2.1563628,-2.044452,-0.9334064,0.0,0.0,0.0,0.367576539516449,0.367576539516449,link6
1763436301.8582447,d4pg_train,FAR,train,5,16,-7.117833434549583,0,210,1,0.116,-0.072,1.164,-1.8940281,0.26177457,-0.5816239,-1.8815267,-2.2304657,-0.985536,0.0,0.0,0.0,0.40633541345596313,0.40633541345596313,link6
1763436303.2464185,d4pg_train,FAR,train,5,17,-6.925817415102795,0,211,1,0.083,-0.135,1.131,-1.7860522,0.34022638,-0.53413785,-1.5926642,-2.5594718,-0.8103402,0.0,0.0,0.0,0.4219556450843811,0.4219556450843811,link6
1763436304.634979,d4pg_train,FAR,train,5,18,-6.777806652770749,0,212,1,0.256,0.141,1.004,-2.1784291,0.16658106,-1.042827,-1.2603599,-2.247953,-0.16978832,0.0,0.0,0.0,0.2295081615447998,0.2295081615447998,link6
1763436306.0197575,d4pg_train,FAR,train,5,19,-6.633952017352408,0,213,1,0.174,0.118,1.073,-1.9094851,0.176859,-0.80167955,-1.4462781,-2.4563556,-0.35352594,0.0,0.0,0.0,0.42194032669067383,0.42194032669067383,link6
1763436307.405239,d4pg_train,FAR,train,5,20,-6.899284113517083,0,214,1,0.083,-0.09,1.128,-1.5501612,0.2774584,-0.435771,-1.6276876,-2.7884812,-0.38298246,0.0,0.0,0.0,0.40004557371139526,0.40004557371139526,link6
1763436308.7934775,d4pg_train,FAR,train,5,21,-7.233939452396679,0,215,1,0.158,-0.066,1.163,-1.25454,0.2807222,-0.37166274,-1.5528262,-2.3202717,-0.003428572,0.0,0.0,0.0,0.332028329372406,0.332028329372406,link6
1763436310.1854835,d4pg_train,FAR,train,5,22,-7.5788821768093495,0,216,1,0.213,-0.167,1.18,-1.2391702,0.3095945,-0.1967741,-1.6254683,-2.0613213,-0.2317979,0.0,0.0,0.0,0.2764555811882019,0.2764555811882019,link6
1763436311.569047,d4pg_train,FAR,train,5,23,-6.126788662589318,0,217,1,-0.035,0.107,1.011,-0.8965717,0.30319852,-1.0737947,-1.9648888,-3.14059,0.1950532,0.0,0.0,0.0,0.5368902087211609,0.5368902087211609,link6
1763436312.96832,d4pg_train,FAR,train,5,24,-6.667541935950644,0,218,1,0.137,0.031,1.08,-2.1071699,0.2830618,-1.0182705,-2.2234404,-2.371798,-0.53813785,0.0,0.0,0.0,0.36270982027053833,0.36270982027053833,link6
1763436314.361247,d4pg_train,FAR,train,5,25,-6.7366251956761145,0,219,1,0.109,-0.06,1.111,-2.4203162,0.30302027,-0.8970693,-2.0995257,-2.3453805,-0.52786213,0.0,0.0,0.0,0.5151534080505371,0.5151534080505371,link6
1763436315.7444944,d4pg_train,FAR,train,5,26,-7.0750396093918155,0,220,1,-0.083,-0.151,1.164,-2.815084,0.21320428,-0.25506532,-1.8911202,-2.4327893,-0.04041522,0.0,0.0,0.0,0.5813575387001038,0.5813575387001038,link6
1763436317.1302795,d4pg_train,FAR,train,5,27,-6.81735235363987,0,221,1,0.04,-0.091,1.12,-2.184555,0.2968498,-0.64690894,-2.1079066,-2.6928923,0.3489286,0.0,0.0,0.0,0.42553967237472534,0.42553967237472534,link6
1763436318.516233,d4pg_train,FAR,train,5,28,-6.4818196193491,0,222,1,0.076,-0.001,1.066,-1.8752829,0.33259457,-0.91541266,-1.9895039,-2.8466341,0.33546272,0.0,0.0,0.0,0.42746835947036743,0.42746835947036743,link6
1763436319.918211,d4pg_train,FAR,train,5,29,-6.248139873284187,0,223,1,0.073,-0.028,1.027,-2.9959285,0.3294717,-1.0148859,-1.5423008,-3.1317787,-0.5077142,0.0,0.0,0.0,0.429315447807312,0.429315447807312,link6
1763436321.3839767,d4pg_train,FAR,train,5,30,-6.3925334356961425,0,224,1,0.051,-0.083,1.05,-2.6095088,0.40569273,-1.0136477,-1.8213822,-2.5900044,-0.6797745,0.0,0.0,0.0,0.43354904651641846,0.43354904651641846,link6
1763436322.77036,d4pg_train,FAR,train,5,31,-6.1761973222481314,0,225,1,0.046,0.084,1.016,-1.0892448,0.38104406,-1.1032315,-1.6361419,-2.8102648,-0.4966604,0.0,0.0,0.0,0.45436134934425354,0.45436134934425354,link6
1763436324.1834648,d4pg_train,FAR,train,5,32,-6.632352906773366,0,226,1,0.11,-0.03,1.08,-1.2019973,0.41256335,-0.80114305,-1.4955832,-2.7042694,-0.10619136,0.0,0.0,0.0,0.37606602907180786,0.37606602907180786,link6
1763436325.5723848,d4pg_train,FAR,train,5,33,-6.581847389199707,0,227,1,0.117,-0.079,1.074,-1.3192807,0.4633305,-0.82701284,-1.5576881,-2.682225,-0.013938721,0.0,0.0,0.0,0.4105420708656311,0.4105420708656311,link6
1763436326.9670415,d4pg_train,FAR,train,5,34,-6.438634293028418,0,228,1,0.208,0.166,0.998,-2.2917526,0.08631659,-0.9323813,-0.3250719,-2.9520519,-0.16692877,0.0,0.0,0.0,0.30307215452194214,0.30307215452194214,link6
1763436328.3620358,d4pg_train,FAR,train,5,35,-6.338691547740103,0,229,1,0.073,0.058,1.045,-1.9456705,0.29955834,-0.8980148,-0.48254707,-3.0414293,-0.5326523,0.0,0.0,0.0,0.47379010915756226,0.47379010915756226,link6
1763436329.8564513,d4pg_train,FAR,train,5,36,-6.383533606185901,0,230,1,0.01,-0.109,1.051,-1.9905735,0.47715086,-0.87811726,-0.8934026,-3.0059676,-0.5854601,0.0,0.0,0.0,0.47461122274398804,0.47461122274398804,link6
1763436331.2528043,d4pg_train,FAR,train,5,37,-5.955182748301314,0,231,1,0.062,0.084,0.979,-1.3640728,0.40594274,-1.2249506,-1.4558556,-2.8336627,-0.4695881,0.0,0.0,0.0,0.46485841274261475,0.46485841274261475,link6
1763436332.638374,d4pg_train,FAR,train,5,38,-6.056072813583939,0,232,1,0.074,0.104,0.983,-1.4980321,0.367438,-1.1756864,-1.2740984,-2.7593143,-0.3943489,0.0,0.0,0.0,0.3829895853996277,0.3829895853996277,link6
1763436334.0392897,d4pg_train,FAR,train,5,39,-6.326027428687309,0,233,1,0.111,0.076,1.034,-1.7994372,0.30565244,-0.9579497,-1.1663122,-2.7050745,-0.32459313,0.0,0.0,0.0,0.4272391200065613,0.4272391200065613,link6
1763436335.4409208,d4pg_train,FAR,train,5,40,-6.810274535464084,0,234,1,0.179,0.174,1.083,-1.7171649,0.29059088,-1.0393728,-1.1996286,-1.6013991,-0.92343646,0.0,0.0,0.0,0.35621747374534607,0.35621747374534607,link6
1763436336.8440127,d4pg_train,FAR,train,5,41,-5.476928132419672,0,235,1,0.107,0.404,0.81,-1.4697257,0.24015854,-1.5626031,-1.0629921,-1.4908592,-1.1420922,0.0,0.0,0.0,0.6419239640235901,0.6419239640235901,link6
1763436338.22742,d4pg_train,FAR,train,5,42,-6.260218801602338,0,236,1,0.008,0.153,1.026,-1.1157016,0.25643018,-0.95174444,-1.0839493,-2.8239956,-0.54129356,0.0,0.0,0.0,0.49347108602523804,0.49347108602523804,link6
1763436339.615239,d4pg_train,FAR,train,5,43,-6.704844435235375,0,237,1,0.087,0.043,1.099,-1.4122491,0.2689188,-0.76178,-1.8551829,-2.6728268,-0.5235159,0.0,0.0,0.0,0.40723615884780884,0.40723615884780884,link6
1763436341.005765,d4pg_train,FAR,train,5,44,-6.538892941505196,0,238,1,0.08,0.024,1.083,-1.4099313,0.3218602,-0.8852881,-1.9946018,-2.7591999,-0.49068314,0.0,0.0,0.0,0.5444616079330444,0.5444616079330444,link6
1763436342.3956454,d4pg_train,FAR,train,5,45,-5.526015135995272,0,239,1,-0.008,0.269,0.877,-1.3968801,0.1835516,-1.4127765,-1.6225404,-3.1426265,-1.3752997,0.0,0.0,0.0,0.543345034122467,0.543345034122467,link6
1763436343.787104,d4pg_train,FAR,train,5,46,-5.732232979211568,0,240,1,0.101,0.17,0.913,-1.5785673,0.35459414,-1.4386362,-1.6615118,-2.599551,-1.3866907,0.0,0.0,0.0,0.3671239912509918,0.3671239912509918,link6
1763436345.1739109,d4pg_train,FAR,train,5,47,-6.133185297874052,0,241,1,0.103,-0.02,1.013,-1.695308,0.49163052,-1.1893774,-1.9018135,-2.5703735,-1.3119849,0.0,0.0,0.0,0.539618968963623,0.539618968963623,link6
1763436346.574264,d4pg_train,FAR,train,5,48,-6.701387478571516,0,242,1,0.091,0.094,1.094,-1.8969547,0.28305125,-1.1711268,-2.9822998,-2.1694987,-1.4778404,0.0,0.0,0.0,0.4010569453239441,0.4010569453239441,link6
1763436347.9650807,d4pg_train,FAR,train,5,49,-5.794021191419844,0,243,1,0.066,0.19,0.938,-1.6768614,0.28086728,-1.4504048,-3.021889,-2.727872,-1.8074806,0.0,0.0,0.0,0.48773694038391113,0.48773694038391113,link6
1763436349.3543196,d4pg_train,FAR,train,5,50,-5.176109890474217,0,244,1,0.05,0.205,0.818,-1.633613,0.31706172,-1.659078,-2.9576275,-3.1419709,-1.9854181,0.0,0.0,0.0,0.38402143120765686,0.38402143120765686,link6
1763436350.7366803,d4pg_train,FAR,train,5,51,-5.6242507422348655,0,245,1,0.168,-0.009,0.893,-2.8904927,0.35236984,-1.4996375,-2.4222112,-2.9449842,-1.736812,0.0,0.0,0.0,0.3369755148887634,0.3369755148887634,link6
1763436352.1168544,d4pg_train,FAR,train,5,52,-4.951777625045662,0,246,1,0.189,0.073,0.786,-2.4524963,0.3550243,-1.8190715,-2.3400767,-2.9519944,-1.4758092,0.0,0.0,0.0,0.4115144908428192,0.4115144908428192,link6
1763436353.497518,d4pg_train,FAR,train,5,53,-4.211200247789364,0,247,1,0.099,0.167,0.665,-1.8356963,0.37132713,-2.0886178,-2.3078914,-3.0005925,-1.195757,0.0,0.0,0.0,0.45163100957870483,0.45163100957870483,link6
1763436354.8978086,d4pg_train,FAR,train,5,54,-5.2163706407107835,0,248,1,0.033,0.257,0.826,-1.4031651,0.27727178,-1.8057979,-2.6614587,-2.546089,-1.3827387,0.0,0.0,0.0,0.5414915084838867,0.5414915084838867,link6
1763436356.2847269,d4pg_train,FAR,train,5,55,-5.4617314928536524,0,249,1,0.067,0.273,0.851,-1.555696,0.23178294,-1.5992081,-2.4634848,-2.6012948,-1.3748443,0.0,0.0,0.0,0.4081835150718689,0.4081835150718689,link6
1763436357.6790059,d4pg_train,FAR,train,5,56,-4.948540774359155,0,250,1,0.138,0.211,0.767,-1.9925243,0.25590345,-1.7569479,-2.951021,-3.1415737,-1.6040987,0.0,0.0,0.0,0.38699963688850403,0.38699963688850403,link6
1763436359.06605,d4pg_train,FAR,train,5,57,-5.998310818277813,0,251,1,0.122,0.229,0.952,-1.8989471,0.16699347,-1.317191,-3.105834,-2.7056863,-1.8856391,0.0,0.0,0.0,0.41610950231552124,0.41610950231552124,link6
1763436360.4671795,d4pg_train,FAR,train,5,58,-6.41175438619958,0,252,1,0.132,0.106,1.053,-2.1522279,0.23579206,-1.1374234,-2.912994,-2.4812884,-1.8718946,0.0,0.0,0.0,0.5981681942939758,0.5981681942939758,link6
1763436361.85605,d4pg_train,FAR,train,5,59,-4.708284842313977,0,253,1,0.173,0.094,0.727,-2.185989,0.4263962,-2.0411253,-2.2492025,-2.627397,-1.9754565,0.0,0.0,0.0,0.3274655342102051,0.3274655342102051,link6
1763436365.5177794,d4pg_train,FAR,train,6,0,-7.5314359590233115,0,254,1,-0.291,0.16,1.21,-0.30336902,0.028635073,-0.472056,-0.23032048,-1.225391,-0.069038495,0.0,0.0,0.0,0.7426761388778687,0.7426761388778687,link6
1763436366.9135551,d4pg_train,FAR,train,6,1,-6.585797164868425,0,255,1,0.017,0.202,1.073,-1.304501,0.079686426,-0.7535706,-2.0580072,-2.8602536,-1.0767657,0.0,0.0,0.0,0.49934080243110657,0.49934080243110657,link6
1763436368.3380592,d4pg_train,FAR,train,6,2,-6.180401644206957,0,256,1,0.187,0.148,0.953,-2.3290195,0.18909025,-1.2598231,-2.6856725,-3.0111644,-1.7651883,0.0,0.0,0.0,0.2860899269580841,0.2860899269580841,link6
1763436369.7280495,d4pg_train,FAR,train,6,3,-5.649164250600581,0,257,1,0.207,0.06,0.897,-2.6258602,0.27374452,-1.4653409,-2.6407318,-2.95862,-1.6973722,0.0,0.0,0.0,0.37810301780700684,0.37810301780700684,link6
1763436371.124098,d4pg_train,FAR,train,6,4,-4.395233439840277,0,258,1,0.054,0.17,0.702,-1.6409639,0.4001076,-2.0025454,-2.9363952,-3.1361456,-2.3896987,0.0,0.0,0.0,0.4617363214492798,0.4617363214492798,link6
1763436372.5055628,d4pg_train,FAR,train,6,5,-4.552662047691368,0,259,1,0.091,0.197,0.711,-1.72216,0.36823282,-2.0861888,-2.7488635,-2.6181006,-2.5812898,0.0,0.0,0.0,0.3991137146949768,0.3991137146949768,link6
1763436373.8879743,d4pg_train,FAR,train,6,6,-4.627191767668095,0,260,1,0.138,0.19,0.719,-1.8289633,0.37084705,-2.0611863,-2.4079885,-2.534207,-2.5723536,0.0,0.0,0.0,0.402929425239563,0.402929425239563,link6
1763436375.2906504,d4pg_train,FAR,train,6,7,-6.311467802499733,0,261,1,0.059,0.113,1.035,-1.6884072,0.25682622,-1.0566256,-3.0389512,-2.8312318,-2.5142162,0.0,0.0,0.0,0.45181921124458313,0.45181921124458313,link6
1763436376.670706,d4pg_train,FAR,train,6,8,-5.920952261454892,0,262,1,0.074,0.117,0.964,-1.8354299,0.3346445,-1.323683,-3.046482,-2.9347236,-2.3506598,0.0,0.0,0.0,0.4165438711643219,0.4165438711643219,link6
1763436378.0678742,d4pg_train,FAR,train,6,9,-5.338785461455903,0,263,1,0.083,0.107,0.87,-1.8940316,0.42685658,-1.6286892,-2.9348314,-2.9906828,-2.1861835,0.0,0.0,0.0,0.4493102729320526,0.4493102729320526,link6
1763436379.4532497,d4pg_train,FAR,train,6,10,-3.9094807599555397,0,264,1,0.196,0.0,0.578,-2.8153086,0.3813595,-2.44337,-2.7065973,-2.5543761,-2.6930966,0.0,0.0,0.0,0.30057257413864136,0.30057257413864136,link6
1763436380.844778,d4pg_train,FAR,train,6,11,-4.474285150447928,0,265,1,0.231,-0.035,0.641,-3.0017421,0.33238357,-2.2486176,-2.7017214,-2.588626,-2.212592,0.0,0.0,0.0,0.25749802589416504,0.25749802589416504,link6
1763436382.232172,d4pg_train,FAR,train,6,12,-5.077634060084758,0,266,1,0.247,-0.036,0.791,-3.0088112,0.30080247,-1.844556,-2.6519918,-2.6519709,-1.6731397,0.0,0.0,0.0,0.39026790857315063,0.39026790857315063,link6
1763436383.6294298,d4pg_train,FAR,train,6,13,-3.8641988070699367,0,267,1,0.153,0.081,0.601,-2.398118,0.379856,-2.310978,-2.9608097,-3.0203207,-2.5801883,0.0,0.0,0.0,0.380246102809906,0.380246102809906,link6
1763436385.0138266,d4pg_train,FAR,train,6,14,-3.662397263673454,0,268,1,0.138,0.116,0.564,-2.2252543,0.3551401,-2.431171,-3.1555612,-2.7870076,-2.4645543,0.0,0.0,0.0,0.3819184899330139,0.3819184899330139,link6
1763436386.396511,d4pg_train,FAR,train,6,15,-6.141097939126544,0,269,1,0.032,0.123,1.008,-1.479957,0.30344298,-1.1910517,-3.053717,-2.8321967,-2.946684,0.0,0.0,0.0,0.4705806374549866,0.4705806374549866,link6
1763436387.785421,d4pg_train,FAR,train,6,16,-4.8383857110836965,0,270,1,0.138,0.137,0.755,-2.155085,0.37121114,-1.9067862,-3.0216303,-2.9813845,-2.5878444,0.0,0.0,0.0,0.3438601791858673,0.3438601791858673,link6
1763436389.1750379,d4pg_train,FAR,train,6,17,-4.005419544752347,0,271,1,0.13,0.108,0.637,-2.1789804,0.40836078,-2.1848304,-3.0587714,-3.061623,-2.6465604,0.0,0.0,0.0,0.45817890763282776,0.45817890763282776,link6
1763436390.5597098,d4pg_train,FAR,train,6,18,-3.2410315240509218,0,272,1,0.056,0.094,0.519,-1.7382504,0.45699024,-2.5064673,-3.1431026,-3.120694,-3.1153705,0.0,0.0,0.0,0.4446773827075958,0.4446773827075958,link6
1763436391.9438019,d4pg_train,FAR,train,6,19,-3.971256969922244,0,273,1,0.143,0.099,0.592,-2.3082185,0.37034613,-2.2678273,-3.0674007,-3.1340864,-3.1322055,0.0,0.0,0.0,0.2921978533267975,0.2921978533267975,link6
1763436393.3334272,d4pg_train,FAR,train,6,20,-4.179995978049146,0,274,1,0.181,0.097,0.654,-2.4517572,0.33589828,-2.104798,-3.0577433,-3.081193,-3.1417673,0.0,0.0,0.0,0.43109777569770813,0.43109777569770813,link6
1763436394.7149715,d4pg_train,FAR,train,6,21,-4.750624113392446,0,275,1,0.19,0.067,0.724,-2.554454,0.3598769,-1.9360152,-2.111433,-3.0290995,-3.1437001,0.0,0.0,0.0,0.3030020594596863,0.3030020594596863,link6
1763436396.1054127,d4pg_train,FAR,train,6,22,-4.232427460976647,0,276,1,0.159,0.038,0.663,-2.414749,0.48551053,-2.2028065,-2.2857766,-2.732697,-3.0302632,0.0,0.0,0.0,0.36098164319992065,0.36098164319992065,link6
1763436397.4931517,d4pg_train,FAR,train,6,23,-4.022399901304908,0,277,1,0.121,0.035,0.645,-2.2325706,0.59093106,-2.331107,-2.569449,-2.5866785,-2.817152,0.0,0.0,0.0,0.4144017696380615,0.4144017696380615,link6
1763436398.8783584,d4pg_train,FAR,train,6,24,-4.821349946899688,0,278,1,0.078,0.155,0.773,-1.6198635,0.5122078,-2.0759325,-2.798687,-2.2911148,-1.9634929,0.0,0.0,0.0,0.42986640334129333,0.42986640334129333,link6
1763436400.2608516,d4pg_train,FAR,train,6,25,-5.331606784413218,0,279,1,0.141,0.117,0.84,-1.9788806,0.42164582,-1.7582418,-2.3491914,-2.5585976,-2.0742016,0.0,0.0,0.0,0.33632832765579224,0.33632832765579224,link6
1763436401.662311,d4pg_train,FAR,train,6,26,-5.85515459922562,0,280,1,0.171,0.076,0.934,-2.3780165,0.29542235,-1.3557134,-1.9682864,-2.9340665,-2.2117145,0.0,0.0,0.0,0.3577074110507965,0.3577074110507965,link6
1763436403.046464,d4pg_train,FAR,train,6,27,-4.89744789706366,0,281,1,0.192,0.096,0.745,-2.4977696,0.32784393,-1.8526467,-3.0211875,-3.1420891,-2.7242792,0.0,0.0,0.0,0.3013528883457184,0.3013528883457184,link6
1763436404.4494123,d4pg_train,FAR,train,6,28,-3.9491266225668102,0,282,1,0.165,0.081,0.617,-2.46106,0.37262136,-2.2278554,-3.1602547,-3.1415863,-2.9591303,0.0,0.0,0.0,0.4058869481086731,0.4058869481086731,link6
1763436405.8446634,d4pg_train,FAR,train,6,29,-3.242407258088143,0,283,1,0.071,0.013,0.524,-2.3840964,0.5751172,-2.5150917,-3.1423283,-3.1415837,-2.8206868,0.0,0.0,0.0,0.4287164807319641,0.4287164807319641,link6
1763436407.2401266,d4pg_train,FAR,train,6,30,-3.280915540680011,0,284,1,0.085,0.017,0.522,-2.3770046,0.5474105,-2.5720067,-2.8476753,-2.9247289,-2.7274394,0.0,0.0,0.0,0.3853515386581421,0.3853515386581421,link6
1763436408.6271822,d4pg_train,FAR,train,6,31,-3.651418468723119,0,285,1,0.114,0.032,0.586,-2.3988225,0.53777385,-2.417593,-2.8212795,-2.7770875,-2.7966797,0.0,0.0,0.0,0.4352673888206482,0.4352673888206482,link6
1763436410.0170941,d4pg_train,FAR,train,6,32,-4.101876708851132,0,286,1,0.196,0.15,0.598,-2.2207825,0.35211468,-2.4295163,-2.8865664,-2.2045536,-2.5790532,0.0,0.0,0.0,0.3122251033782959,0.3122251033782959,link6
1763436411.4160178,d4pg_train,FAR,train,6,33,-4.500257201620853,0,287,1,0.19,0.086,0.689,-2.490332,0.37589303,-2.1163356,-2.9533165,-2.7197266,-2.8387997,0.0,0.0,0.0,0.33185869455337524,0.33185869455337524,link6
1763436412.8011491,d4pg_train,FAR,train,6,34,-4.63574797431945,0,288,1,0.166,0.066,0.741,-2.5019047,0.40633515,-1.9762032,-3.03545,-2.9008715,-3.0389318,0.0,0.0,0.0,0.4384042024612427,0.4384042024612427,link6
1763436414.188365,d4pg_train,FAR,train,6,35,-4.836770521389062,0,289,1,0.071,0.043,0.791,-2.0743418,0.56624675,-1.8356603,-2.8725173,-3.0768228,-2.7510517,0.0,0.0,0.0,0.4347268342971802,0.4347268342971802,link6
1763436415.574791,d4pg_train,FAR,train,6,36,-4.376925703342861,0,290,1,0.085,0.031,0.703,-2.2134445,0.5973892,-2.119584,-2.5637078,-2.9442816,-2.9111001,0.0,0.0,0.0,0.36958152055740356,0.36958152055740356,link6
1763436416.9735298,d4pg_train,FAR,train,6,37,-3.8919283116166805,0,291,1,0.121,0.034,0.628,-2.2378724,0.5609717,-2.3083534,-2.3614588,-2.7590144,-3.0108604,0.0,0.0,0.0,0.46211808919906616,0.46211808919906616,link6
1763436418.411436,d4pg_train,FAR,train,6,38,-4.765704401289796,0,292,1,0.052,0.098,0.777,-1.6141789,0.52687037,-1.88664,-2.639268,-2.9982953,-3.0275483,0.0,0.0,0.0,0.44843176007270813,0.44843176007270813,link6
1763436419.792337,d4pg_train,FAR,train,6,39,-4.269790284424174,0,293,1,0.053,0.089,0.695,-1.6302252,0.57115793,-2.1308558,-2.7979999,-2.935835,-2.8918507,0.0,0.0,0.0,0.45332562923431396,0.45332562923431396,link6
1763436421.1844676,d4pg_train,FAR,train,6,40,-4.716792108940069,0,294,1,0.09,0.012,0.767,-2.5628245,0.56959623,-1.9582812,-3.1422613,-2.905289,-3.141558,0.0,0.0,0.0,0.41024672985076904,0.41024672985076904,link6
1763436422.573685,d4pg_train,FAR,train,6,41,-4.156619715012246,0,295,1,0.075,0.069,0.675,-1.9588284,0.5593532,-2.141945,-3.0346746,-3.0743048,-3.0965424,0.0,0.0,0.0,0.441092312335968,0.441092312335968,link6
1763436423.9590316,d4pg_train,FAR,train,6,42,-3.8053935724502326,0,296,1,0.053,0.084,0.616,-1.6696802,0.5682364,-2.305598,-2.8053074,-3.0170448,-3.10153,0.0,0.0,0.0,0.4395590126514435,0.4395590126514435,link6
1763436425.3535755,d4pg_train,FAR,train,6,43,-5.502330325401137,0,297,1,0.202,0.04,0.849,-2.7602866,0.32002822,-1.6605928,-3.1310465,-2.8601081,-3.1416337,0.0,0.0,0.0,0.29540759325027466,0.29540759325027466,link6
1763436426.735957,d4pg_train,FAR,train,6,44,-3.869005181432143,0,298,1,0.118,0.088,0.617,-2.1885693,0.45692155,-2.300413,-3.152917,-3.0523276,-2.8644028,0.0,0.0,0.0,0.4372342824935913,0.4372342824935913,link6
1763436428.124849,d4pg_train,FAR,train,6,45,-3.4868188594465805,0,299,1,0.075,0.059,0.536,-2.0587087,0.5217216,-2.5206654,-3.1584053,-2.976999,-2.8339214,0.0,0.0,0.0,0.3122429847717285,0.3122429847717285,link6
1763436429.538309,d4pg_train,FAR,train,6,46,-4.22675941369563,0,300,1,0.099,-0.036,0.682,-3.1107109,0.55280715,-2.10577,-3.144079,-3.1112366,-3.1406002,0.0,0.0,0.0,0.4060136079788208,0.4060136079788208,link6
1763436430.9221618,d4pg_train,FAR,train,6,47,-3.5580454130407477,0,301,1,0.124,0.084,0.566,-2.2249432,0.39933005,-2.4226356,-3.1554499,-2.9269238,-3.1415613,0.0,0.0,0.0,0.4706994295120239,0.4706994295120239,link6
1763436432.3053496,d4pg_train,FAR,train,6,48,-3.2903937323464945,0,302,1,0.049,0.167,0.509,-1.6378446,0.30354103,-2.5539238,-3.1526496,-2.8129826,-3.0010881,0.0,0.0,0.0,0.43772250413894653,0.43772250413894653,link6
1763436433.6939268,d4pg_train,FAR,train,6,49,-3.3888925974256603,0,303,1,0.058,0.054,0.549,-1.8791361,0.5780845,-2.4502437,-3.1454701,-3.125039,-3.066892,0.0,0.0,0.0,0.4410383701324463,0.4410383701324463,link6
1763436435.0857816,d4pg_train,FAR,train,6,50,-3.433088099209856,0,304,1,0.046,0.055,0.56,-1.6812145,0.6081027,-2.4187925,-3.1566525,-3.1415381,-3.0365975,0.0,0.0,0.0,0.46959927678108215,0.46959927678108215,link6
1763436436.478451,d4pg_train,FAR,train,6,51,-3.7777009923632643,0,305,1,0.033,0.075,0.606,-1.4935136,0.60552263,-2.3328593,-3.0693762,-3.063582,-2.9129553,0.0,0.0,0.0,0.3829393684864044,0.3829393684864044,link6
1763436437.8674462,d4pg_train,FAR,train,6,52,-3.3091316144496,0,306,1,0.068,0.057,0.533,-1.9491067,0.5430451,-2.53083,-2.9987657,-2.9884362,-2.650556,0.0,0.0,0.0,0.43106943368911743,0.43106943368911743,link6
1763436439.2523084,d4pg_train,FAR,train,6,53,-3.0499896773999424,0,307,1,0.063,0.037,0.49,-2.045345,0.52749777,-2.6060336,-3.157321,-3.1230462,-2.831786,0.0,0.0,0.0,0.4167073965072632,0.4167073965072632,link6
1763436440.6481755,d4pg_train,FAR,train,6,54,-3.4751308708837865,0,308,1,0.084,0.106,0.55,-1.7608681,0.47857583,-2.5134103,-2.6464808,-2.7432566,-2.7694297,0.0,0.0,0.0,0.41757190227508545,0.41757190227508545,link6
1763436442.035157,d4pg_train,FAR,train,6,55,-3.534018793064805,0,309,1,0.071,0.124,0.561,-1.7658371,0.45177463,-2.4868457,-3.026207,-2.739317,-2.7415304,0.0,0.0,0.0,0.4413682222366333,0.4413682222366333,link6
1763436443.4304574,d4pg_train,FAR,train,6,56,-3.4550406686685333,0,310,1,0.04,0.122,0.556,-1.5662565,0.47686946,-2.4998956,-3.1585057,-2.7870688,-2.8549528,0.0,0.0,0.0,0.5075068473815918,0.5075068473815918,link6
1763436444.8192382,d4pg_train,FAR,train,6,57,-3.6479625511317386,0,311,1,0.124,0.042,0.573,-2.5267262,0.4540622,-2.3509228,-3.1429517,-3.1364405,-2.6689208,0.0,0.0,0.0,0.3718383312225342,0.3718383312225342,link6
1763436446.2216032,d4pg_train,FAR,train,6,58,-3.7901547508273015,0,312,1,0.094,0.11,0.606,-1.9942585,0.52101064,-2.4459682,-3.153155,-2.4740722,-2.964443,0.0,0.0,0.0,0.4566955864429474,0.4566955864429474,link6
1763436447.618937,d4pg_train,FAR,train,6,59,-3.9058216170037334,0,313,1,0.066,0.148,0.614,-1.7601271,0.5430204,-2.467054,-3.1598384,-2.229626,-3.058411,0.0,0.0,0.0,0.39562344551086426,0.39562344551086426,link6
1763436451.2704692,d4pg_train,FAR,train,7,0,-6.829137518246311,0,314,1,-0.241,0.543,0.97,-0.9529493,-0.09883734,-1.0883217,-1.367398,-1.2325859,-0.6165322,0.0,0.0,0.0,0.7049636840820312,0.7049636840820312,link6
1763436452.6643906,d4pg_train,FAR,train,7,1,-5.198108445963252,0,315,1,-0.012,0.566,0.652,-1.2908089,-0.12281865,-1.7715302,-2.0806797,-1.8421978,-1.2921878,0.0,0.0,0.0,0.5671900510787964,0.5671900510787964,link6
1763436454.0533054,d4pg_train,FAR,train,7,2,-4.706168029350492,0,316,1,0.145,0.038,0.746,-2.3095417,0.5437472,-2.0909674,-2.5342958,-2.4924421,-2.6006699,0.0,0.0,0.0,0.35705333948135376,0.35705333948135376,link6
1763436455.448651,d4pg_train,FAR,train,7,3,-4.562302315468316,0,317,1,0.102,0.09,0.738,-1.9481504,0.5775531,-2.168389,-2.9371483,-2.3616369,-2.2581718,0.0,0.0,0.0,0.44276759028434753,0.44276759028434753,link6
1763436456.8351147,d4pg_train,FAR,train,7,4,-4.284875130987591,0,318,1,0.057,0.121,0.694,-1.6176054,0.58561593,-2.3024364,-3.0073545,-2.3871326,-2.3026078,0.0,0.0,0.0,0.4727429747581482,0.4727429747581482,link6
1763436458.234635,d4pg_train,FAR,train,7,5,-5.133739229172573,0,319,1,0.13,0.002,0.826,-2.662214,0.5051346,-1.8683456,-2.8315897,-2.623582,-3.142349,0.0,0.0,0.0,0.3757413625717163,0.3757413625717163,link6
1763436459.615522,d4pg_train,FAR,train,7,6,-4.675944515089876,0,320,1,0.109,0.077,0.761,-2.0544674,0.49465775,-1.9533118,-2.6672294,-2.9045167,-3.1429102,0.0,0.0,0.0,0.4821687638759613,0.4821687638759613,link6
1763436460.9967759,d4pg_train,FAR,train,7,7,-4.224922630287128,0,321,1,0.029,0.137,0.683,-1.4606212,0.4840751,-2.1121416,-2.59726,-3.0592947,-3.1440518,0.0,0.0,0.0,0.47873011231422424,0.47873011231422424,link6
1763436462.3873467,d4pg_train,FAR,train,7,8,-3.4906094057696984,0,322,1,0.102,0.115,0.543,-1.7410678,0.47263896,-2.5376754,-2.4371965,-2.5658717,-3.0310755,0.0,0.0,0.0,0.38672590255737305,0.38672590255737305,link6
1763436463.7689533,d4pg_train,FAR,train,7,9,-3.472121786759494,0,323,1,0.135,0.087,0.525,-1.9035981,0.49794668,-2.5653293,-2.2249415,-2.440638,-2.791678,0.0,0.0,0.0,0.3335278034210205,0.3335278034210205,link6
1763436465.1689599,d4pg_train,FAR,train,7,10,-3.471772659048489,0,324,1,0.149,0.072,0.549,-1.9029522,0.55550396,-2.525371,-2.1207721,-2.3640249,-2.5592182,0.0,0.0,0.0,0.5070996284484863,0.5070996284484863,link6
1763436466.5620124,d4pg_train,FAR,train,7,11,-3.8628200442007503,0,325,1,0.035,0.145,0.617,-1.4991534,0.4568789,-2.3138506,-2.9116876,-2.8222628,-2.6398213,0.0,0.0,0.0,0.45250388979911804,0.45250388979911804,link6
1763436467.9524984,d4pg_train,FAR,train,7,12,-4.071246607133197,0,326,1,0.064,0.16,0.644,-1.6575915,0.44943866,-2.2871554,-2.9510255,-2.6415138,-2.740082,0.0,0.0,0.0,0.4250260293483734,0.4250260293483734,link6
1763436469.3412092,d4pg_train,FAR,train,7,13,-4.69591393843295,0,327,1,-0.063,0.143,0.764,-0.89775026,0.49869144,-2.067814,-3.140842,-2.4657547,-3.1413891,0.0,0.0,0.0,0.5683152675628662,0.5683152675628662,link6
1763436470.728616,d4pg_train,FAR,train,7,14,-4.1246098799066315,0,328,1,0.086,0.105,0.655,-1.9565624,0.4938559,-2.22014,-3.0891595,-2.9112518,-2.9205859,0.0,0.0,0.0,0.3806532025337219,0.3806532025337219,link6
1763436472.1128802,d4pg_train,FAR,train,7,15,-3.7198532322792692,0,329,1,0.085,0.074,0.604,-2.0343506,0.5252852,-2.3186862,-3.069019,-3.0463357,-2.9181807,0.0,0.0,0.0,0.5011380314826965,0.5011380314826965,link6
1763436473.5008044,d4pg_train,FAR,train,7,16,-3.5919664216239573,0,330,1,0.118,0.096,0.559,-1.8814385,0.5039884,-2.5123374,-2.4495275,-2.5384831,-2.3456655,0.0,0.0,0.0,0.3763619661331177,0.3763619661331177,link6
1763436474.8935819,d4pg_train,FAR,train,7,17,-3.7744756598233695,0,331,1,0.108,0.119,0.594,-1.9135638,0.5248194,-2.485461,-2.8915555,-2.340575,-2.4083455,0.0,0.0,0.0,0.41062214970588684,0.41062214970588684,link6
1763436476.352856,d4pg_train,FAR,train,7,18,-3.7118397795859854,0,332,1,0.078,0.125,0.593,-1.8045905,0.5389973,-2.4990814,-3.0515764,-2.3772678,-2.5211997,0.0,0.0,0.0,0.46960118412971497,0.46960118412971497,link6
1763436477.7496448,d4pg_train,FAR,train,7,19,-3.799805663235444,0,333,1,0.048,0.149,0.605,-1.5102292,0.5109888,-2.443144,-2.9166913,-2.4400408,-3.0933363,0.0,0.0,0.0,0.45999500155448914,0.45999500155448914,link6
1763436479.131835,d4pg_train,FAR,train,7,20,-3.517424124744292,0,334,1,0.038,0.135,0.562,-1.5100263,0.50133944,-2.5445945,-3.0555108,-2.5333567,-3.126825,0.0,0.0,0.0,0.4779164493083954,0.4779164493083954,link6
1763436480.5190709,d4pg_train,FAR,train,7,21,-3.624847522420086,0,335,1,0.077,0.151,0.568,-1.3299495,0.5760884,-2.513438,-2.3048043,-2.242578,-2.899902,0.0,0.0,0.0,0.4292694330215454,0.4292694330215454,link6
1763436481.9410915,d4pg_train,FAR,train,7,22,-4.063484558195339,0,336,1,-0.049,0.127,0.661,-0.7682301,0.56978464,-2.323219,-2.9672859,-2.4515195,-2.757021,0.0,0.0,0.0,0.5859877467155457,0.5859877467155457,link6
1763436483.3282545,d4pg_train,FAR,train,7,23,-4.019792551917233,0,337,1,-0.039,0.132,0.639,-0.97567266,0.57572407,-2.4133759,-3.0517352,-2.3613434,-2.8459394,0.0,0.0,0.0,0.39336827397346497,0.39336827397346497,link6
1763436484.7189167,d4pg_train,FAR,train,7,24,-3.277359046640397,0,338,1,-0.064,0.091,0.532,-0.5145473,0.47681525,-2.5195544,-2.9553368,-2.9765708,-3.1418967,0.0,0.0,0.0,0.5725368857383728,0.5725368857383728,link6
1763436486.113553,d4pg_train,FAR,train,7,25,-3.900140133746762,0,339,1,-0.001,0.135,0.626,-1.2520334,0.54119825,-2.3900404,-3.0843706,-2.5421476,-3.1423,0.0,0.0,0.0,0.44604167342185974,0.44604167342185974,link6
1763436487.5119114,d4pg_train,FAR,train,7,26,-4.088487223374719,0,340,1,0.048,0.124,0.661,-1.6494614,0.59360605,-2.3785686,-3.1609113,-2.3416705,-3.1417463,0.0,0.0,0.0,0.4755042493343353,0.4755042493343353,link6
1763436488.900975,d4pg_train,FAR,train,7,27,-3.1973978043294307,0,341,1,0.016,0.067,0.522,-1.1967947,0.5826408,-2.5305247,-3.1447577,-3.1020634,-3.1416085,0.0,0.0,0.0,0.4873170256614685,0.4873170256614685,link6
1763436490.2870388,d4pg_train,FAR,train,7,28,-4.287953304448547,0,342,1,0.102,0.069,0.666,-1.9994854,0.5885329,-2.243763,-2.5595634,-2.5538142,-3.1423502,0.0,0.0,0.0,0.31045806407928467,0.31045806407928467,link6
1763436491.6848927,d4pg_train,FAR,train,7,29,-4.880181379518733,0,343,1,0.193,-0.037,0.784,-2.5660877,0.57202893,-2.0301797,-2.1642017,-2.0505762,-3.1424444,0.0,0.0,0.0,0.5094255805015564,0.5094255805015564,link6
1763436493.0751755,d4pg_train,FAR,train,7,30,-3.5146948803563296,0,344,1,-0.022,0.128,0.567,-1.0937037,0.53387374,-2.5418923,-3.1468914,-2.4982338,-3.0237272,0.0,0.0,0.0,0.5314969420433044,0.5314969420433044,link6
1763436494.4601798,d4pg_train,FAR,train,7,31,-3.227823453947623,0,345,1,0.002,0.083,0.525,-1.120399,0.5704219,-2.6026394,-3.1564317,-2.8151522,-2.6135995,0.0,0.0,0.0,0.48619192838668823,0.48619192838668823,link6
1763436495.8497934,d4pg_train,FAR,train,7,32,-3.057133570186552,0,346,1,0.018,0.055,0.504,-1.1369138,0.60832417,-2.596168,-3.1558414,-3.0667155,-2.2036562,0.0,0.0,0.0,0.5932115316390991,0.5932115316390991,link6
1763436497.2387059,d4pg_train,FAR,train,7,33,-3.5865740983377163,0,347,1,-0.02,0.161,0.57,-0.9699915,0.5626194,-2.5541952,-2.7303138,-2.1829042,-3.0176713,0.0,0.0,0.0,0.5091627836227417,0.5091627836227417,link6
1763436498.6257987,d4pg_train,FAR,train,7,34,-3.346684547437445,0,348,1,0.018,0.112,0.539,-1.1566582,0.5770168,-2.6124668,-2.8251836,-2.5275605,-2.7537358,0.0,0.0,0.0,0.4783363938331604,0.4783363938331604,link6
1763436500.0128272,d4pg_train,FAR,train,7,35,-3.205582085941121,0,349,1,0.029,0.079,0.52,-1.4390378,0.532495,-2.515031,-3.1422305,-3.1415088,-2.7805147,0.0,0.0,0.0,0.47107869386672974,0.47107869386672974,link6
1763436501.4021597,d4pg_train,FAR,train,7,36,-3.4697040436523134,0,350,1,0.052,0.092,0.557,-1.702978,0.5809127,-2.5677555,-3.121266,-2.5360522,-3.0377696,0.0,0.0,0.0,0.4296436011791229,0.4296436011791229,link6
1763436502.7850757,d4pg_train,FAR,train,7,37,-3.398420587979556,0,351,1,0.064,0.084,0.545,-1.8331189,0.5852148,-2.6157405,-3.1276648,-2.5057616,-3.1279776,0.0,0.0,0.0,0.4303598999977112,0.4303598999977112,link6
1763436504.1751335,d4pg_train,FAR,train,7,38,-3.219290093836895,0,352,1,0.026,0.102,0.519,-1.4344794,0.467027,-2.5012283,-2.95028,-3.1415963,-2.4441607,0.0,0.0,0.0,0.47821635007858276,0.47821635007858276,link6
1763436505.5554614,d4pg_train,FAR,train,7,39,-3.3222981395493703,0,353,1,0.079,0.063,0.527,-1.9557512,0.5220719,-2.5699902,-2.831862,-2.8621473,-2.4383311,0.0,0.0,0.0,0.38853687047958374,0.38853687047958374,link6
1763436506.9378638,d4pg_train,FAR,train,7,40,-3.3565329624826403,0,354,1,0.105,0.05,0.537,-2.157931,0.55961764,-2.613563,-2.8486326,-2.5343773,-2.4006088,0.0,0.0,0.0,0.44255176186561584,0.44255176186561584,link6
1763436508.3210642,d4pg_train,FAR,train,7,41,-3.5996437190196873,0,355,1,0.014,0.127,0.58,-1.2777845,0.57444674,-2.5276551,-3.0316222,-2.4372702,-3.013811,0.0,0.0,0.0,0.49280133843421936,0.49280133843421936,link6
1763436509.7210457,d4pg_train,FAR,train,7,42,-3.2675512801921,0,356,1,0.027,0.073,0.532,-1.2830838,0.59991866,-2.576623,-2.919325,-2.8599455,-3.0464442,0.0,0.0,0.0,0.47898024320602417,0.47898024320602417,link6
1763436511.111426,d4pg_train,FAR,train,7,43,-3.093009747208498,0,357,1,0.031,0.053,0.504,-1.359176,0.600178,-2.5895555,-2.8833737,-3.0801585,-3.0302594,0.0,0.0,0.0,0.4674479067325592,0.4674479067325592,link6
1763436512.5004377,d4pg_train,FAR,train,7,44,-4.319442296183387,0,358,1,-0.102,0.075,0.707,-0.15060611,0.5468838,-2.150286,-2.8637655,-2.6750531,-3.1309173,0.0,0.0,0.0,0.6218270659446716,0.6218270659446716,link6
1763436513.8973308,d4pg_train,FAR,train,7,45,-3.7879189670393956,0,359,1,-0.079,0.091,0.615,-0.35849202,0.5503088,-2.3749022,-2.5545099,-2.8018608,-3.142967,0.0,0.0,0.0,0.5194059610366821,0.5194059610366821,link6
1763436515.2762122,d4pg_train,FAR,train,7,46,-3.5682794351074922,0,360,1,-0.005,0.176,0.563,-1.255511,0.381624,-2.4591923,-2.9404411,-2.7110753,-2.583881,0.0,0.0,0.0,0.5151950716972351,0.5151950716972351,link6
1763436516.6724079,d4pg_train,FAR,train,7,47,-3.4306009132988,0,361,1,0.026,0.159,0.541,-1.2778803,0.43563566,-2.54129,-2.6122286,-2.5960438,-2.61408,0.0,0.0,0.0,0.4739406704902649,0.4739406704902649,link6
1763436518.0534506,d4pg_train,FAR,train,7,48,-3.3658639865966005,0,362,1,0.009,0.161,0.535,-1.0585109,0.48469624,-2.5795457,-2.5519907,-2.4188673,-2.8101056,0.0,0.0,0.0,0.5934901833534241,0.5934901833534241,link6
1763436519.5121126,d4pg_train,FAR,train,7,49,-3.1750039872882,0,363,1,-0.003,0.124,0.509,-1.217702,0.39879292,-2.5142345,-2.2403235,-3.1367004,-3.1425862,0.0,0.0,0.0,0.5062966346740723,0.5062966346740723,link6
1763436520.9008873,d4pg_train,FAR,train,7,50,-3.78207522645075,0,364,1,-0.032,0.133,0.612,-0.9220326,0.5009634,-2.313079,-2.8191087,-2.8135164,-2.7615025,0.0,0.0,0.0,0.5548686385154724,0.5548686385154724,link6
1763436522.2888772,d4pg_train,FAR,train,7,51,-4.187352268590518,0,365,1,-0.044,0.104,0.684,-0.8410298,0.5922575,-2.2850626,-3.1604252,-2.535442,-2.6265314,0.0,0.0,0.0,0.519221305847168,0.519221305847168,link6
1763436523.6795354,d4pg_train,FAR,train,7,52,-4.0736459368467255,0,366,1,0.199,0.072,0.592,-2.1593275,0.5606358,-2.4267573,-2.1541667,-1.9732878,-3.0454264,0.0,0.0,0.0,0.2808369994163513,0.2808369994163513,link6
1763436525.0696192,d4pg_train,FAR,train,7,53,-3.5362189606067553,0,367,1,0.138,0.102,0.556,-1.8589562,0.52116084,-2.5462184,-2.487997,-2.3247921,-3.0384748,0.0,0.0,0.0,0.47118496894836426,0.47118496894836426,link6
1763436526.4584727,d4pg_train,FAR,train,7,54,-3.3637275201032604,0,368,1,0.039,0.125,0.531,-1.5130543,0.45708877,-2.570251,-2.9688847,-2.7474039,-3.025678,0.0,0.0,0.0,0.4106980264186859,0.4106980264186859,link6
1763436527.8434207,d4pg_train,FAR,train,7,55,-3.707327883848004,0,369,1,0.125,0.105,0.572,-2.0122602,0.48446783,-2.507496,-2.7409513,-2.4465494,-2.8369021,0.0,0.0,0.0,0.3587832748889923,0.3587832748889923,link6
1763436529.2467809,d4pg_train,FAR,train,7,56,-3.4428698210993027,0,370,1,0.076,0.145,0.547,-1.5537486,0.544352,-2.6067476,-2.8016233,-2.1816995,-2.9405453,0.0,0.0,0.0,0.5682058334350586,0.5682058334350586,link6
1763436530.6483538,d4pg_train,FAR,train,7,57,-3.514510827044826,0,371,1,0.118,0.01,0.555,-2.3041732,0.5759756,-2.5011644,-2.2339902,-2.692697,-3.1430469,0.0,0.0,0.0,0.3820819854736328,0.3820819854736328,link6
1763436532.0331054,d4pg_train,FAR,train,7,58,-3.4474936184681013,0,372,1,-0.022,0.113,0.561,-0.94685334,0.49877837,-2.4295418,-2.5491593,-3.0140007,-3.1428545,0.0,0.0,0.0,0.6087732315063477,0.6087732315063477,link6
1763436533.441901,d4pg_train,FAR,train,7,59,-3.5100311825738095,0,373,1,-0.069,0.1,0.566,-0.6827245,0.47910273,-2.3647907,-2.8015,-3.1423383,-3.0849485,0.0,0.0,0.0,0.4915132522583008,0.4915132522583008,link6
1763436537.0966775,d4pg_train,FAR,train,8,0,-5.024257836840251,0,374,1,-0.186,0.384,0.719,-0.87002575,0.22935389,-2.052376,-2.5627477,-1.490776,-1.9647821,0.0,0.0,0.0,0.6458209753036499,0.6458209753036499,link6
1763436538.496758,d4pg_train,FAR,train,8,1,-3.4618423753517797,0,375,1,-0.078,0.232,0.518,-1.0952345,0.34707958,-2.5912368,-3.153602,-2.0715828,-2.4568117,0.0,0.0,0.0,0.5324650406837463,0.5324650406837463,link6
1763436539.880457,d4pg_train,FAR,train,8,2,-3.421511618531978,0,376,1,0.045,0.079,0.554,-1.5745369,0.57573587,-2.515887,-2.9828856,-2.8505228,-2.8107913,0.0,0.0,0.0,0.4546009600162506,0.4546009600162506,link6
1763436541.2792366,d4pg_train,FAR,train,8,3,-3.5067180123831094,0,377,1,0.055,0.117,0.56,-1.6785464,0.5436998,-2.569578,-3.1042802,-2.4135787,-3.0050604,0.0,0.0,0.0,0.44508880376815796,0.44508880376815796,link6
1763436542.6756868,d4pg_train,FAR,train,8,4,-3.6985418604346574,0,378,1,0.02,0.19,0.584,-1.460598,0.41758594,-2.4622076,-3.156512,-2.411862,-3.098779,0.0,0.0,0.0,0.6048524379730225,0.6048524379730225,link6
1763436544.0692601,d4pg_train,FAR,train,8,5,-3.6277218099331883,0,379,1,0.106,0.089,0.571,-1.7527235,0.5701904,-2.501362,-2.408424,-2.5048773,-2.8371954,0.0,0.0,0.0,0.3887246251106262,0.3887246251106262,link6
1763436545.4725132,d4pg_train,FAR,train,8,6,-4.484940933480412,0,380,1,0.087,0.169,0.715,-1.5069134,0.5180733,-2.178327,-2.4966815,-2.26366,-3.0257754,0.0,0.0,0.0,0.46899813413619995,0.46899813413619995,link6
1763436546.8714046,d4pg_train,FAR,train,8,7,-4.7990201647791295,0,381,1,0.022,0.225,0.765,-1.2708652,0.45908815,-2.089132,-2.671963,-2.112258,-3.142713,0.0,0.0,0.0,0.5968732237815857,0.5968732237815857,link6
1763436548.261033,d4pg_train,FAR,train,8,8,-3.726253528876978,0,382,1,0.124,0.149,0.566,-1.9294822,0.4623556,-2.5309968,-2.8230436,-2.2262409,-3.095265,0.0,0.0,0.0,0.36001113057136536,0.36001113057136536,link6
1763436549.6554813,d4pg_train,FAR,train,8,9,-3.2836026044903646,0,383,1,0.021,0.107,0.532,-1.2582566,0.53141075,-2.592984,-2.9075816,-2.7202213,-3.1182642,0.0,0.0,0.0,0.5288624167442322,0.5288624167442322,link6
1763436551.041333,d4pg_train,FAR,train,8,10,-3.101085150064731,0,384,1,-0.006,0.054,0.509,-0.65260917,0.632842,-2.5706754,-3.024044,-3.1051173,-3.141689,0.0,0.0,0.0,0.5124847888946533,0.5124847888946533,link6
1763436552.438354,d4pg_train,FAR,train,8,11,-3.2913398159244887,0,385,1,0.018,0.12,0.528,-1.3920424,0.43832898,-2.5134423,-3.1463256,-2.9927328,-3.1415958,0.0,0.0,0.0,0.4809563159942627,0.4809563159942627,link6
1763436553.8238425,d4pg_train,FAR,train,8,12,-3.297512538405749,0,386,1,0.037,0.113,0.526,-1.5124009,0.4839262,-2.5911133,-3.0360363,-2.7201376,-3.1419122,0.0,0.0,0.0,0.4391961395740509,0.4391961395740509,link6
1763436555.2072148,d4pg_train,FAR,train,8,13,-3.4849666434750746,0,387,1,0.06,0.109,0.559,-1.5927792,0.58310884,-2.5847735,-2.915014,-2.415072,-3.1427562,0.0,0.0,0.0,0.46276479959487915,0.46276479959487915,link6
1763436556.6025765,d4pg_train,FAR,train,8,14,-3.414889300287277,0,388,1,0.062,0.077,0.549,-1.5747756,0.591587,-2.5504057,-2.6666539,-2.7287884,-2.954341,0.0,0.0,0.0,0.42989957332611084,0.42989957332611084,link6
1763436557.984504,d4pg_train,FAR,train,8,15,-3.258113006709597,0,389,1,0.058,0.069,0.528,-1.5181003,0.6112624,-2.6139662,-2.7363138,-2.6915753,-2.991609,0.0,0.0,0.0,0.47266650199890137,0.47266650199890137,link6
1763436559.3655956,d4pg_train,FAR,train,8,16,-3.579238080751959,0,390,1,-0.101,0.058,0.583,-0.16907796,0.5765154,-2.514867,-3.141987,-2.506642,-3.0810683,0.0,0.0,0.0,0.6022481918334961,0.6022481918334961,link6
1763436560.749485,d4pg_train,FAR,train,8,17,-4.572154015784365,0,391,1,-0.004,0.129,0.743,-1.1847687,0.52047795,-2.0536706,-3.0341423,-2.7493918,-3.034146,0.0,0.0,0.0,0.46586108207702637,0.46586108207702637,link6
1763436562.141898,d4pg_train,FAR,train,8,18,-4.209433885414095,0,392,1,-0.002,0.135,0.685,-1.2401556,0.49769765,-2.1412468,-3.0508635,-2.920925,-2.9884362,0.0,0.0,0.0,0.5503644347190857,0.5503644347190857,link6
1763436563.5304937,d4pg_train,FAR,train,8,19,-3.409285331351881,0,393,1,0.041,0.129,0.543,-1.5928595,0.44046333,-2.5198512,-3.1432168,-2.802264,-3.1347234,0.0,0.0,0.0,0.4573975205421448,0.4573975205421448,link6
1763436564.908706,d4pg_train,FAR,train,8,20,-3.43635651431735,0,394,1,0.03,0.156,0.545,-1.1624533,0.51550967,-2.5679495,-2.5253327,-2.3519914,-2.198374,0.0,0.0,0.0,0.510689377784729,0.510689377784729,link6
1763436566.3319345,d4pg_train,FAR,train,8,21,-3.346220525475322,0,395,1,0.002,0.189,0.523,-0.89631325,0.54957175,-2.6082785,-2.311833,-2.0637987,-1.9381517,0.0,0.0,0.0,0.6257109045982361,0.6257109045982361,link6
1763436567.728378,d4pg_train,FAR,train,8,22,-3.4711256512083533,0,396,1,-0.035,0.118,0.561,-0.7149481,0.5601159,-2.5330694,-2.7132883,-2.6176827,-3.1425145,0.0,0.0,0.0,0.5295639634132385,0.5295639634132385,link6
1763436569.1237361,d4pg_train,FAR,train,8,23,-4.267796339375891,0,397,1,-0.041,0.084,0.7,-0.48890615,0.61205393,-2.140898,-2.7913206,-2.7887743,-3.1429846,0.0,0.0,0.0,0.5098893046379089,0.5098893046379089,link6
1763436570.5438247,d4pg_train,FAR,train,8,24,-5.160772971604284,0,398,1,-0.011,0.054,0.857,-0.33331674,0.6042793,-1.7646955,-2.9085896,-2.8121405,-3.1370513,0.0,0.0,0.0,0.6418848037719727,0.6418848037719727,link6
1763436571.93136,d4pg_train,FAR,train,8,25,-4.400717192347571,0,399,1,-0.121,0.129,0.71,-0.5943281,0.5254267,-2.247015,-3.149187,-2.2046506,-3.1259222,0.0,0.0,0.0,0.6163055896759033,0.6163055896759033,link6
1763436573.3187885,d4pg_train,FAR,train,8,26,-3.8627794973824683,0,400,1,-0.07,0.138,0.62,-0.7926928,0.5233515,-2.4252481,-3.0509171,-2.4102373,-3.08615,0.0,0.0,0.0,0.5161288976669312,0.5161288976669312,link6
1763436574.7053502,d4pg_train,FAR,train,8,27,-3.745906324880889,0,401,1,0.05,0.105,0.604,-1.6768979,0.57573885,-2.4534752,-3.1416986,-2.5517976,-2.85422,0.0,0.0,0.0,0.4503687918186188,0.4503687918186188,link6
1763436576.0842462,d4pg_train,FAR,train,8,28,-4.1084906581306795,0,402,1,0.043,0.179,0.653,-1.594864,0.526113,-2.3786297,-3.15152,-2.1003876,-3.0621998,0.0,0.0,0.0,0.48856693506240845,0.48856693506240845,link6
1763436577.49193,d4pg_train,FAR,train,8,29,-4.313907787843732,0,403,1,0.052,0.199,0.677,-1.6202298,0.49113014,-2.315748,-3.1067917,-2.1141703,-3.1419559,0.0,0.0,0.0,0.42892196774482727,0.42892196774482727,link6
1763436578.8787558,d4pg_train,FAR,train,8,30,-3.4429285447947895,0,404,1,0.026,0.122,0.553,-1.1878558,0.5091918,-2.4812818,-2.278458,-2.8224857,-3.106484,0.0,0.0,0.0,0.47899702191352844,0.47899702191352844,link6
1763436580.2706227,d4pg_train,FAR,train,8,31,-3.8841960690462125,0,405,1,-0.029,0.121,0.632,-0.974442,0.5099169,-2.2409863,-2.825747,-3.0296206,-2.509058,0.0,0.0,0.0,0.5551702380180359,0.5551702380180359,link6
1763436581.681725,d4pg_train,FAR,train,8,32,-4.083594298756092,0,406,1,-0.047,0.122,0.664,-0.8772597,0.5011324,-2.1943848,-2.9639175,-2.952686,-2.371089,0.0,0.0,0.0,0.5377307534217834,0.5377307534217834,link6
1763436583.066882,d4pg_train,FAR,train,8,33,-3.5621407856486433,0,407,1,-0.038,0.117,0.577,-0.86570793,0.56839454,-2.5264077,-3.0601695,-2.5029035,-2.7838168,0.0,0.0,0.0,0.541108250617981,0.541108250617981,link6
1763436584.4683213,d4pg_train,FAR,train,8,34,-3.375053710910809,0,408,1,0.004,0.092,0.547,-1.2065784,0.60537744,-2.5996706,-3.1557546,-2.5639026,-2.9500885,0.0,0.0,0.0,0.46698063611984253,0.46698063611984253,link6
1763436585.8695226,d4pg_train,FAR,train,8,35,-3.3693777311319977,0,409,1,0.029,0.091,0.551,-1.4701163,0.6108067,-2.6001477,-3.1569054,-2.5168715,-3.1421807,0.0,0.0,0.0,0.587249219417572,0.587249219417572,link6
1763436587.254035,d4pg_train,FAR,train,8,36,-3.614088115308985,0,410,1,0.026,0.192,0.562,-1.5340755,0.43991786,-2.543312,-3.147268,-2.2158065,-3.1420794,0.0,0.0,0.0,0.4660228192806244,0.4660228192806244,link6
1763436588.680418,d4pg_train,FAR,train,8,37,-3.4690097278951737,0,411,1,-0.017,0.184,0.546,-1.2372614,0.48425734,-2.598792,-3.145848,-2.1189609,-3.142202,0.0,0.0,0.0,0.6167284846305847,0.6167284846305847,link6
1763436590.0627258,d4pg_train,FAR,train,8,38,-3.869509313916912,0,412,1,-0.02,0.095,0.633,-0.890047,0.5747879,-2.2313807,-2.2297935,-3.100273,-2.9342341,0.0,0.0,0.0,0.5217633843421936,0.5217633843421936,link6
1763436591.46506,d4pg_train,FAR,train,8,39,-3.7125555552394265,0,413,1,-0.02,0.15,0.597,-0.59252393,0.589081,-2.3651574,-1.8605765,-2.4380918,-3.0843437,0.0,0.0,0.0,0.5668133497238159,0.5668133497238159,link6
1763436592.8505902,d4pg_train,FAR,train,8,40,-3.684718673939748,0,414,1,-0.065,0.156,0.589,-0.34206834,0.58443695,-2.4029942,-2.0428424,-2.3512568,-3.143388,0.0,0.0,0.0,0.6422430872917175,0.6422430872917175,link6
1763436594.2442057,d4pg_train,FAR,train,8,41,-3.712732370790036,0,415,1,-0.138,0.09,0.595,-0.20425685,0.46396607,-2.4335296,-2.8151615,-2.5706875,-3.1423082,0.0,0.0,0.0,0.6389052867889404,0.6389052867889404,link6
1763436595.6265833,d4pg_train,FAR,train,8,42,-3.508198287714644,0,416,1,-0.061,0.09,0.57,-0.6061248,0.53627676,-2.4406009,-3.0240521,-2.918265,-3.1421318,0.0,0.0,0.0,0.5238602757453918,0.5238602757453918,link6
1763436597.0238733,d4pg_train,FAR,train,8,43,-3.4818110643506333,0,417,1,-0.016,0.081,0.572,-0.8709602,0.5961734,-2.4637237,-3.0856538,-2.870048,-3.0323932,0.0,0.0,0.0,0.5861005783081055,0.5861005783081055,link6
1763436598.4143357,d4pg_train,FAR,train,8,44,-4.2062370845364025,0,418,1,-0.037,0.167,0.676,-1.091469,0.57778126,-2.338917,-3.102968,-2.0821033,-2.6443594,0.0,0.0,0.0,0.5407765507698059,0.5407765507698059,link6
1763436599.8147373,d4pg_train,FAR,train,8,45,-3.940745820014937,0,419,1,-0.015,0.169,0.63,-1.0970931,0.56260353,-2.439255,-2.8966951,-2.158325,-2.5295665,0.0,0.0,0.0,0.5256453156471252,0.5256453156471252,link6
1763436601.2018087,d4pg_train,FAR,train,8,46,-3.8141769986066363,0,420,1,0.021,0.193,0.585,-1.2206953,0.49565634,-2.4933834,-2.655014,-2.1974669,-2.4102583,0.0,0.0,0.0,0.3764100670814514,0.3764100670814514,link6
1763436602.5975542,d4pg_train,FAR,train,8,47,-3.581460154244478,0,421,1,0.083,0.128,0.567,-1.6768037,0.5242141,-2.5453382,-2.8199508,-2.3691974,-3.056025,0.0,0.0,0.0,0.4448612332344055,0.4448612332344055,link6
1763436603.9901576,d4pg_train,FAR,train,8,48,-4.178882838672947,0,422,1,0.066,0.14,0.67,-1.6286042,0.54703957,-2.2779813,-2.913789,-2.398681,-3.1426795,0.0,0.0,0.0,0.4546688199043274,0.4546688199043274,link6
1763436605.4266295,d4pg_train,FAR,train,8,49,-4.035427868186412,0,423,1,0.184,0.144,0.595,-2.3119392,0.42367077,-2.4678087,-3.142679,-2.0309064,-2.6063063,0.0,0.0,0.0,0.321868360042572,0.321868360042572,link6
1763436606.8140774,d4pg_train,FAR,train,8,50,-3.5056130640706185,0,424,1,0.115,0.106,0.548,-2.1462562,0.45250723,-2.5629005,-3.1525505,-2.4997249,-2.907126,0.0,0.0,0.0,0.4059089422225952,0.4059089422225952,link6
1763436608.1993365,d4pg_train,FAR,train,8,51,-3.4359703264377752,0,425,1,0.079,0.108,0.552,-1.9000621,0.48716357,-2.5430574,-3.157692,-2.5954173,-3.0709033,0.0,0.0,0.0,0.5183220505714417,0.5183220505714417,link6
1763436609.5949473,d4pg_train,FAR,train,8,52,-3.7849317322649823,0,426,1,-0.074,0.195,0.593,-1.0157152,0.50488293,-2.5087502,-3.1449206,-1.9409822,-2.6386251,0.0,0.0,0.0,0.5931365489959717,0.5931365489959717,link6
1763436610.9893348,d4pg_train,FAR,train,8,53,-3.554073661032666,0,427,1,-0.036,0.158,0.565,-1.111703,0.56240034,-2.5905857,-3.1547077,-2.0828612,-2.6408913,0.0,0.0,0.0,0.5206820368766785,0.5206820368766785,link6
1763436612.3860235,d4pg_train,FAR,train,8,54,-3.5873161773424407,0,428,1,-0.011,0.136,0.578,-1.206401,0.6111251,-2.5711946,-3.1537507,-2.1584687,-2.6817245,0.0,0.0,0.0,0.533922016620636,0.533922016620636,link6
1763436613.7841122,d4pg_train,FAR,train,8,55,-4.657798991463742,0,429,1,0.035,0.228,0.734,-1.5605581,0.5861922,-2.2482147,-3.143183,-1.458561,-3.0916862,0.0,0.0,0.0,0.47928673028945923,0.47928673028945923,link6
1763436615.2003763,d4pg_train,FAR,train,8,56,-4.225468489183293,0,430,1,0.05,0.215,0.66,-1.6126186,0.56664044,-2.3930128,-3.1231956,-1.6799915,-3.1416163,0.0,0.0,0.0,0.46079590916633606,0.46079590916633606,link6
1763436616.5902092,d4pg_train,FAR,train,8,57,-4.89462565686152,0,431,1,0.073,0.14,0.789,-1.8032948,0.5504775,-2.0948608,-3.1425512,-2.1395092,-3.141596,0.0,0.0,0.0,0.43159544467926025,0.43159544467926025,link6
1763436617.9704678,d4pg_train,FAR,train,8,58,-3.889779660890136,0,432,1,-0.028,0.122,0.633,-0.948521,0.52995396,-2.3402383,-3.0926852,-2.765031,-3.1419911,0.0,0.0,0.0,0.5613807439804077,0.5613807439804077,link6
1763436619.3790007,d4pg_train,FAR,train,8,59,-3.463716291526959,0,433,1,-0.025,0.104,0.559,-0.99298775,0.5265649,-2.5050335,-3.1097658,-2.813829,-3.005347,0.0,0.0,0.0,0.4628079831600189,0.4628079831600189,link6
1763436623.032495,d4pg_train,FAR,train,9,0,-6.450183272856263,0,434,1,-0.286,0.302,0.991,-0.51272595,0.198519,-1.4691523,-2.3374603,-1.2380795,-2.247325,0.0,0.0,0.0,0.7985629439353943,0.7985629439353943,link6
1763436624.4172263,d4pg_train,FAR,train,9,1,-4.816377880342619,0,435,1,-0.188,0.329,0.704,-0.90739995,0.3109321,-2.1649628,-2.9630394,-1.468761,-2.8727555,0.0,0.0,0.0,0.5553206205368042,0.5553206205368042,link6
1763436625.8015404,d4pg_train,FAR,train,9,2,-4.718194068660219,0,436,1,-0.063,0.277,0.731,-1.2035882,0.4854207,-2.2106838,-3.126162,-1.4600391,-2.4065154,0.0,0.0,0.0,0.5979359745979309,0.5979359745979309,link6
1763436627.2734978,d4pg_train,FAR,train,9,3,-5.653273896320852,0,437,1,0.136,0.261,0.862,-1.9544115,0.45802328,-1.9241612,-3.1474204,-1.2620155,-2.9539678,0.0,0.0,0.0,0.32800590991973877,0.32800590991973877,link6
1763436628.6711488,d4pg_train,FAR,train,9,4,-5.268065531079072,0,438,1,0.174,0.204,0.824,-2.0996964,0.47318715,-2.0311747,-3.0728836,-1.5339055,-3.1188743,0.0,0.0,0.0,0.4284433424472809,0.4284433424472809,link6
1763436630.1222494,d4pg_train,FAR,train,9,5,-4.171309156201267,0,439,1,0.127,0.119,0.652,-1.7558103,0.5814952,-2.3466082,-2.4433753,-2.2095351,-3.1355853,0.0,0.0,0.0,0.3710422217845917,0.3710422217845917,link6
1763436631.5126615,d4pg_train,FAR,train,9,6,-3.724669170491982,0,440,1,0.089,0.136,0.594,-1.524957,0.49662757,-2.395694,-2.237384,-2.587563,-3.1432388,0.0,0.0,0.0,0.5127463340759277,0.5127463340759277,link6
1763436632.9222164,d4pg_train,FAR,train,9,7,-3.5290573799856273,0,441,1,-0.006,0.168,0.561,-1.2000076,0.37009162,-2.375105,-2.1158679,-3.016853,-3.1359715,0.0,0.0,0.0,0.5797043442726135,0.5797043442726135,link6
1763436634.324823,d4pg_train,FAR,train,9,8,-3.565524035344558,0,442,1,-0.045,0.09,0.582,-0.7130955,0.5884689,-2.495217,-3.1479647,-2.6383183,-2.5399964,0.0,0.0,0.0,0.5439069867134094,0.5439069867134094,link6
1763436635.7219577,d4pg_train,FAR,train,9,9,-3.3263255742062596,0,443,1,-0.034,0.077,0.545,-0.670542,0.6032278,-2.586395,-3.1585708,-2.6852882,-2.686246,0.0,0.0,0.0,0.5651831030845642,0.5651831030845642,link6
1763436637.113569,d4pg_train,FAR,train,9,10,-5.719451579337465,0,444,1,0.02,0.133,0.937,-1.1737777,0.52637833,-1.7483543,-2.862628,-2.0307593,-3.1417356,0.0,0.0,0.0,0.4832543432712555,0.4832543432712555,link6
1763436638.5196686,d4pg_train,FAR,train,9,11,-4.034828395656774,0,445,1,-0.012,0.176,0.644,-1.1199856,0.481432,-2.3607943,-2.8041222,-2.4688623,-3.1033,0.0,0.0,0.0,0.5167940855026245,0.5167940855026245,link6
1763436640.0157492,d4pg_train,FAR,train,9,12,-3.582330304169701,0,446,1,-0.035,0.155,0.574,-0.94935346,0.48088464,-2.4889607,-2.8798275,-2.484757,-3.1023355,0.0,0.0,0.0,0.6342714428901672,0.6342714428901672,link6
1763436641.40172,d4pg_train,FAR,train,9,13,-4.057715148334787,0,447,1,-0.063,0.11,0.661,-0.63510394,0.57492006,-2.3242915,-2.9487484,-2.5578978,-2.829794,0.0,0.0,0.0,0.5549693703651428,0.5549693703651428,link6
1763436642.788561,d4pg_train,FAR,train,9,14,-3.800502149280706,0,448,1,-0.068,0.184,0.6,-0.9675409,0.5493638,-2.5123265,-3.0459008,-1.878402,-2.965288,0.0,0.0,0.0,0.5953335762023926,0.5953335762023926,link6
1763436644.1753435,d4pg_train,FAR,train,9,15,-3.4399330191746444,0,449,1,-0.047,0.281,0.495,-1.2697214,0.48525122,-2.6019063,-3.1559336,-1.1616809,-3.1135187,0.0,0.0,0.0,0.5942749977111816,0.5942749977111816,link6
1763436645.6054425,d4pg_train,FAR,train,9,16,-4.151144649311845,0,450,1,-0.001,0.111,0.677,-1.2063407,0.5614803,-2.19178,-3.1477797,-2.861727,-3.098943,0.0,0.0,0.0,0.4964587986469269,0.4964587986469269,link6
1763436647.0009837,d4pg_train,FAR,train,9,17,-4.176065529327773,0,451,1,-0.005,0.098,0.686,-1.1152476,0.5919007,-2.2103858,-3.1597986,-2.765392,-3.1418831,0.0,0.0,0.0,0.561745285987854,0.561745285987854,link6
1763436648.3810043,d4pg_train,FAR,train,9,18,-3.8111653300308204,0,452,1,-0.064,0.15,0.611,-0.6758246,0.57634485,-2.475113,-2.7556424,-2.2006955,-2.894148,0.0,0.0,0.0,0.5694276094436646,0.5694276094436646,link6
1763436649.786164,d4pg_train,FAR,train,9,19,-4.244846041229131,0,453,1,-0.09,0.178,0.677,-0.70214003,0.59504914,-2.3598418,-2.814137,-1.819961,-3.0707297,0.0,0.0,0.0,0.6192965507507324,0.6192965507507324,link6
1763436651.1684191,d4pg_train,FAR,train,9,20,-4.12116903264406,0,454,1,-0.108,0.182,0.652,-0.7163613,0.5940662,-2.4166048,-2.922916,-1.6980826,-3.1247933,0.0,0.0,0.0,0.6407113075256348,0.6407113075256348,link6
1763436652.5589156,d4pg_train,FAR,train,9,21,-4.533198642556812,0,455,1,0.029,0.192,0.723,-1.5223819,0.5767319,-2.2706172,-3.1435926,-1.827222,-3.0002084,0.0,0.0,0.0,0.4792217016220093,0.4792217016220093,link6
1763436653.9526203,d4pg_train,FAR,train,9,22,-3.821190492942101,0,456,1,0.018,0.144,0.614,-1.2972145,0.5991687,-2.4890287,-2.9759548,-2.2250493,-2.4713192,0.0,0.0,0.0,0.49423301219940186,0.49423301219940186,link6
1763436655.333696,d4pg_train,FAR,train,9,23,-3.5656960481852797,0,457,1,0.008,0.136,0.577,-1.0947089,0.5942296,-2.5377347,-2.799154,-2.265115,-2.308513,0.0,0.0,0.0,0.6376470327377319,0.6376470327377319,link6
1763436656.7178857,d4pg_train,FAR,train,9,24,-3.8264439738916245,0,458,1,-0.072,0.24,0.584,-0.9859045,0.46201786,-2.4951756,-2.8683279,-1.806059,-3.032851,0.0,0.0,0.0,0.5911576747894287,0.5911576747894287,link6
1763436658.1084213,d4pg_train,FAR,train,9,25,-3.477519302068249,0,459,1,-0.01,0.185,0.542,-1.2518132,0.45321825,-2.5953755,-3.0378804,-2.2301888,-3.08374,0.0,0.0,0.0,0.4809097647666931,0.4809097647666931,link6
1763436659.4971008,d4pg_train,FAR,train,9,26,-3.3689348162881636,0,460,1,0.029,0.153,0.532,-1.511355,0.4347774,-2.5977728,-3.1559305,-2.4996989,-3.1210618,0.0,0.0,0.0,0.47560685873031616,0.47560685873031616,link6
1763436660.8863664,d4pg_train,FAR,train,9,27,-3.6859852199500462,0,461,1,0.004,0.276,0.545,-1.3721864,0.51649827,-2.5425725,-2.9803395,-1.2848408,-3.1157405,0.0,0.0,0.0,0.5496968626976013,0.5496968626976013,link6
1763436662.267845,d4pg_train,FAR,train,9,28,-3.5090728988487334,0,462,1,-0.038,0.232,0.533,-1.1698223,0.56002694,-2.6067178,-3.047762,-1.4862818,-3.1370687,0.0,0.0,0.0,0.589168906211853,0.589168906211853,link6
1763436663.6602037,d4pg_train,FAR,train,9,29,-3.6366551133112117,0,463,1,0.034,0.191,0.567,-1.5447371,0.39276347,-2.498895,-3.142282,-2.4299192,-3.1419501,0.0,0.0,0.0,0.480294406414032,0.480294406414032,link6
1763436665.0769649,d4pg_train,FAR,train,9,30,-3.6293924369335224,0,464,1,0.068,0.115,0.578,-1.7735988,0.53798234,-2.5200295,-3.0848162,-2.481144,-3.1418564,0.0,0.0,0.0,0.4269327223300934,0.4269327223300934,link6
1763436666.470776,d4pg_train,FAR,train,9,31,-3.861082153665928,0,465,1,0.065,0.116,0.623,-1.7453846,0.610349,-2.461848,-3.1012447,-2.2531857,-3.1416726,0.0,0.0,0.0,0.4856480062007904,0.4856480062007904,link6
1763436667.866592,d4pg_train,FAR,train,9,32,-3.695051996028925,0,466,1,-0.025,0.225,0.569,-0.91958004,0.51018524,-2.5076985,-2.420143,-1.9137849,-3.1422484,0.0,0.0,0.0,0.5483996868133545,0.5483996868133545,link6
1763436669.2551045,d4pg_train,FAR,train,9,33,-3.948908781159486,0,467,1,-0.11,0.213,0.612,-0.6749368,0.4939525,-2.4230404,-2.66752,-1.8502033,-3.1425347,0.0,0.0,0.0,0.6859530806541443,0.6859530806541443,link6
1763436670.6571596,d4pg_train,FAR,train,9,34,-4.119132635092271,0,468,1,-0.193,0.178,0.634,-0.40149787,0.4731674,-2.404749,-2.7755854,-1.7215565,-3.1423104,0.0,0.0,0.0,0.7901200652122498,0.7901200652122498,link6
1763436672.043791,d4pg_train,FAR,train,9,35,-4.308473428251938,0,469,1,-0.124,0.126,0.694,-0.55667514,0.4593214,-2.1898897,-3.0749824,-2.5744588,-2.5167906,0.0,0.0,0.0,0.6074718236923218,0.6074718236923218,link6
